/* XPM */
static char * baguette_xpm[] = {
"512 512 8 1",
" 	c #FF00FF",
".	c #000000",
"+	c #996524",
"@	c #BA813D",
"#	c #8D5A19",
"$	c #A97332",
"%	c #D1B479",
"&	c #DEC188",
"                                                                                                                                                                                                                                                                                                                                                                                                                                                                                                                                ",
"                                                                                                                                                                                                                                                                                                                                                                                                                                                                                                                                ",
"                                                                                                                                                                                                                                                                                                                                                                                                                                                                                                                                ",
"                                                                                                                                                                                                                                                                                                                                                                                                                                                                                                                                ",
"                                                                                                                                                                                                                                                                                                                                                                                                                                                                                                                                ",
"                                                                                                                                                                                                                                                                                                                                                                                                                                                                                                                                ",
"                                                                                                                                                                                                                                                                                                                                                                                                                                                                                                                                ",
"                                                                                                                                                                                                                                                                                                                                                                                                                                                                                                                                ",
"                                                                                                                                                                                                                                                                                                                                                                                                                                                                                                                                ",
"                                                                                                                                                                                                                                                                                                                                                                                                                                                                                                                                ",
"                                                                                                                                                                                                                                                                                                                                                                                                                                                                                                                                ",
"                                                                                                                                                                                                                                                                                                                                                                                                                                                                                                                                ",
"                                                                                                                                                                                                                                                                                                                                                                                                                                                                                                                                ",
"                                                                                                                                                                                                                                                                                                                                                                                                                                                                                                                                ",
"                                                                                                                                                                                                                                                                                                                                                                                                                                                                                                                                ",
"                                                                                                                                                                                                                                                                                                                                                                                                                                                                                                                                ",
"                                                                                                                                                                                                                                                                                                                                                                                                                                                                                                                                ",
"                                                                                                                                                                                                                                                                                                                                                                                                                                                                                                                                ",
"                                                                                                                                                                                                                                                                                                                                                                                                                                                                                                                                ",
"                                                                                                                                                                                                                                                                                                                                                                                                                                                                                                                                ",
"                                                                                                                                                                                                                                                                                                                                                                                                                                                                                                                                ",
"                                                                                                                                                                                                                                                                                                                                                                                                                                                                                                                                ",
"                                                                                                                                                                                                                                                                                                                                                                                                                                                                                                                                ",
"                                                                                                                                                                                                                                                                                                                                                                                                                                                                                                                                ",
"                                                                                                                                                                                                                                                                                                                                                                                                                                                                                                                                ",
"                                                                                                                                                                                                                                                                                                                                                                                                                                                                                                                                ",
"                                                                                                                                                                                                                                                                                                                                                                                                                                                                                                                                ",
"                                                                                                                                                                                                                                                                                                                                                                                                                                                                                                                                ",
"                                                                                                                                                                                                                                                                                                                                                                                                                                                                                                                                ",
"                                                                                                                                                                                                                                                                                                                                                                                                                                                                                                                                ",
"                                                                                                                                                                                                                                                                                                                                                                                                                                                                                                                                ",
"                                                                                                                                                                                                                                                                                                                                                                                                                                                                                                                                ",
"                                                                                                                                                                                                                                                                                                                                                                                                                                                                                                                                ",
"                                                                                                                                                                                                                                                                                                                                                                                                                                                                                                                                ",
"                                                                                                                                                                                                                                                                                                                                                                                                                                                                                                                                ",
"                                                                                                                                                                                                                                                                                                                                                                                                                                                                                                                                ",
"                                                                                                                                                                                                                                                                                                                                                                                                                                                                                                                                ",
"                                                                                                                                                                                                                                                                                                                                                                                                                                                                                                                                ",
"                                                                                                                                                                                                                                                                                                                                                                                                                                                                                                                                ",
"                                                                                                                                                                                                                                                                                                                                                                                                                                                                                                                                ",
"                                                                                                                                                                                                                                                                                                                                                                                                                                                                                                                                ",
"                                                                                                                                                                                                                                                                                                                                                                                                                                                                                                                                ",
"                                                                                                                                                                                                                                                                                                                                                                                                                                                                                                                                ",
"                                                                                                                                                                                                                                        ..........................................                                                                                                                                                                                                                                              ",
"                                                                                                                                                                                                                                        ..........................................                                                                                                                                                                                                                                              ",
"                                                                                                                                                                                                                                        ..........................................                                                                                                                                                                                                                                              ",
"                                                                                                                                                                                                                                        ..........................................                                                                                                                                                                                                                                              ",
"                                                                                                                                                                                                                                        ..........................................                                                                                                                                                                                                                                              ",
"                                                                                                                                                                                                                                        ..........................................                                                                                                                                                                                                                                              ",
"                                                                                                                                                                                                                                        ..........................................                                                                                                                                                                                                                                              ",
"                                                                                                                                                                                                                                 .......++++++++++++++++++++++++++++@@@@@@@@@@@@@@.......                                                                                                                                                                                                                                       ",
"                                                                                                                                                                                                                                 .......++++++++++++++++++++++++++++@@@@@@@@@@@@@@.......                                                                                                                                                                                                                                       ",
"                                                                                                                                                                                                                                 .......++++++++++++++++++++++++++++@@@@@@@@@@@@@@.......                                                                                                                                                                                                                                       ",
"                                                                                                                                                                                                                                 .......++++++++++++++++++++++++++++@@@@@@@@@@@@@@.......                                                                                                                                                                                                                                       ",
"                                                                                                                                                                                                                                 .......++++++++++++++++++++++++++++@@@@@@@@@@@@@@.......                                                                                                                                                                                                                                       ",
"                                                                                                                                                                                                                                 .......++++++++++++++++++++++++++++@@@@@@@@@@@@@@.......                                                                                                                                                                                                                                       ",
"                                                                                                                                                                                                                                 .......++++++++++++++++++++++++++++@@@@@@@@@@@@@@.......                                                                                                                                                                                                                                       ",
"                                                                                                                                                                                                                          .......++++++++++++++++++++++++++++@@@@@@@@@@@@@@@@@@@@@.......                                                                                                                                                                                                                                       ",
"                                                                                                                                                                                                                          .......++++++++++++++++++++++++++++@@@@@@@@@@@@@@@@@@@@@.......                                                                                                                                                                                                                                       ",
"                                                                                                                                                                                                                          .......++++++++++++++++++++++++++++@@@@@@@@@@@@@@@@@@@@@.......                                                                                                                                                                                                                                       ",
"                                                                                                                                                                                                                          .......++++++++++++++++++++++++++++@@@@@@@@@@@@@@@@@@@@@.......                                                                                                                                                                                                                                       ",
"                                                                                                                                                                                                                          .......++++++++++++++++++++++++++++@@@@@@@@@@@@@@@@@@@@@.......                                                                                                                                                                                                                                       ",
"                                                                                                                                                                                                                          .......++++++++++++++++++++++++++++@@@@@@@@@@@@@@@@@@@@@.......                                                                                                                                                                                                                                       ",
"                                                                                                                                                                                                                          .......++++++++++++++++++++++++++++@@@@@@@@@@@@@@@@@@@@@.......                                                                                                                                                                                                                                       ",
"                                                                                                                                                                                                                          .......+++++++++++++++++++++@@@@@@@@@@@@@@@@@@@@@@@@@@@@@@@@@@@.......                                                                                                                                                                                                                                ",
"                                                                                                                                                                                                                          .......+++++++++++++++++++++@@@@@@@@@@@@@@@@@@@@@@@@@@@@@@@@@@@.......                                                                                                                                                                                                                                ",
"                                                                                                                                                                                                                          .......+++++++++++++++++++++@@@@@@@@@@@@@@@@@@@@@@@@@@@@@@@@@@@.......                                                                                                                                                                                                                                ",
"                                                                                                                                                                                                                          .......+++++++++++++++++++++@@@@@@@@@@@@@@@@@@@@@@@@@@@@@@@@@@@.......                                                                                                                                                                                                                                ",
"                                                                                                                                                                                                                          .......+++++++++++++++++++++@@@@@@@@@@@@@@@@@@@@@@@@@@@@@@@@@@@.......                                                                                                                                                                                                                                ",
"                                                                                                                                                                                                                          .......+++++++++++++++++++++@@@@@@@@@@@@@@@@@@@@@@@@@@@@@@@@@@@.......                                                                                                                                                                                                                                ",
"                                                                                                                                                                                                                          .......+++++++++++++++++++++@@@@@@@@@@@@@@@@@@@@@@@@@@@@@@@@@@@.......                                                                                                                                                                                                                                ",
"                                                                                                                                                                                                                   .......#######+++++++++++++++++++++@@@@@@@@@@@@@@@@@@@@@@@@@@@@@@@@@@@.......                                                                                                                                                                                                                                ",
"                                                                                                                                                                                                                   .......#######+++++++++++++++++++++@@@@@@@@@@@@@@@@@@@@@@@@@@@@@@@@@@@.......                                                                                                                                                                                                                                ",
"                                                                                                                                                                                                                   .......#######+++++++++++++++++++++@@@@@@@@@@@@@@@@@@@@@@@@@@@@@@@@@@@.......                                                                                                                                                                                                                                ",
"                                                                                                                                                                                                                   .......#######+++++++++++++++++++++@@@@@@@@@@@@@@@@@@@@@@@@@@@@@@@@@@@.......                                                                                                                                                                                                                                ",
"                                                                                                                                                                                                                   .......#######+++++++++++++++++++++@@@@@@@@@@@@@@@@@@@@@@@@@@@@@@@@@@@.......                                                                                                                                                                                                                                ",
"                                                                                                                                                                                                                   .......#######+++++++++++++++++++++@@@@@@@@@@@@@@@@@@@@@@@@@@@@@@@@@@@.......                                                                                                                                                                                                                                ",
"                                                                                                                                                                                                                   .......#######+++++++++++++++++++++@@@@@@@@@@@@@@@@@@@@@@@@@@@@@@@@@@@.......                                                                                                                                                                                                                                ",
"                                                                                                                                                                                                                   .......+++++++#######+++++++@@@@@@@@@@@@@@@@@@@@@$$$$$$$@@@@@@@@@@@@@@@@@@@@@.......                                                                                                                                                                                                                         ",
"                                                                                                                                                                                                                   .......+++++++#######+++++++@@@@@@@@@@@@@@@@@@@@@$$$$$$$@@@@@@@@@@@@@@@@@@@@@.......                                                                                                                                                                                                                         ",
"                                                                                                                                                                                                                   .......+++++++#######+++++++@@@@@@@@@@@@@@@@@@@@@$$$$$$$@@@@@@@@@@@@@@@@@@@@@.......                                                                                                                                                                                                                         ",
"                                                                                                                                                                                                                   .......+++++++#######+++++++@@@@@@@@@@@@@@@@@@@@@$$$$$$$@@@@@@@@@@@@@@@@@@@@@.......                                                                                                                                                                                                                         ",
"                                                                                                                                                                                                                   .......+++++++#######+++++++@@@@@@@@@@@@@@@@@@@@@$$$$$$$@@@@@@@@@@@@@@@@@@@@@.......                                                                                                                                                                                                                         ",
"                                                                                                                                                                                                                   .......+++++++#######+++++++@@@@@@@@@@@@@@@@@@@@@$$$$$$$@@@@@@@@@@@@@@@@@@@@@.......                                                                                                                                                                                                                         ",
"                                                                                                                                                                                                                   .......+++++++#######+++++++@@@@@@@@@@@@@@@@@@@@@$$$$$$$@@@@@@@@@@@@@@@@@@@@@.......                                                                                                                                                                                                                         ",
"                                                                                                                                                                                                            .......++++++++++++++#######+++++++@@@@@@@@@@@@@@@@@@@@@@@@@@@@@@@@@@@$$$$$$$@@@@@@@@@@@@@@.......                                                                                                                                                                                                                  ",
"                                                                                                                                                                                                            .......++++++++++++++#######+++++++@@@@@@@@@@@@@@@@@@@@@@@@@@@@@@@@@@@$$$$$$$@@@@@@@@@@@@@@.......                                                                                                                                                                                                                  ",
"                                                                                                                                                                                                            .......++++++++++++++#######+++++++@@@@@@@@@@@@@@@@@@@@@@@@@@@@@@@@@@@$$$$$$$@@@@@@@@@@@@@@.......                                                                                                                                                                                                                  ",
"                                                                                                                                                                                                            .......++++++++++++++#######+++++++@@@@@@@@@@@@@@@@@@@@@@@@@@@@@@@@@@@$$$$$$$@@@@@@@@@@@@@@.......                                                                                                                                                                                                                  ",
"                                                                                                                                                                                                            .......++++++++++++++#######+++++++@@@@@@@@@@@@@@@@@@@@@@@@@@@@@@@@@@@$$$$$$$@@@@@@@@@@@@@@.......                                                                                                                                                                                                                  ",
"                                                                                                                                                                                                            .......++++++++++++++#######+++++++@@@@@@@@@@@@@@@@@@@@@@@@@@@@@@@@@@@$$$$$$$@@@@@@@@@@@@@@.......                                                                                                                                                                                                                  ",
"                                                                                                                                                                                                            .......++++++++++++++#######+++++++@@@@@@@@@@@@@@@@@@@@@@@@@@@@@@@@@@@$$$$$$$@@@@@@@@@@@@@@.......                                                                                                                                                                                                                  ",
"                                                                                                                                                                                                            .......+++++++++++++++++++++@@@@@@@@@@@@@@@@@@@@@@@@@@@@@@@@@@@@@@@@@@@@@@@@@@@@@@@@@@@@@@@.......                                                                                                                                                                                                                  ",
"                                                                                                                                                                                                            .......+++++++++++++++++++++@@@@@@@@@@@@@@@@@@@@@@@@@@@@@@@@@@@@@@@@@@@@@@@@@@@@@@@@@@@@@@@.......                                                                                                                                                                                                                  ",
"                                                                                                                                                                                                            .......+++++++++++++++++++++@@@@@@@@@@@@@@@@@@@@@@@@@@@@@@@@@@@@@@@@@@@@@@@@@@@@@@@@@@@@@@@.......                                                                                                                                                                                                                  ",
"                                                                                                                                                                                                            .......+++++++++++++++++++++@@@@@@@@@@@@@@@@@@@@@@@@@@@@@@@@@@@@@@@@@@@@@@@@@@@@@@@@@@@@@@@.......                                                                                                                                                                                                                  ",
"                                                                                                                                                                                                            .......+++++++++++++++++++++@@@@@@@@@@@@@@@@@@@@@@@@@@@@@@@@@@@@@@@@@@@@@@@@@@@@@@@@@@@@@@@.......                                                                                                                                                                                                                  ",
"                                                                                                                                                                                                            .......+++++++++++++++++++++@@@@@@@@@@@@@@@@@@@@@@@@@@@@@@@@@@@@@@@@@@@@@@@@@@@@@@@@@@@@@@@.......                                                                                                                                                                                                                  ",
"                                                                                                                                                                                                            .......+++++++++++++++++++++@@@@@@@@@@@@@@@@@@@@@@@@@@@@@@@@@@@@@@@@@@@@@@@@@@@@@@@@@@@@@@@.......                                                                                                                                                                                                                  ",
"                                                                                                                                                                                                            .......+++++++++++++++++++++@@@@@@@@@@@@@@$$$$$$$@@@@@@@@@@@@@@@@@@@@@@@@@@@@@@@@@@@@@@@@@@.......                                                                                                                                                                                                                  ",
"                                                                                                                                                                                                            .......+++++++++++++++++++++@@@@@@@@@@@@@@$$$$$$$@@@@@@@@@@@@@@@@@@@@@@@@@@@@@@@@@@@@@@@@@@.......                                                                                                                                                                                                                  ",
"                                                                                                                                                                                                            .......+++++++++++++++++++++@@@@@@@@@@@@@@$$$$$$$@@@@@@@@@@@@@@@@@@@@@@@@@@@@@@@@@@@@@@@@@@.......                                                                                                                                                                                                                  ",
"                                                                                                                                                                                                            .......+++++++++++++++++++++@@@@@@@@@@@@@@$$$$$$$@@@@@@@@@@@@@@@@@@@@@@@@@@@@@@@@@@@@@@@@@@.......                                                                                                                                                                                                                  ",
"                                                                                                                                                                                                            .......+++++++++++++++++++++@@@@@@@@@@@@@@$$$$$$$@@@@@@@@@@@@@@@@@@@@@@@@@@@@@@@@@@@@@@@@@@.......                                                                                                                                                                                                                  ",
"                                                                                                                                                                                                            .......+++++++++++++++++++++@@@@@@@@@@@@@@$$$$$$$@@@@@@@@@@@@@@@@@@@@@@@@@@@@@@@@@@@@@@@@@@.......                                                                                                                                                                                                                  ",
"                                                                                                                                                                                                            .......+++++++++++++++++++++@@@@@@@@@@@@@@$$$$$$$@@@@@@@@@@@@@@@@@@@@@@@@@@@@@@@@@@@@@@@@@@.......                                                                                                                                                                                                                  ",
"                                                                                                                                                                                                            .......+++++++++++++++++++++@@@@@@@@@@@@@@@@@@@@@@@@@@@@@@@@@@@@@@@@@@@@@@@@@@@@@@@@$$$$$$$@@@@@@@.......                                                                                                                                                                                                           ",
"                                                                                                                                                                                                            .......+++++++++++++++++++++@@@@@@@@@@@@@@@@@@@@@@@@@@@@@@@@@@@@@@@@@@@@@@@@@@@@@@@@$$$$$$$@@@@@@@.......                                                                                                                                                                                                           ",
"                                                                                                                                                                                                            .......+++++++++++++++++++++@@@@@@@@@@@@@@@@@@@@@@@@@@@@@@@@@@@@@@@@@@@@@@@@@@@@@@@@$$$$$$$@@@@@@@.......                                                                                                                                                                                                           ",
"                                                                                                                                                                                                            .......+++++++++++++++++++++@@@@@@@@@@@@@@@@@@@@@@@@@@@@@@@@@@@@@@@@@@@@@@@@@@@@@@@@$$$$$$$@@@@@@@.......                                                                                                                                                                                                           ",
"                                                                                                                                                                                                            .......+++++++++++++++++++++@@@@@@@@@@@@@@@@@@@@@@@@@@@@@@@@@@@@@@@@@@@@@@@@@@@@@@@@$$$$$$$@@@@@@@.......                                                                                                                                                                                                           ",
"                                                                                                                                                                                                            .......+++++++++++++++++++++@@@@@@@@@@@@@@@@@@@@@@@@@@@@@@@@@@@@@@@@@@@@@@@@@@@@@@@@$$$$$$$@@@@@@@.......                                                                                                                                                                                                           ",
"                                                                                                                                                                                                            .......+++++++++++++++++++++@@@@@@@@@@@@@@@@@@@@@@@@@@@@@@@@@@@@@@@@@@@@@@@@@@@@@@@@$$$$$$$@@@@@@@.......                                                                                                                                                                                                           ",
"                                                                                                                                                                                                            .......+++++++++++++++++++++@@@@@@@@@@@@@@@@@@@@@%%%%%%%&&&&&&&&&&&&&&&&&&&&&&&&&&&&&&&&&&&&&&&&&&.......                                                                                                                                                                                                           ",
"                                                                                                                                                                                                            .......+++++++++++++++++++++@@@@@@@@@@@@@@@@@@@@@%%%%%%%&&&&&&&&&&&&&&&&&&&&&&&&&&&&&&&&&&&&&&&&&&.......                                                                                                                                                                                                           ",
"                                                                                                                                                                                                            .......+++++++++++++++++++++@@@@@@@@@@@@@@@@@@@@@%%%%%%%&&&&&&&&&&&&&&&&&&&&&&&&&&&&&&&&&&&&&&&&&&.......                                                                                                                                                                                                           ",
"                                                                                                                                                                                                            .......+++++++++++++++++++++@@@@@@@@@@@@@@@@@@@@@%%%%%%%&&&&&&&&&&&&&&&&&&&&&&&&&&&&&&&&&&&&&&&&&&.......                                                                                                                                                                                                           ",
"                                                                                                                                                                                                            .......+++++++++++++++++++++@@@@@@@@@@@@@@@@@@@@@%%%%%%%&&&&&&&&&&&&&&&&&&&&&&&&&&&&&&&&&&&&&&&&&&.......                                                                                                                                                                                                           ",
"                                                                                                                                                                                                            .......+++++++++++++++++++++@@@@@@@@@@@@@@@@@@@@@%%%%%%%&&&&&&&&&&&&&&&&&&&&&&&&&&&&&&&&&&&&&&&&&&.......                                                                                                                                                                                                           ",
"                                                                                                                                                                                                            .......+++++++++++++++++++++@@@@@@@@@@@@@@@@@@@@@%%%%%%%&&&&&&&&&&&&&&&&&&&&&&&&&&&&&&&&&&&&&&&&&&.......                                                                                                                                                                                                           ",
"                                                                                                                                                                                                            .......+++++++++++++++++++++@@@@@@@@@@@@@@@@@@@@@%%%%%%%&&&&&&&&&&&&&&%%%%%%%%%%%%%%&&&&&&&&&&&&&&.......                                                                                                                                                                                                           ",
"                                                                                                                                                                                                            .......+++++++++++++++++++++@@@@@@@@@@@@@@@@@@@@@%%%%%%%&&&&&&&&&&&&&&%%%%%%%%%%%%%%&&&&&&&&&&&&&&.......                                                                                                                                                                                                           ",
"                                                                                                                                                                                                            .......+++++++++++++++++++++@@@@@@@@@@@@@@@@@@@@@%%%%%%%&&&&&&&&&&&&&&%%%%%%%%%%%%%%&&&&&&&&&&&&&&.......                                                                                                                                                                                                           ",
"                                                                                                                                                                                                            .......+++++++++++++++++++++@@@@@@@@@@@@@@@@@@@@@%%%%%%%&&&&&&&&&&&&&&%%%%%%%%%%%%%%&&&&&&&&&&&&&&.......                                                                                                                                                                                                           ",
"                                                                                                                                                                                                            .......+++++++++++++++++++++@@@@@@@@@@@@@@@@@@@@@%%%%%%%&&&&&&&&&&&&&&%%%%%%%%%%%%%%&&&&&&&&&&&&&&.......                                                                                                                                                                                                           ",
"                                                                                                                                                                                                            .......+++++++++++++++++++++@@@@@@@@@@@@@@@@@@@@@%%%%%%%&&&&&&&&&&&&&&%%%%%%%%%%%%%%&&&&&&&&&&&&&&.......                                                                                                                                                                                                           ",
"                                                                                                                                                                                                            .......+++++++++++++++++++++@@@@@@@@@@@@@@@@@@@@@%%%%%%%&&&&&&&&&&&&&&%%%%%%%%%%%%%%&&&&&&&&&&&&&&.......                                                                                                                                                                                                           ",
"                                                                                                                                                                                                            .......++++++++++++++@@@@@@@@@@@@@@@@@@@@@&&&&&&&&&&&&&&&&&&&&&%%%%%%%&&&&&&&&&&&&&&&&&&&&&&&&&&&&.......                                                                                                                                                                                                           ",
"                                                                                                                                                                                                            .......++++++++++++++@@@@@@@@@@@@@@@@@@@@@&&&&&&&&&&&&&&&&&&&&&%%%%%%%&&&&&&&&&&&&&&&&&&&&&&&&&&&&.......                                                                                                                                                                                                           ",
"                                                                                                                                                                                                            .......++++++++++++++@@@@@@@@@@@@@@@@@@@@@&&&&&&&&&&&&&&&&&&&&&%%%%%%%&&&&&&&&&&&&&&&&&&&&&&&&&&&&.......                                                                                                                                                                                                           ",
"                                                                                                                                                                                                            .......++++++++++++++@@@@@@@@@@@@@@@@@@@@@&&&&&&&&&&&&&&&&&&&&&%%%%%%%&&&&&&&&&&&&&&&&&&&&&&&&&&&&.......                                                                                                                                                                                                           ",
"                                                                                                                                                                                                            .......++++++++++++++@@@@@@@@@@@@@@@@@@@@@&&&&&&&&&&&&&&&&&&&&&%%%%%%%&&&&&&&&&&&&&&&&&&&&&&&&&&&&.......                                                                                                                                                                                                           ",
"                                                                                                                                                                                                            .......++++++++++++++@@@@@@@@@@@@@@@@@@@@@&&&&&&&&&&&&&&&&&&&&&%%%%%%%&&&&&&&&&&&&&&&&&&&&&&&&&&&&.......                                                                                                                                                                                                           ",
"                                                                                                                                                                                                            .......++++++++++++++@@@@@@@@@@@@@@@@@@@@@&&&&&&&&&&&&&&&&&&&&&%%%%%%%&&&&&&&&&&&&&&&&&&&&&&&&&&&&.......                                                                                                                                                                                                           ",
"                                                                                                                                                                                                            .......++++++++++++++@@@@@@@@@@@@@@@@@@@@@@@@@@@@@@@@@@@@@@@@@@$$$$$$$@@@@@@@@@@@@@@@@@@@@@@@@@@@@.......                                                                                                                                                                                                           ",
"                                                                                                                                                                                                            .......++++++++++++++@@@@@@@@@@@@@@@@@@@@@@@@@@@@@@@@@@@@@@@@@@$$$$$$$@@@@@@@@@@@@@@@@@@@@@@@@@@@@.......                                                                                                                                                                                                           ",
"                                                                                                                                                                                                            .......++++++++++++++@@@@@@@@@@@@@@@@@@@@@@@@@@@@@@@@@@@@@@@@@@$$$$$$$@@@@@@@@@@@@@@@@@@@@@@@@@@@@.......                                                                                                                                                                                                           ",
"                                                                                                                                                                                                            .......++++++++++++++@@@@@@@@@@@@@@@@@@@@@@@@@@@@@@@@@@@@@@@@@@$$$$$$$@@@@@@@@@@@@@@@@@@@@@@@@@@@@.......                                                                                                                                                                                                           ",
"                                                                                                                                                                                                            .......++++++++++++++@@@@@@@@@@@@@@@@@@@@@@@@@@@@@@@@@@@@@@@@@@$$$$$$$@@@@@@@@@@@@@@@@@@@@@@@@@@@@.......                                                                                                                                                                                                           ",
"                                                                                                                                                                                                            .......++++++++++++++@@@@@@@@@@@@@@@@@@@@@@@@@@@@@@@@@@@@@@@@@@$$$$$$$@@@@@@@@@@@@@@@@@@@@@@@@@@@@.......                                                                                                                                                                                                           ",
"                                                                                                                                                                                                            .......++++++++++++++@@@@@@@@@@@@@@@@@@@@@@@@@@@@@@@@@@@@@@@@@@$$$$$$$@@@@@@@@@@@@@@@@@@@@@@@@@@@@.......                                                                                                                                                                                                           ",
"                                                                                                                                                                                                            .......++++++++++++++@@@@@@@$$$$$$$@@@@@@@@@@@@@@@@@@@@@@@@@@@@$$$$$$$$$$$$$$@@@@@@@@@@@@@@@@@@@@@.......                                                                                                                                                                                                           ",
"                                                                                                                                                                                                            .......++++++++++++++@@@@@@@$$$$$$$@@@@@@@@@@@@@@@@@@@@@@@@@@@@$$$$$$$$$$$$$$@@@@@@@@@@@@@@@@@@@@@.......                                                                                                                                                                                                           ",
"                                                                                                                                                                                                            .......++++++++++++++@@@@@@@$$$$$$$@@@@@@@@@@@@@@@@@@@@@@@@@@@@$$$$$$$$$$$$$$@@@@@@@@@@@@@@@@@@@@@.......                                                                                                                                                                                                           ",
"                                                                                                                                                                                                            .......++++++++++++++@@@@@@@$$$$$$$@@@@@@@@@@@@@@@@@@@@@@@@@@@@$$$$$$$$$$$$$$@@@@@@@@@@@@@@@@@@@@@.......                                                                                                                                                                                                           ",
"                                                                                                                                                                                                            .......++++++++++++++@@@@@@@$$$$$$$@@@@@@@@@@@@@@@@@@@@@@@@@@@@$$$$$$$$$$$$$$@@@@@@@@@@@@@@@@@@@@@.......                                                                                                                                                                                                           ",
"                                                                                                                                                                                                            .......++++++++++++++@@@@@@@$$$$$$$@@@@@@@@@@@@@@@@@@@@@@@@@@@@$$$$$$$$$$$$$$@@@@@@@@@@@@@@@@@@@@@.......                                                                                                                                                                                                           ",
"                                                                                                                                                                                                            .......++++++++++++++@@@@@@@$$$$$$$@@@@@@@@@@@@@@@@@@@@@@@@@@@@$$$$$$$$$$$$$$@@@@@@@@@@@@@@@@@@@@@.......                                                                                                                                                                                                           ",
"                                                                                                                                                                                                            .......++++++++++++++@@@@@@@@@@@@@@$$$$$$$@@@@@@@@@@@@@@@@@@@@@@@@@@@@@@@@@@@@@@@@@@@@@@@@@@@@@@@@.......                                                                                                                                                                                                           ",
"                                                                                                                                                                                                            .......++++++++++++++@@@@@@@@@@@@@@$$$$$$$@@@@@@@@@@@@@@@@@@@@@@@@@@@@@@@@@@@@@@@@@@@@@@@@@@@@@@@@.......                                                                                                                                                                                                           ",
"                                                                                                                                                                                                            .......++++++++++++++@@@@@@@@@@@@@@$$$$$$$@@@@@@@@@@@@@@@@@@@@@@@@@@@@@@@@@@@@@@@@@@@@@@@@@@@@@@@@.......                                                                                                                                                                                                           ",
"                                                                                                                                                                                                            .......++++++++++++++@@@@@@@@@@@@@@$$$$$$$@@@@@@@@@@@@@@@@@@@@@@@@@@@@@@@@@@@@@@@@@@@@@@@@@@@@@@@@.......                                                                                                                                                                                                           ",
"                                                                                                                                                                                                            .......++++++++++++++@@@@@@@@@@@@@@$$$$$$$@@@@@@@@@@@@@@@@@@@@@@@@@@@@@@@@@@@@@@@@@@@@@@@@@@@@@@@@.......                                                                                                                                                                                                           ",
"                                                                                                                                                                                                            .......++++++++++++++@@@@@@@@@@@@@@$$$$$$$@@@@@@@@@@@@@@@@@@@@@@@@@@@@@@@@@@@@@@@@@@@@@@@@@@@@@@@@.......                                                                                                                                                                                                           ",
"                                                                                                                                                                                                            .......++++++++++++++@@@@@@@@@@@@@@$$$$$$$@@@@@@@@@@@@@@@@@@@@@@@@@@@@@@@@@@@@@@@@@@@@@@@@@@@@@@@@.......                                                                                                                                                                                                           ",
"                                                                                                                                                                                                            .......#######+++++++@@@@@@@@@@@@@@@@@@@@@$$$$$$$@@@@@@@@@@@@@@@@@@@@@@@@@@@@@@@@@@@@@@@@@@@@@@@@@.......                                                                                                                                                                                                           ",
"                                                                                                                                                                                                            .......#######+++++++@@@@@@@@@@@@@@@@@@@@@$$$$$$$@@@@@@@@@@@@@@@@@@@@@@@@@@@@@@@@@@@@@@@@@@@@@@@@@.......                                                                                                                                                                                                           ",
"                                                                                                                                                                                                            .......#######+++++++@@@@@@@@@@@@@@@@@@@@@$$$$$$$@@@@@@@@@@@@@@@@@@@@@@@@@@@@@@@@@@@@@@@@@@@@@@@@@.......                                                                                                                                                                                                           ",
"                                                                                                                                                                                                            .......#######+++++++@@@@@@@@@@@@@@@@@@@@@$$$$$$$@@@@@@@@@@@@@@@@@@@@@@@@@@@@@@@@@@@@@@@@@@@@@@@@@.......                                                                                                                                                                                                           ",
"                                                                                                                                                                                                            .......#######+++++++@@@@@@@@@@@@@@@@@@@@@$$$$$$$@@@@@@@@@@@@@@@@@@@@@@@@@@@@@@@@@@@@@@@@@@@@@@@@@.......                                                                                                                                                                                                           ",
"                                                                                                                                                                                                            .......#######+++++++@@@@@@@@@@@@@@@@@@@@@$$$$$$$@@@@@@@@@@@@@@@@@@@@@@@@@@@@@@@@@@@@@@@@@@@@@@@@@.......                                                                                                                                                                                                           ",
"                                                                                                                                                                                                            .......#######+++++++@@@@@@@@@@@@@@@@@@@@@$$$$$$$@@@@@@@@@@@@@@@@@@@@@@@@@@@@@@@@@@@@@@@@@@@@@@@@@.......                                                                                                                                                                                                           ",
"                                                                                                                                                                                                            .......++++++++++++++@@@@@@@@@@@@@@@@@@@@@$$$$$$$@@@@@@@@@@@@@@%%%%%%%&&&&&&&&&&&&&&&&&&&&&&&&&&&&.......                                                                                                                                                                                                           ",
"                                                                                                                                                                                                            .......++++++++++++++@@@@@@@@@@@@@@@@@@@@@$$$$$$$@@@@@@@@@@@@@@%%%%%%%&&&&&&&&&&&&&&&&&&&&&&&&&&&&.......                                                                                                                                                                                                           ",
"                                                                                                                                                                                                            .......++++++++++++++@@@@@@@@@@@@@@@@@@@@@$$$$$$$@@@@@@@@@@@@@@%%%%%%%&&&&&&&&&&&&&&&&&&&&&&&&&&&&.......                                                                                                                                                                                                           ",
"                                                                                                                                                                                                            .......++++++++++++++@@@@@@@@@@@@@@@@@@@@@$$$$$$$@@@@@@@@@@@@@@%%%%%%%&&&&&&&&&&&&&&&&&&&&&&&&&&&&.......                                                                                                                                                                                                           ",
"                                                                                                                                                                                                            .......++++++++++++++@@@@@@@@@@@@@@@@@@@@@$$$$$$$@@@@@@@@@@@@@@%%%%%%%&&&&&&&&&&&&&&&&&&&&&&&&&&&&.......                                                                                                                                                                                                           ",
"                                                                                                                                                                                                            .......++++++++++++++@@@@@@@@@@@@@@@@@@@@@$$$$$$$@@@@@@@@@@@@@@%%%%%%%&&&&&&&&&&&&&&&&&&&&&&&&&&&&.......                                                                                                                                                                                                           ",
"                                                                                                                                                                                                            .......++++++++++++++@@@@@@@@@@@@@@@@@@@@@$$$$$$$@@@@@@@@@@@@@@%%%%%%%&&&&&&&&&&&&&&&&&&&&&&&&&&&&.......                                                                                                                                                                                                           ",
"                                                                                                                                                                                                            .......++++++++++++++@@@@@@@@@@@@@@@@@@@@@%%%%%%%&&&&&&&&&&&&&&&&&&&&&&&&&&&&&&&&&&&&&&&&&&&&&&&&&.......                                                                                                                                                                                                           ",
"                                                                                                                                                                                                            .......++++++++++++++@@@@@@@@@@@@@@@@@@@@@%%%%%%%&&&&&&&&&&&&&&&&&&&&&&&&&&&&&&&&&&&&&&&&&&&&&&&&&.......                                                                                                                                                                                                           ",
"                                                                                                                                                                                                            .......++++++++++++++@@@@@@@@@@@@@@@@@@@@@%%%%%%%&&&&&&&&&&&&&&&&&&&&&&&&&&&&&&&&&&&&&&&&&&&&&&&&&.......                                                                                                                                                                                                           ",
"                                                                                                                                                                                                            .......++++++++++++++@@@@@@@@@@@@@@@@@@@@@%%%%%%%&&&&&&&&&&&&&&&&&&&&&&&&&&&&&&&&&&&&&&&&&&&&&&&&&.......                                                                                                                                                                                                           ",
"                                                                                                                                                                                                            .......++++++++++++++@@@@@@@@@@@@@@@@@@@@@%%%%%%%&&&&&&&&&&&&&&&&&&&&&&&&&&&&&&&&&&&&&&&&&&&&&&&&&.......                                                                                                                                                                                                           ",
"                                                                                                                                                                                                            .......++++++++++++++@@@@@@@@@@@@@@@@@@@@@%%%%%%%&&&&&&&&&&&&&&&&&&&&&&&&&&&&&&&&&&&&&&&&&&&&&&&&&.......                                                                                                                                                                                                           ",
"                                                                                                                                                                                                            .......++++++++++++++@@@@@@@@@@@@@@@@@@@@@%%%%%%%&&&&&&&&&&&&&&&&&&&&&&&&&&&&&&&&&&&&&&&&&&&&&&&&&.......                                                                                                                                                                                                           ",
"                                                                                                                                                                                                            .......++++++++++++++@@@@@@@@@@@@@@@@@@@@@@@@@@@@&&&&&&&&&&&&&&&&&&&&&%%%%%%%$$$$$$$&&&&&&&%%%%%%%.......                                                                                                                                                                                                           ",
"                                                                                                                                                                                                            .......++++++++++++++@@@@@@@@@@@@@@@@@@@@@@@@@@@@&&&&&&&&&&&&&&&&&&&&&%%%%%%%$$$$$$$&&&&&&&%%%%%%%.......                                                                                                                                                                                                           ",
"                                                                                                                                                                                                            .......++++++++++++++@@@@@@@@@@@@@@@@@@@@@@@@@@@@&&&&&&&&&&&&&&&&&&&&&%%%%%%%$$$$$$$&&&&&&&%%%%%%%.......                                                                                                                                                                                                           ",
"                                                                                                                                                                                                            .......++++++++++++++@@@@@@@@@@@@@@@@@@@@@@@@@@@@&&&&&&&&&&&&&&&&&&&&&%%%%%%%$$$$$$$&&&&&&&%%%%%%%.......                                                                                                                                                                                                           ",
"                                                                                                                                                                                                            .......++++++++++++++@@@@@@@@@@@@@@@@@@@@@@@@@@@@&&&&&&&&&&&&&&&&&&&&&%%%%%%%$$$$$$$&&&&&&&%%%%%%%.......                                                                                                                                                                                                           ",
"                                                                                                                                                                                                            .......++++++++++++++@@@@@@@@@@@@@@@@@@@@@@@@@@@@&&&&&&&&&&&&&&&&&&&&&%%%%%%%$$$$$$$&&&&&&&%%%%%%%.......                                                                                                                                                                                                           ",
"                                                                                                                                                                                                            .......++++++++++++++@@@@@@@@@@@@@@@@@@@@@@@@@@@@&&&&&&&&&&&&&&&&&&&&&%%%%%%%$$$$$$$&&&&&&&%%%%%%%.......                                                                                                                                                                                                           ",
"                                                                                                                                                                                                            .......++++++++++++++@@@@@@@@@@@@@@@@@@@@@@@@@@@@@@@@@@@@@@@@@@@@@@@@@@@@@@@@$$$$$$$@@@@@@@@@@@@@@.......                                                                                                                                                                                                           ",
"                                                                                                                                                                                                            .......++++++++++++++@@@@@@@@@@@@@@@@@@@@@@@@@@@@@@@@@@@@@@@@@@@@@@@@@@@@@@@@$$$$$$$@@@@@@@@@@@@@@.......                                                                                                                                                                                                           ",
"                                                                                                                                                                                                            .......++++++++++++++@@@@@@@@@@@@@@@@@@@@@@@@@@@@@@@@@@@@@@@@@@@@@@@@@@@@@@@@$$$$$$$@@@@@@@@@@@@@@.......                                                                                                                                                                                                           ",
"                                                                                                                                                                                                            .......++++++++++++++@@@@@@@@@@@@@@@@@@@@@@@@@@@@@@@@@@@@@@@@@@@@@@@@@@@@@@@@$$$$$$$@@@@@@@@@@@@@@.......                                                                                                                                                                                                           ",
"                                                                                                                                                                                                            .......++++++++++++++@@@@@@@@@@@@@@@@@@@@@@@@@@@@@@@@@@@@@@@@@@@@@@@@@@@@@@@@$$$$$$$@@@@@@@@@@@@@@.......                                                                                                                                                                                                           ",
"                                                                                                                                                                                                            .......++++++++++++++@@@@@@@@@@@@@@@@@@@@@@@@@@@@@@@@@@@@@@@@@@@@@@@@@@@@@@@@$$$$$$$@@@@@@@@@@@@@@.......                                                                                                                                                                                                           ",
"                                                                                                                                                                                                            .......++++++++++++++@@@@@@@@@@@@@@@@@@@@@@@@@@@@@@@@@@@@@@@@@@@@@@@@@@@@@@@@$$$$$$$@@@@@@@@@@@@@@.......                                                                                                                                                                                                           ",
"                                                                                                                                                                                                            .......++++++++++++++@@@@@@@@@@@@@@@@@@@@@@@@@@@@@@@@@@@@@@@@@@@@@@@@@$$$$$$$@@@@@@@@@@@@@@@@@@@@@.......                                                                                                                                                                                                           ",
"                                                                                                                                                                                                            .......++++++++++++++@@@@@@@@@@@@@@@@@@@@@@@@@@@@@@@@@@@@@@@@@@@@@@@@@$$$$$$$@@@@@@@@@@@@@@@@@@@@@.......                                                                                                                                                                                                           ",
"                                                                                                                                                                                                            .......++++++++++++++@@@@@@@@@@@@@@@@@@@@@@@@@@@@@@@@@@@@@@@@@@@@@@@@@$$$$$$$@@@@@@@@@@@@@@@@@@@@@.......                                                                                                                                                                                                           ",
"                                                                                                                                                                                                            .......++++++++++++++@@@@@@@@@@@@@@@@@@@@@@@@@@@@@@@@@@@@@@@@@@@@@@@@@$$$$$$$@@@@@@@@@@@@@@@@@@@@@.......                                                                                                                                                                                                           ",
"                                                                                                                                                                                                            .......++++++++++++++@@@@@@@@@@@@@@@@@@@@@@@@@@@@@@@@@@@@@@@@@@@@@@@@@$$$$$$$@@@@@@@@@@@@@@@@@@@@@.......                                                                                                                                                                                                           ",
"                                                                                                                                                                                                            .......++++++++++++++@@@@@@@@@@@@@@@@@@@@@@@@@@@@@@@@@@@@@@@@@@@@@@@@@$$$$$$$@@@@@@@@@@@@@@@@@@@@@.......                                                                                                                                                                                                           ",
"                                                                                                                                                                                                            .......++++++++++++++@@@@@@@@@@@@@@@@@@@@@@@@@@@@@@@@@@@@@@@@@@@@@@@@@$$$$$$$@@@@@@@@@@@@@@@@@@@@@.......                                                                                                                                                                                                           ",
"                                                                                                                                                                                                            .......++++++++++++++@@@@@@@@@@@@@@$$$$$$$@@@@@@@@@@@@@@@@@@@@@@@@@@@@@@@@@@@@@@@@@@@@@@@@@@@@@@@@.......                                                                                                                                                                                                           ",
"                                                                                                                                                                                                            .......++++++++++++++@@@@@@@@@@@@@@$$$$$$$@@@@@@@@@@@@@@@@@@@@@@@@@@@@@@@@@@@@@@@@@@@@@@@@@@@@@@@@.......                                                                                                                                                                                                           ",
"                                                                                                                                                                                                            .......++++++++++++++@@@@@@@@@@@@@@$$$$$$$@@@@@@@@@@@@@@@@@@@@@@@@@@@@@@@@@@@@@@@@@@@@@@@@@@@@@@@@.......                                                                                                                                                                                                           ",
"                                                                                                                                                                                                            .......++++++++++++++@@@@@@@@@@@@@@$$$$$$$@@@@@@@@@@@@@@@@@@@@@@@@@@@@@@@@@@@@@@@@@@@@@@@@@@@@@@@@.......                                                                                                                                                                                                           ",
"                                                                                                                                                                                                            .......++++++++++++++@@@@@@@@@@@@@@$$$$$$$@@@@@@@@@@@@@@@@@@@@@@@@@@@@@@@@@@@@@@@@@@@@@@@@@@@@@@@@.......                                                                                                                                                                                                           ",
"                                                                                                                                                                                                            .......++++++++++++++@@@@@@@@@@@@@@$$$$$$$@@@@@@@@@@@@@@@@@@@@@@@@@@@@@@@@@@@@@@@@@@@@@@@@@@@@@@@@.......                                                                                                                                                                                                           ",
"                                                                                                                                                                                                            .......++++++++++++++@@@@@@@@@@@@@@$$$$$$$@@@@@@@@@@@@@@@@@@@@@@@@@@@@@@@@@@@@@@@@@@@@@@@@@@@@@@@@.......                                                                                                                                                                                                           ",
"                                                                                                                                                                                                            .......++++++++++++++@@@@@@@@@@@@@@@@@@@@@@@@@@@@@@@@@@@@@@@@@@@@@@@@@@@@@@@@@@@@@@@@@@@@@@@@@@@@@.......                                                                                                                                                                                                           ",
"                                                                                                                                                                                                            .......++++++++++++++@@@@@@@@@@@@@@@@@@@@@@@@@@@@@@@@@@@@@@@@@@@@@@@@@@@@@@@@@@@@@@@@@@@@@@@@@@@@@.......                                                                                                                                                                                                           ",
"                                                                                                                                                                                                            .......++++++++++++++@@@@@@@@@@@@@@@@@@@@@@@@@@@@@@@@@@@@@@@@@@@@@@@@@@@@@@@@@@@@@@@@@@@@@@@@@@@@@.......                                                                                                                                                                                                           ",
"                                                                                                                                                                                                            .......++++++++++++++@@@@@@@@@@@@@@@@@@@@@@@@@@@@@@@@@@@@@@@@@@@@@@@@@@@@@@@@@@@@@@@@@@@@@@@@@@@@@.......                                                                                                                                                                                                           ",
"                                                                                                                                                                                                            .......++++++++++++++@@@@@@@@@@@@@@@@@@@@@@@@@@@@@@@@@@@@@@@@@@@@@@@@@@@@@@@@@@@@@@@@@@@@@@@@@@@@@.......                                                                                                                                                                                                           ",
"                                                                                                                                                                                                            .......++++++++++++++@@@@@@@@@@@@@@@@@@@@@@@@@@@@@@@@@@@@@@@@@@@@@@@@@@@@@@@@@@@@@@@@@@@@@@@@@@@@@.......                                                                                                                                                                                                           ",
"                                                                                                                                                                                                            .......++++++++++++++@@@@@@@@@@@@@@@@@@@@@@@@@@@@@@@@@@@@@@@@@@@@@@@@@@@@@@@@@@@@@@@@@@@@@@@@@@@@@.......                                                                                                                                                                                                           ",
"                                                                                                                                                                                                            .......++++++++++++++@@@@@@@$$$$$$$@@@@@@@@@@@@@@@@@@@@@@@@@@@@@@@@@@@@@@@@@@@@@@@@@@@@@@@@@@@@@@@.......                                                                                                                                                                                                           ",
"                                                                                                                                                                                                            .......++++++++++++++@@@@@@@$$$$$$$@@@@@@@@@@@@@@@@@@@@@@@@@@@@@@@@@@@@@@@@@@@@@@@@@@@@@@@@@@@@@@@.......                                                                                                                                                                                                           ",
"                                                                                                                                                                                                            .......++++++++++++++@@@@@@@$$$$$$$@@@@@@@@@@@@@@@@@@@@@@@@@@@@@@@@@@@@@@@@@@@@@@@@@@@@@@@@@@@@@@@.......                                                                                                                                                                                                           ",
"                                                                                                                                                                                                            .......++++++++++++++@@@@@@@$$$$$$$@@@@@@@@@@@@@@@@@@@@@@@@@@@@@@@@@@@@@@@@@@@@@@@@@@@@@@@@@@@@@@@.......                                                                                                                                                                                                           ",
"                                                                                                                                                                                                            .......++++++++++++++@@@@@@@$$$$$$$@@@@@@@@@@@@@@@@@@@@@@@@@@@@@@@@@@@@@@@@@@@@@@@@@@@@@@@@@@@@@@@.......                                                                                                                                                                                                           ",
"                                                                                                                                                                                                            .......++++++++++++++@@@@@@@$$$$$$$@@@@@@@@@@@@@@@@@@@@@@@@@@@@@@@@@@@@@@@@@@@@@@@@@@@@@@@@@@@@@@@.......                                                                                                                                                                                                           ",
"                                                                                                                                                                                                            .......++++++++++++++@@@@@@@$$$$$$$@@@@@@@@@@@@@@@@@@@@@@@@@@@@@@@@@@@@@@@@@@@@@@@@@@@@@@@@@@@@@@@.......                                                                                                                                                                                                           ",
"                                                                                                                                                                                                            .......++++++++++++++@@@@@@@@@@@@@@@@@@@@@&&&&&&&&&&&&&&&&&&&&&%%%%%%%&&&&&&&&&&&&&&&&&&&&&%%%%%%%.......                                                                                                                                                                                                           ",
"                                                                                                                                                                                                            .......++++++++++++++@@@@@@@@@@@@@@@@@@@@@&&&&&&&&&&&&&&&&&&&&&%%%%%%%&&&&&&&&&&&&&&&&&&&&&%%%%%%%.......                                                                                                                                                                                                           ",
"                                                                                                                                                                                                            .......++++++++++++++@@@@@@@@@@@@@@@@@@@@@&&&&&&&&&&&&&&&&&&&&&%%%%%%%&&&&&&&&&&&&&&&&&&&&&%%%%%%%.......                                                                                                                                                                                                           ",
"                                                                                                                                                                                                            .......++++++++++++++@@@@@@@@@@@@@@@@@@@@@&&&&&&&&&&&&&&&&&&&&&%%%%%%%&&&&&&&&&&&&&&&&&&&&&%%%%%%%.......                                                                                                                                                                                                           ",
"                                                                                                                                                                                                            .......++++++++++++++@@@@@@@@@@@@@@@@@@@@@&&&&&&&&&&&&&&&&&&&&&%%%%%%%&&&&&&&&&&&&&&&&&&&&&%%%%%%%.......                                                                                                                                                                                                           ",
"                                                                                                                                                                                                            .......++++++++++++++@@@@@@@@@@@@@@@@@@@@@&&&&&&&&&&&&&&&&&&&&&%%%%%%%&&&&&&&&&&&&&&&&&&&&&%%%%%%%.......                                                                                                                                                                                                           ",
"                                                                                                                                                                                                            .......++++++++++++++@@@@@@@@@@@@@@@@@@@@@&&&&&&&&&&&&&&&&&&&&&%%%%%%%&&&&&&&&&&&&&&&&&&&&&%%%%%%%.......                                                                                                                                                                                                           ",
"                                                                                                                                                                                                            .......++++++++++++++@@@@@@@@@@@@@@@@@@@@@@@@@@@@&&&&&&&&&&&&&&%%%%%%%&&&&&&&&&&&&&&%%%%%%%&&&&&&&.......                                                                                                                                                                                                           ",
"                                                                                                                                                                                                            .......++++++++++++++@@@@@@@@@@@@@@@@@@@@@@@@@@@@&&&&&&&&&&&&&&%%%%%%%&&&&&&&&&&&&&&%%%%%%%&&&&&&&.......                                                                                                                                                                                                           ",
"                                                                                                                                                                                                            .......++++++++++++++@@@@@@@@@@@@@@@@@@@@@@@@@@@@&&&&&&&&&&&&&&%%%%%%%&&&&&&&&&&&&&&%%%%%%%&&&&&&&.......                                                                                                                                                                                                           ",
"                                                                                                                                                                                                            .......++++++++++++++@@@@@@@@@@@@@@@@@@@@@@@@@@@@&&&&&&&&&&&&&&%%%%%%%&&&&&&&&&&&&&&%%%%%%%&&&&&&&.......                                                                                                                                                                                                           ",
"                                                                                                                                                                                                            .......++++++++++++++@@@@@@@@@@@@@@@@@@@@@@@@@@@@&&&&&&&&&&&&&&%%%%%%%&&&&&&&&&&&&&&%%%%%%%&&&&&&&.......                                                                                                                                                                                                           ",
"                                                                                                                                                                                                            .......++++++++++++++@@@@@@@@@@@@@@@@@@@@@@@@@@@@&&&&&&&&&&&&&&%%%%%%%&&&&&&&&&&&&&&%%%%%%%&&&&&&&.......                                                                                                                                                                                                           ",
"                                                                                                                                                                                                            .......++++++++++++++@@@@@@@@@@@@@@@@@@@@@@@@@@@@&&&&&&&&&&&&&&%%%%%%%&&&&&&&&&&&&&&%%%%%%%&&&&&&&.......                                                                                                                                                                                                           ",
"                                                                                                                                                                                                            .......#######+++++++@@@@@@@@@@@@@@@@@@@@@@@@@@@@&&&&&&&@@@@@@@&&&&&&&&&&&&&&&&&&&&&&&&&&&&&&&&&&&.......                                                                                                                                                                                                           ",
"                                                                                                                                                                                                            .......#######+++++++@@@@@@@@@@@@@@@@@@@@@@@@@@@@&&&&&&&@@@@@@@&&&&&&&&&&&&&&&&&&&&&&&&&&&&&&&&&&&.......                                                                                                                                                                                                           ",
"                                                                                                                                                                                                            .......#######+++++++@@@@@@@@@@@@@@@@@@@@@@@@@@@@&&&&&&&@@@@@@@&&&&&&&&&&&&&&&&&&&&&&&&&&&&&&&&&&&.......                                                                                                                                                                                                           ",
"                                                                                                                                                                                                            .......#######+++++++@@@@@@@@@@@@@@@@@@@@@@@@@@@@&&&&&&&@@@@@@@&&&&&&&&&&&&&&&&&&&&&&&&&&&&&&&&&&&.......                                                                                                                                                                                                           ",
"                                                                                                                                                                                                            .......#######+++++++@@@@@@@@@@@@@@@@@@@@@@@@@@@@&&&&&&&@@@@@@@&&&&&&&&&&&&&&&&&&&&&&&&&&&&&&&&&&&.......                                                                                                                                                                                                           ",
"                                                                                                                                                                                                            .......#######+++++++@@@@@@@@@@@@@@@@@@@@@@@@@@@@&&&&&&&@@@@@@@&&&&&&&&&&&&&&&&&&&&&&&&&&&&&&&&&&&.......                                                                                                                                                                                                           ",
"                                                                                                                                                                                                            .......#######+++++++@@@@@@@@@@@@@@@@@@@@@@@@@@@@&&&&&&&@@@@@@@&&&&&&&&&&&&&&&&&&&&&&&&&&&&&&&&&&&.......                                                                                                                                                                                                           ",
"                                                                                                                                                                                                            .......+++++++#######@@@@@@@@@@@@@@@@@@@@@@@@@@@@@@@@@@@@@@@@@@@@@@@@@@@@@@@@@@@@@@@@@@@@@@@@@@@@@.......                                                                                                                                                                                                           ",
"                                                                                                                                                                                                            .......+++++++#######@@@@@@@@@@@@@@@@@@@@@@@@@@@@@@@@@@@@@@@@@@@@@@@@@@@@@@@@@@@@@@@@@@@@@@@@@@@@@.......                                                                                                                                                                                                           ",
"                                                                                                                                                                                                            .......+++++++#######@@@@@@@@@@@@@@@@@@@@@@@@@@@@@@@@@@@@@@@@@@@@@@@@@@@@@@@@@@@@@@@@@@@@@@@@@@@@@.......                                                                                                                                                                                                           ",
"                                                                                                                                                                                                            .......+++++++#######@@@@@@@@@@@@@@@@@@@@@@@@@@@@@@@@@@@@@@@@@@@@@@@@@@@@@@@@@@@@@@@@@@@@@@@@@@@@@.......                                                                                                                                                                                                           ",
"                                                                                                                                                                                                            .......+++++++#######@@@@@@@@@@@@@@@@@@@@@@@@@@@@@@@@@@@@@@@@@@@@@@@@@@@@@@@@@@@@@@@@@@@@@@@@@@@@@.......                                                                                                                                                                                                           ",
"                                                                                                                                                                                                            .......+++++++#######@@@@@@@@@@@@@@@@@@@@@@@@@@@@@@@@@@@@@@@@@@@@@@@@@@@@@@@@@@@@@@@@@@@@@@@@@@@@@.......                                                                                                                                                                                                           ",
"                                                                                                                                                                                                            .......+++++++#######@@@@@@@@@@@@@@@@@@@@@@@@@@@@@@@@@@@@@@@@@@@@@@@@@@@@@@@@@@@@@@@@@@@@@@@@@@@@@.......                                                                                                                                                                                                           ",
"                                                                                                                                                                                                            .......++++++++++++++@@@@@@@@@@@@@@$$$$$$$$$$$$$$@@@@@@@@@@@@@@@@@@@@@$$$$$$$@@@@@@@$$$$$$$$$$$$$$.......                                                                                                                                                                                                           ",
"                                                                                                                                                                                                            .......++++++++++++++@@@@@@@@@@@@@@$$$$$$$$$$$$$$@@@@@@@@@@@@@@@@@@@@@$$$$$$$@@@@@@@$$$$$$$$$$$$$$.......                                                                                                                                                                                                           ",
"                                                                                                                                                                                                            .......++++++++++++++@@@@@@@@@@@@@@$$$$$$$$$$$$$$@@@@@@@@@@@@@@@@@@@@@$$$$$$$@@@@@@@$$$$$$$$$$$$$$.......                                                                                                                                                                                                           ",
"                                                                                                                                                                                                            .......++++++++++++++@@@@@@@@@@@@@@$$$$$$$$$$$$$$@@@@@@@@@@@@@@@@@@@@@$$$$$$$@@@@@@@$$$$$$$$$$$$$$.......                                                                                                                                                                                                           ",
"                                                                                                                                                                                                            .......++++++++++++++@@@@@@@@@@@@@@$$$$$$$$$$$$$$@@@@@@@@@@@@@@@@@@@@@$$$$$$$@@@@@@@$$$$$$$$$$$$$$.......                                                                                                                                                                                                           ",
"                                                                                                                                                                                                            .......++++++++++++++@@@@@@@@@@@@@@$$$$$$$$$$$$$$@@@@@@@@@@@@@@@@@@@@@$$$$$$$@@@@@@@$$$$$$$$$$$$$$.......                                                                                                                                                                                                           ",
"                                                                                                                                                                                                            .......++++++++++++++@@@@@@@@@@@@@@$$$$$$$$$$$$$$@@@@@@@@@@@@@@@@@@@@@$$$$$$$@@@@@@@$$$$$$$$$$$$$$.......                                                                                                                                                                                                           ",
"                                                                                                                                                                                                            .......++++++++++++++@@@@@@@@@@@@@@@@@@@@@$$$$$$$$$$$$$$@@@@@@@$$$$$$$@@@@@@@@@@@@@@@@@@@@@@@@@@@@.......                                                                                                                                                                                                           ",
"                                                                                                                                                                                                            .......++++++++++++++@@@@@@@@@@@@@@@@@@@@@$$$$$$$$$$$$$$@@@@@@@$$$$$$$@@@@@@@@@@@@@@@@@@@@@@@@@@@@.......                                                                                                                                                                                                           ",
"                                                                                                                                                                                                            .......++++++++++++++@@@@@@@@@@@@@@@@@@@@@$$$$$$$$$$$$$$@@@@@@@$$$$$$$@@@@@@@@@@@@@@@@@@@@@@@@@@@@.......                                                                                                                                                                                                           ",
"                                                                                                                                                                                                            .......++++++++++++++@@@@@@@@@@@@@@@@@@@@@$$$$$$$$$$$$$$@@@@@@@$$$$$$$@@@@@@@@@@@@@@@@@@@@@@@@@@@@.......                                                                                                                                                                                                           ",
"                                                                                                                                                                                                            .......++++++++++++++@@@@@@@@@@@@@@@@@@@@@$$$$$$$$$$$$$$@@@@@@@$$$$$$$@@@@@@@@@@@@@@@@@@@@@@@@@@@@.......                                                                                                                                                                                                           ",
"                                                                                                                                                                                                            .......++++++++++++++@@@@@@@@@@@@@@@@@@@@@$$$$$$$$$$$$$$@@@@@@@$$$$$$$@@@@@@@@@@@@@@@@@@@@@@@@@@@@.......                                                                                                                                                                                                           ",
"                                                                                                                                                                                                            .......++++++++++++++@@@@@@@@@@@@@@@@@@@@@$$$$$$$$$$$$$$@@@@@@@$$$$$$$@@@@@@@@@@@@@@@@@@@@@@@@@@@@.......                                                                                                                                                                                                           ",
"                                                                                                                                                                                                            .......++++++++++++++@@@@@@@@@@@@@@@@@@@@@@@@@@@@@@@@@@@@@@@@@@@@@@@@@@@@@@@@@@@@@@@@@@@@@@@@@@@@@.......                                                                                                                                                                                                           ",
"                                                                                                                                                                                                            .......++++++++++++++@@@@@@@@@@@@@@@@@@@@@@@@@@@@@@@@@@@@@@@@@@@@@@@@@@@@@@@@@@@@@@@@@@@@@@@@@@@@@.......                                                                                                                                                                                                           ",
"                                                                                                                                                                                                            .......++++++++++++++@@@@@@@@@@@@@@@@@@@@@@@@@@@@@@@@@@@@@@@@@@@@@@@@@@@@@@@@@@@@@@@@@@@@@@@@@@@@@.......                                                                                                                                                                                                           ",
"                                                                                                                                                                                                            .......++++++++++++++@@@@@@@@@@@@@@@@@@@@@@@@@@@@@@@@@@@@@@@@@@@@@@@@@@@@@@@@@@@@@@@@@@@@@@@@@@@@@.......                                                                                                                                                                                                           ",
"                                                                                                                                                                                                            .......++++++++++++++@@@@@@@@@@@@@@@@@@@@@@@@@@@@@@@@@@@@@@@@@@@@@@@@@@@@@@@@@@@@@@@@@@@@@@@@@@@@@.......                                                                                                                                                                                                           ",
"                                                                                                                                                                                                            .......++++++++++++++@@@@@@@@@@@@@@@@@@@@@@@@@@@@@@@@@@@@@@@@@@@@@@@@@@@@@@@@@@@@@@@@@@@@@@@@@@@@@.......                                                                                                                                                                                                           ",
"                                                                                                                                                                                                            .......++++++++++++++@@@@@@@@@@@@@@@@@@@@@@@@@@@@@@@@@@@@@@@@@@@@@@@@@@@@@@@@@@@@@@@@@@@@@@@@@@@@@.......                                                                                                                                                                                                           ",
"                                                                                                                                                                                                            .......++++++++++++++@@@@@@@@@@@@@@@@@@@@@@@@@@@@&&&&&&&@@@@@@@@@@@@@@@@@@@@@@@@@@@@@@@@@@@@@@@@@@.......                                                                                                                                                                                                           ",
"                                                                                                                                                                                                            .......++++++++++++++@@@@@@@@@@@@@@@@@@@@@@@@@@@@&&&&&&&@@@@@@@@@@@@@@@@@@@@@@@@@@@@@@@@@@@@@@@@@@.......                                                                                                                                                                                                           ",
"                                                                                                                                                                                                            .......++++++++++++++@@@@@@@@@@@@@@@@@@@@@@@@@@@@&&&&&&&@@@@@@@@@@@@@@@@@@@@@@@@@@@@@@@@@@@@@@@@@@.......                                                                                                                                                                                                           ",
"                                                                                                                                                                                                            .......++++++++++++++@@@@@@@@@@@@@@@@@@@@@@@@@@@@&&&&&&&@@@@@@@@@@@@@@@@@@@@@@@@@@@@@@@@@@@@@@@@@@.......                                                                                                                                                                                                           ",
"                                                                                                                                                                                                            .......++++++++++++++@@@@@@@@@@@@@@@@@@@@@@@@@@@@&&&&&&&@@@@@@@@@@@@@@@@@@@@@@@@@@@@@@@@@@@@@@@@@@.......                                                                                                                                                                                                           ",
"                                                                                                                                                                                                            .......++++++++++++++@@@@@@@@@@@@@@@@@@@@@@@@@@@@&&&&&&&@@@@@@@@@@@@@@@@@@@@@@@@@@@@@@@@@@@@@@@@@@.......                                                                                                                                                                                                           ",
"                                                                                                                                                                                                            .......++++++++++++++@@@@@@@@@@@@@@@@@@@@@@@@@@@@&&&&&&&@@@@@@@@@@@@@@@@@@@@@@@@@@@@@@@@@@@@@@@@@@.......                                                                                                                                                                                                           ",
"                                                                                                                                                                                                            .......++++++++++++++@@@@@@@@@@@@@@@@@@@@@&&&&&&&%%%%%%%&&&&&&&&&&&&&&&&&&&&&%%%%%%%&&&&&&&&&&&&&&.......                                                                                                                                                                                                           ",
"                                                                                                                                                                                                            .......++++++++++++++@@@@@@@@@@@@@@@@@@@@@&&&&&&&%%%%%%%&&&&&&&&&&&&&&&&&&&&&%%%%%%%&&&&&&&&&&&&&&.......                                                                                                                                                                                                           ",
"                                                                                                                                                                                                            .......++++++++++++++@@@@@@@@@@@@@@@@@@@@@&&&&&&&%%%%%%%&&&&&&&&&&&&&&&&&&&&&%%%%%%%&&&&&&&&&&&&&&.......                                                                                                                                                                                                           ",
"                                                                                                                                                                                                            .......++++++++++++++@@@@@@@@@@@@@@@@@@@@@&&&&&&&%%%%%%%&&&&&&&&&&&&&&&&&&&&&%%%%%%%&&&&&&&&&&&&&&.......                                                                                                                                                                                                           ",
"                                                                                                                                                                                                            .......++++++++++++++@@@@@@@@@@@@@@@@@@@@@&&&&&&&%%%%%%%&&&&&&&&&&&&&&&&&&&&&%%%%%%%&&&&&&&&&&&&&&.......                                                                                                                                                                                                           ",
"                                                                                                                                                                                                            .......++++++++++++++@@@@@@@@@@@@@@@@@@@@@&&&&&&&%%%%%%%&&&&&&&&&&&&&&&&&&&&&%%%%%%%&&&&&&&&&&&&&&.......                                                                                                                                                                                                           ",
"                                                                                                                                                                                                            .......++++++++++++++@@@@@@@@@@@@@@@@@@@@@&&&&&&&%%%%%%%&&&&&&&&&&&&&&&&&&&&&%%%%%%%&&&&&&&&&&&&&&.......                                                                                                                                                                                                           ",
"                                                                                                                                                                                                            .......++++++++++++++@@@@@@@@@@@@@@@@@@@@@@@@@@@@@@@@@@@%%%%%%%&&&&&&&&&&&&&&&&&&&&&&&&&&&&&&&&&&&.......                                                                                                                                                                                                           ",
"                                                                                                                                                                                                            .......++++++++++++++@@@@@@@@@@@@@@@@@@@@@@@@@@@@@@@@@@@%%%%%%%&&&&&&&&&&&&&&&&&&&&&&&&&&&&&&&&&&&.......                                                                                                                                                                                                           ",
"                                                                                                                                                                                                            .......++++++++++++++@@@@@@@@@@@@@@@@@@@@@@@@@@@@@@@@@@@%%%%%%%&&&&&&&&&&&&&&&&&&&&&&&&&&&&&&&&&&&.......                                                                                                                                                                                                           ",
"                                                                                                                                                                                                            .......++++++++++++++@@@@@@@@@@@@@@@@@@@@@@@@@@@@@@@@@@@%%%%%%%&&&&&&&&&&&&&&&&&&&&&&&&&&&&&&&&&&&.......                                                                                                                                                                                                           ",
"                                                                                                                                                                                                            .......++++++++++++++@@@@@@@@@@@@@@@@@@@@@@@@@@@@@@@@@@@%%%%%%%&&&&&&&&&&&&&&&&&&&&&&&&&&&&&&&&&&&.......                                                                                                                                                                                                           ",
"                                                                                                                                                                                                            .......++++++++++++++@@@@@@@@@@@@@@@@@@@@@@@@@@@@@@@@@@@%%%%%%%&&&&&&&&&&&&&&&&&&&&&&&&&&&&&&&&&&&.......                                                                                                                                                                                                           ",
"                                                                                                                                                                                                            .......++++++++++++++@@@@@@@@@@@@@@@@@@@@@@@@@@@@@@@@@@@%%%%%%%&&&&&&&&&&&&&&&&&&&&&&&&&&&&&&&&&&&.......                                                                                                                                                                                                           ",
"                                                                                                                                                                                                            .......++++++++++++++@@@@@@@@@@@@@@@@@@@@@@@@@@@@@@@@@@@&&&&&&&&&&&&&&&&&&&&&&&&&&&&%%%%%%%%%%%%%%.......                                                                                                                                                                                                           ",
"                                                                                                                                                                                                            .......++++++++++++++@@@@@@@@@@@@@@@@@@@@@@@@@@@@@@@@@@@&&&&&&&&&&&&&&&&&&&&&&&&&&&&%%%%%%%%%%%%%%.......                                                                                                                                                                                                           ",
"                                                                                                                                                                                                            .......++++++++++++++@@@@@@@@@@@@@@@@@@@@@@@@@@@@@@@@@@@&&&&&&&&&&&&&&&&&&&&&&&&&&&&%%%%%%%%%%%%%%.......                                                                                                                                                                                                           ",
"                                                                                                                                                                                                            .......++++++++++++++@@@@@@@@@@@@@@@@@@@@@@@@@@@@@@@@@@@&&&&&&&&&&&&&&&&&&&&&&&&&&&&%%%%%%%%%%%%%%.......                                                                                                                                                                                                           ",
"                                                                                                                                                                                                            .......++++++++++++++@@@@@@@@@@@@@@@@@@@@@@@@@@@@@@@@@@@&&&&&&&&&&&&&&&&&&&&&&&&&&&&%%%%%%%%%%%%%%.......                                                                                                                                                                                                           ",
"                                                                                                                                                                                                            .......++++++++++++++@@@@@@@@@@@@@@@@@@@@@@@@@@@@@@@@@@@&&&&&&&&&&&&&&&&&&&&&&&&&&&&%%%%%%%%%%%%%%.......                                                                                                                                                                                                           ",
"                                                                                                                                                                                                            .......++++++++++++++@@@@@@@@@@@@@@@@@@@@@@@@@@@@@@@@@@@&&&&&&&&&&&&&&&&&&&&&&&&&&&&%%%%%%%%%%%%%%.......                                                                                                                                                                                                           ",
"                                                                                                                                                                                                            .......++++++++++++++@@@@@@@@@@@@@@$$$$$$$@@@@@@@@@@@@@@@@@@@@@@@@@@@@@@@@@@@@@@@@@@@@@@@@@@@@@@@@.......                                                                                                                                                                                                           ",
"                                                                                                                                                                                                            .......++++++++++++++@@@@@@@@@@@@@@$$$$$$$@@@@@@@@@@@@@@@@@@@@@@@@@@@@@@@@@@@@@@@@@@@@@@@@@@@@@@@@.......                                                                                                                                                                                                           ",
"                                                                                                                                                                                                            .......++++++++++++++@@@@@@@@@@@@@@$$$$$$$@@@@@@@@@@@@@@@@@@@@@@@@@@@@@@@@@@@@@@@@@@@@@@@@@@@@@@@@.......                                                                                                                                                                                                           ",
"                                                                                                                                                                                                            .......++++++++++++++@@@@@@@@@@@@@@$$$$$$$@@@@@@@@@@@@@@@@@@@@@@@@@@@@@@@@@@@@@@@@@@@@@@@@@@@@@@@@.......                                                                                                                                                                                                           ",
"                                                                                                                                                                                                            .......++++++++++++++@@@@@@@@@@@@@@$$$$$$$@@@@@@@@@@@@@@@@@@@@@@@@@@@@@@@@@@@@@@@@@@@@@@@@@@@@@@@@.......                                                                                                                                                                                                           ",
"                                                                                                                                                                                                            .......++++++++++++++@@@@@@@@@@@@@@$$$$$$$@@@@@@@@@@@@@@@@@@@@@@@@@@@@@@@@@@@@@@@@@@@@@@@@@@@@@@@@.......                                                                                                                                                                                                           ",
"                                                                                                                                                                                                            .......++++++++++++++@@@@@@@@@@@@@@$$$$$$$@@@@@@@@@@@@@@@@@@@@@@@@@@@@@@@@@@@@@@@@@@@@@@@@@@@@@@@@.......                                                                                                                                                                                                           ",
"                                                                                                                                                                                                            .......++++++++++++++@@@@@@@$$$$$$$@@@@@@@@@@@@@@@@@@@@@@@@@@@@$$$$$$$$$$$$$$@@@@@@@@@@@@@@@@@@@@@.......                                                                                                                                                                                                           ",
"                                                                                                                                                                                                            .......++++++++++++++@@@@@@@$$$$$$$@@@@@@@@@@@@@@@@@@@@@@@@@@@@$$$$$$$$$$$$$$@@@@@@@@@@@@@@@@@@@@@.......                                                                                                                                                                                                           ",
"                                                                                                                                                                                                            .......++++++++++++++@@@@@@@$$$$$$$@@@@@@@@@@@@@@@@@@@@@@@@@@@@$$$$$$$$$$$$$$@@@@@@@@@@@@@@@@@@@@@.......                                                                                                                                                                                                           ",
"                                                                                                                                                                                                            .......++++++++++++++@@@@@@@$$$$$$$@@@@@@@@@@@@@@@@@@@@@@@@@@@@$$$$$$$$$$$$$$@@@@@@@@@@@@@@@@@@@@@.......                                                                                                                                                                                                           ",
"                                                                                                                                                                                                            .......++++++++++++++@@@@@@@$$$$$$$@@@@@@@@@@@@@@@@@@@@@@@@@@@@$$$$$$$$$$$$$$@@@@@@@@@@@@@@@@@@@@@.......                                                                                                                                                                                                           ",
"                                                                                                                                                                                                            .......++++++++++++++@@@@@@@$$$$$$$@@@@@@@@@@@@@@@@@@@@@@@@@@@@$$$$$$$$$$$$$$@@@@@@@@@@@@@@@@@@@@@.......                                                                                                                                                                                                           ",
"                                                                                                                                                                                                            .......++++++++++++++@@@@@@@$$$$$$$@@@@@@@@@@@@@@@@@@@@@@@@@@@@$$$$$$$$$$$$$$@@@@@@@@@@@@@@@@@@@@@.......                                                                                                                                                                                                           ",
"                                                                                                                                                                                                            .......++++++++++++++@@@@@@@@@@@@@@@@@@@@@@@@@@@@@@@@@@@@@@@@@@$$$$$$$@@@@@@@@@@@@@@@@@@@@@@@@@@@@.......                                                                                                                                                                                                           ",
"                                                                                                                                                                                                            .......++++++++++++++@@@@@@@@@@@@@@@@@@@@@@@@@@@@@@@@@@@@@@@@@@$$$$$$$@@@@@@@@@@@@@@@@@@@@@@@@@@@@.......                                                                                                                                                                                                           ",
"                                                                                                                                                                                                            .......++++++++++++++@@@@@@@@@@@@@@@@@@@@@@@@@@@@@@@@@@@@@@@@@@$$$$$$$@@@@@@@@@@@@@@@@@@@@@@@@@@@@.......                                                                                                                                                                                                           ",
"                                                                                                                                                                                                            .......++++++++++++++@@@@@@@@@@@@@@@@@@@@@@@@@@@@@@@@@@@@@@@@@@$$$$$$$@@@@@@@@@@@@@@@@@@@@@@@@@@@@.......                                                                                                                                                                                                           ",
"                                                                                                                                                                                                            .......++++++++++++++@@@@@@@@@@@@@@@@@@@@@@@@@@@@@@@@@@@@@@@@@@$$$$$$$@@@@@@@@@@@@@@@@@@@@@@@@@@@@.......                                                                                                                                                                                                           ",
"                                                                                                                                                                                                            .......++++++++++++++@@@@@@@@@@@@@@@@@@@@@@@@@@@@@@@@@@@@@@@@@@$$$$$$$@@@@@@@@@@@@@@@@@@@@@@@@@@@@.......                                                                                                                                                                                                           ",
"                                                                                                                                                                                                            .......++++++++++++++@@@@@@@@@@@@@@@@@@@@@@@@@@@@@@@@@@@@@@@@@@$$$$$$$@@@@@@@@@@@@@@@@@@@@@@@@@@@@.......                                                                                                                                                                                                           ",
"                                                                                                                                                                                                            .......++++++++++++++@@@@@@@@@@@@@@@@@@@@@@@@@@@@@@@@@@@@@@@@@@@@@@@@@@@@@@@@$$$$$$$@@@@@@@@@@@@@@.......                                                                                                                                                                                                           ",
"                                                                                                                                                                                                            .......++++++++++++++@@@@@@@@@@@@@@@@@@@@@@@@@@@@@@@@@@@@@@@@@@@@@@@@@@@@@@@@$$$$$$$@@@@@@@@@@@@@@.......                                                                                                                                                                                                           ",
"                                                                                                                                                                                                            .......++++++++++++++@@@@@@@@@@@@@@@@@@@@@@@@@@@@@@@@@@@@@@@@@@@@@@@@@@@@@@@@$$$$$$$@@@@@@@@@@@@@@.......                                                                                                                                                                                                           ",
"                                                                                                                                                                                                            .......++++++++++++++@@@@@@@@@@@@@@@@@@@@@@@@@@@@@@@@@@@@@@@@@@@@@@@@@@@@@@@@$$$$$$$@@@@@@@@@@@@@@.......                                                                                                                                                                                                           ",
"                                                                                                                                                                                                            .......++++++++++++++@@@@@@@@@@@@@@@@@@@@@@@@@@@@@@@@@@@@@@@@@@@@@@@@@@@@@@@@$$$$$$$@@@@@@@@@@@@@@.......                                                                                                                                                                                                           ",
"                                                                                                                                                                                                            .......++++++++++++++@@@@@@@@@@@@@@@@@@@@@@@@@@@@@@@@@@@@@@@@@@@@@@@@@@@@@@@@$$$$$$$@@@@@@@@@@@@@@.......                                                                                                                                                                                                           ",
"                                                                                                                                                                                                            .......++++++++++++++@@@@@@@@@@@@@@@@@@@@@@@@@@@@@@@@@@@@@@@@@@@@@@@@@@@@@@@@$$$$$$$@@@@@@@@@@@@@@.......                                                                                                                                                                                                           ",
"                                                                                                                                                                                                            .......++++++++++++++@@@@@@@@@@@@@@@@@@@@@@@@@@@@@@@@@@@@@@@@@@@@@@@@@@@@@@@@@@@@@@@@@@@@@@@@@@@@@.......                                                                                                                                                                                                           ",
"                                                                                                                                                                                                            .......++++++++++++++@@@@@@@@@@@@@@@@@@@@@@@@@@@@@@@@@@@@@@@@@@@@@@@@@@@@@@@@@@@@@@@@@@@@@@@@@@@@@.......                                                                                                                                                                                                           ",
"                                                                                                                                                                                                            .......++++++++++++++@@@@@@@@@@@@@@@@@@@@@@@@@@@@@@@@@@@@@@@@@@@@@@@@@@@@@@@@@@@@@@@@@@@@@@@@@@@@@.......                                                                                                                                                                                                           ",
"                                                                                                                                                                                                            .......++++++++++++++@@@@@@@@@@@@@@@@@@@@@@@@@@@@@@@@@@@@@@@@@@@@@@@@@@@@@@@@@@@@@@@@@@@@@@@@@@@@@.......                                                                                                                                                                                                           ",
"                                                                                                                                                                                                            .......++++++++++++++@@@@@@@@@@@@@@@@@@@@@@@@@@@@@@@@@@@@@@@@@@@@@@@@@@@@@@@@@@@@@@@@@@@@@@@@@@@@@.......                                                                                                                                                                                                           ",
"                                                                                                                                                                                                            .......++++++++++++++@@@@@@@@@@@@@@@@@@@@@@@@@@@@@@@@@@@@@@@@@@@@@@@@@@@@@@@@@@@@@@@@@@@@@@@@@@@@@.......                                                                                                                                                                                                           ",
"                                                                                                                                                                                                            .......++++++++++++++@@@@@@@@@@@@@@@@@@@@@@@@@@@@@@@@@@@@@@@@@@@@@@@@@@@@@@@@@@@@@@@@@@@@@@@@@@@@@.......                                                                                                                                                                                                           ",
"                                                                                                                                                                                                            .......++++++++++++++$$$$$$$$$$$$$$@@@@@@@&&&&&&&%%%%%%%@@@@@@@@@@@@@@@@@@@@@@@@@@@@@@@@@@@@@@@@@@.......                                                                                                                                                                                                           ",
"                                                                                                                                                                                                            .......++++++++++++++$$$$$$$$$$$$$$@@@@@@@&&&&&&&%%%%%%%@@@@@@@@@@@@@@@@@@@@@@@@@@@@@@@@@@@@@@@@@@.......                                                                                                                                                                                                           ",
"                                                                                                                                                                                                            .......++++++++++++++$$$$$$$$$$$$$$@@@@@@@&&&&&&&%%%%%%%@@@@@@@@@@@@@@@@@@@@@@@@@@@@@@@@@@@@@@@@@@.......                                                                                                                                                                                                           ",
"                                                                                                                                                                                                            .......++++++++++++++$$$$$$$$$$$$$$@@@@@@@&&&&&&&%%%%%%%@@@@@@@@@@@@@@@@@@@@@@@@@@@@@@@@@@@@@@@@@@.......                                                                                                                                                                                                           ",
"                                                                                                                                                                                                            .......++++++++++++++$$$$$$$$$$$$$$@@@@@@@&&&&&&&%%%%%%%@@@@@@@@@@@@@@@@@@@@@@@@@@@@@@@@@@@@@@@@@@.......                                                                                                                                                                                                           ",
"                                                                                                                                                                                                            .......++++++++++++++$$$$$$$$$$$$$$@@@@@@@&&&&&&&%%%%%%%@@@@@@@@@@@@@@@@@@@@@@@@@@@@@@@@@@@@@@@@@@.......                                                                                                                                                                                                           ",
"                                                                                                                                                                                                            .......++++++++++++++$$$$$$$$$$$$$$@@@@@@@&&&&&&&%%%%%%%@@@@@@@@@@@@@@@@@@@@@@@@@@@@@@@@@@@@@@@@@@.......                                                                                                                                                                                                           ",
"                                                                                                                                                                                                            .......+++++++#######@@@@@@@@@@@@@@@@@@@@@%%%%%%%&&&&&&&&&&&&&&&&&&&&&&&&&&&&&&&&&&&%%%%%%%&&&&&&&.......                                                                                                                                                                                                           ",
"                                                                                                                                                                                                            .......+++++++#######@@@@@@@@@@@@@@@@@@@@@%%%%%%%&&&&&&&&&&&&&&&&&&&&&&&&&&&&&&&&&&&%%%%%%%&&&&&&&.......                                                                                                                                                                                                           ",
"                                                                                                                                                                                                            .......+++++++#######@@@@@@@@@@@@@@@@@@@@@%%%%%%%&&&&&&&&&&&&&&&&&&&&&&&&&&&&&&&&&&&%%%%%%%&&&&&&&.......                                                                                                                                                                                                           ",
"                                                                                                                                                                                                            .......+++++++#######@@@@@@@@@@@@@@@@@@@@@%%%%%%%&&&&&&&&&&&&&&&&&&&&&&&&&&&&&&&&&&&%%%%%%%&&&&&&&.......                                                                                                                                                                                                           ",
"                                                                                                                                                                                                            .......+++++++#######@@@@@@@@@@@@@@@@@@@@@%%%%%%%&&&&&&&&&&&&&&&&&&&&&&&&&&&&&&&&&&&%%%%%%%&&&&&&&.......                                                                                                                                                                                                           ",
"                                                                                                                                                                                                            .......+++++++#######@@@@@@@@@@@@@@@@@@@@@%%%%%%%&&&&&&&&&&&&&&&&&&&&&&&&&&&&&&&&&&&%%%%%%%&&&&&&&.......                                                                                                                                                                                                           ",
"                                                                                                                                                                                                            .......+++++++#######@@@@@@@@@@@@@@@@@@@@@%%%%%%%&&&&&&&&&&&&&&&&&&&&&&&&&&&&&&&&&&&%%%%%%%&&&&&&&.......                                                                                                                                                                                                           ",
"                                                                                                                                                                                                            .......++++++++++++++@@@@@@@@@@@@@@@@@@@@@&&&&&&&&&&&&&&&&&&&&&&&&&&&&&&&&&&&%%%%%%%%%%%%%%&&&&&&&.......                                                                                                                                                                                                           ",
"                                                                                                                                                                                                            .......++++++++++++++@@@@@@@@@@@@@@@@@@@@@&&&&&&&&&&&&&&&&&&&&&&&&&&&&&&&&&&&%%%%%%%%%%%%%%&&&&&&&.......                                                                                                                                                                                                           ",
"                                                                                                                                                                                                            .......++++++++++++++@@@@@@@@@@@@@@@@@@@@@&&&&&&&&&&&&&&&&&&&&&&&&&&&&&&&&&&&%%%%%%%%%%%%%%&&&&&&&.......                                                                                                                                                                                                           ",
"                                                                                                                                                                                                            .......++++++++++++++@@@@@@@@@@@@@@@@@@@@@&&&&&&&&&&&&&&&&&&&&&&&&&&&&&&&&&&&%%%%%%%%%%%%%%&&&&&&&.......                                                                                                                                                                                                           ",
"                                                                                                                                                                                                            .......++++++++++++++@@@@@@@@@@@@@@@@@@@@@&&&&&&&&&&&&&&&&&&&&&&&&&&&&&&&&&&&%%%%%%%%%%%%%%&&&&&&&.......                                                                                                                                                                                                           ",
"                                                                                                                                                                                                            .......++++++++++++++@@@@@@@@@@@@@@@@@@@@@&&&&&&&&&&&&&&&&&&&&&&&&&&&&&&&&&&&%%%%%%%%%%%%%%&&&&&&&.......                                                                                                                                                                                                           ",
"                                                                                                                                                                                                            .......++++++++++++++@@@@@@@@@@@@@@@@@@@@@&&&&&&&&&&&&&&&&&&&&&&&&&&&&&&&&&&&%%%%%%%%%%%%%%&&&&&&&.......                                                                                                                                                                                                           ",
"                                                                                                                                                                                                            .......++++++++++++++@@@@@@@@@@@@@@$$$$$$$@@@@@@@@@@@@@@@@@@@@@%%%%%%%&&&&&&&&&&&&&&&&&&&&&&&&&&&&.......                                                                                                                                                                                                           ",
"                                                                                                                                                                                                            .......++++++++++++++@@@@@@@@@@@@@@$$$$$$$@@@@@@@@@@@@@@@@@@@@@%%%%%%%&&&&&&&&&&&&&&&&&&&&&&&&&&&&.......                                                                                                                                                                                                           ",
"                                                                                                                                                                                                            .......++++++++++++++@@@@@@@@@@@@@@$$$$$$$@@@@@@@@@@@@@@@@@@@@@%%%%%%%&&&&&&&&&&&&&&&&&&&&&&&&&&&&.......                                                                                                                                                                                                           ",
"                                                                                                                                                                                                            .......++++++++++++++@@@@@@@@@@@@@@$$$$$$$@@@@@@@@@@@@@@@@@@@@@%%%%%%%&&&&&&&&&&&&&&&&&&&&&&&&&&&&.......                                                                                                                                                                                                           ",
"                                                                                                                                                                                                            .......++++++++++++++@@@@@@@@@@@@@@$$$$$$$@@@@@@@@@@@@@@@@@@@@@%%%%%%%&&&&&&&&&&&&&&&&&&&&&&&&&&&&.......                                                                                                                                                                                                           ",
"                                                                                                                                                                                                            .......++++++++++++++@@@@@@@@@@@@@@$$$$$$$@@@@@@@@@@@@@@@@@@@@@%%%%%%%&&&&&&&&&&&&&&&&&&&&&&&&&&&&.......                                                                                                                                                                                                           ",
"                                                                                                                                                                                                            .......++++++++++++++@@@@@@@@@@@@@@$$$$$$$@@@@@@@@@@@@@@@@@@@@@%%%%%%%&&&&&&&&&&&&&&&&&&&&&&&&&&&&.......                                                                                                                                                                                                           ",
"                                                                                                                                                                                                            .......++++++++++++++@@@@@@@@@@@@@@@@@@@@@@@@@@@@@@@@@@@@@@@@@@@@@@@@@@@@@@@@@@@@@@@@@@@@@@@@@@@@@.......                                                                                                                                                                                                           ",
"                                                                                                                                                                                                            .......++++++++++++++@@@@@@@@@@@@@@@@@@@@@@@@@@@@@@@@@@@@@@@@@@@@@@@@@@@@@@@@@@@@@@@@@@@@@@@@@@@@@.......                                                                                                                                                                                                           ",
"                                                                                                                                                                                                            .......++++++++++++++@@@@@@@@@@@@@@@@@@@@@@@@@@@@@@@@@@@@@@@@@@@@@@@@@@@@@@@@@@@@@@@@@@@@@@@@@@@@@.......                                                                                                                                                                                                           ",
"                                                                                                                                                                                                            .......++++++++++++++@@@@@@@@@@@@@@@@@@@@@@@@@@@@@@@@@@@@@@@@@@@@@@@@@@@@@@@@@@@@@@@@@@@@@@@@@@@@@.......                                                                                                                                                                                                           ",
"                                                                                                                                                                                                            .......++++++++++++++@@@@@@@@@@@@@@@@@@@@@@@@@@@@@@@@@@@@@@@@@@@@@@@@@@@@@@@@@@@@@@@@@@@@@@@@@@@@@.......                                                                                                                                                                                                           ",
"                                                                                                                                                                                                            .......++++++++++++++@@@@@@@@@@@@@@@@@@@@@@@@@@@@@@@@@@@@@@@@@@@@@@@@@@@@@@@@@@@@@@@@@@@@@@@@@@@@@.......                                                                                                                                                                                                           ",
"                                                                                                                                                                                                            .......++++++++++++++@@@@@@@@@@@@@@@@@@@@@@@@@@@@@@@@@@@@@@@@@@@@@@@@@@@@@@@@@@@@@@@@@@@@@@@@@@@@@.......                                                                                                                                                                                                           ",
"                                                                                                                                                                                                            .......++++++++++++++@@@@@@@@@@@@@@@@@@@@@@@@@@@@@@@@@@@@@@@@@@@@@@@@@$$$$$$$$$$$$$$@@@@@@@@@@@@@@.......                                                                                                                                                                                                           ",
"                                                                                                                                                                                                            .......++++++++++++++@@@@@@@@@@@@@@@@@@@@@@@@@@@@@@@@@@@@@@@@@@@@@@@@@$$$$$$$$$$$$$$@@@@@@@@@@@@@@.......                                                                                                                                                                                                           ",
"                                                                                                                                                                                                            .......++++++++++++++@@@@@@@@@@@@@@@@@@@@@@@@@@@@@@@@@@@@@@@@@@@@@@@@@$$$$$$$$$$$$$$@@@@@@@@@@@@@@.......                                                                                                                                                                                                           ",
"                                                                                                                                                                                                            .......++++++++++++++@@@@@@@@@@@@@@@@@@@@@@@@@@@@@@@@@@@@@@@@@@@@@@@@@$$$$$$$$$$$$$$@@@@@@@@@@@@@@.......                                                                                                                                                                                                           ",
"                                                                                                                                                                                                            .......++++++++++++++@@@@@@@@@@@@@@@@@@@@@@@@@@@@@@@@@@@@@@@@@@@@@@@@@$$$$$$$$$$$$$$@@@@@@@@@@@@@@.......                                                                                                                                                                                                           ",
"                                                                                                                                                                                                            .......++++++++++++++@@@@@@@@@@@@@@@@@@@@@@@@@@@@@@@@@@@@@@@@@@@@@@@@@$$$$$$$$$$$$$$@@@@@@@@@@@@@@.......                                                                                                                                                                                                           ",
"                                                                                                                                                                                                            .......++++++++++++++@@@@@@@@@@@@@@@@@@@@@@@@@@@@@@@@@@@@@@@@@@@@@@@@@$$$$$$$$$$$$$$@@@@@@@@@@@@@@.......                                                                                                                                                                                                           ",
"                                                                                                                                                                                                            .......++++++++++++++@@@@@@@@@@@@@@@@@@@@@@@@@@@@@@@@@@@@@@@@@@@@@@@@@@@@@@@@@@@@@@@@@@@@@@@@@@@@@.......                                                                                                                                                                                                           ",
"                                                                                                                                                                                                            .......++++++++++++++@@@@@@@@@@@@@@@@@@@@@@@@@@@@@@@@@@@@@@@@@@@@@@@@@@@@@@@@@@@@@@@@@@@@@@@@@@@@@.......                                                                                                                                                                                                           ",
"                                                                                                                                                                                                            .......++++++++++++++@@@@@@@@@@@@@@@@@@@@@@@@@@@@@@@@@@@@@@@@@@@@@@@@@@@@@@@@@@@@@@@@@@@@@@@@@@@@@.......                                                                                                                                                                                                           ",
"                                                                                                                                                                                                            .......++++++++++++++@@@@@@@@@@@@@@@@@@@@@@@@@@@@@@@@@@@@@@@@@@@@@@@@@@@@@@@@@@@@@@@@@@@@@@@@@@@@@.......                                                                                                                                                                                                           ",
"                                                                                                                                                                                                            .......++++++++++++++@@@@@@@@@@@@@@@@@@@@@@@@@@@@@@@@@@@@@@@@@@@@@@@@@@@@@@@@@@@@@@@@@@@@@@@@@@@@@.......                                                                                                                                                                                                           ",
"                                                                                                                                                                                                            .......++++++++++++++@@@@@@@@@@@@@@@@@@@@@@@@@@@@@@@@@@@@@@@@@@@@@@@@@@@@@@@@@@@@@@@@@@@@@@@@@@@@@.......                                                                                                                                                                                                           ",
"                                                                                                                                                                                                            .......++++++++++++++@@@@@@@@@@@@@@@@@@@@@@@@@@@@@@@@@@@@@@@@@@@@@@@@@@@@@@@@@@@@@@@@@@@@@@@@@@@@@.......                                                                                                                                                                                                           ",
"                                                                                                                                                                                                            .......++++++++++++++@@@@@@@@@@@@@@@@@@@@@@@@@@@@&&&&&&&@@@@@@@&&&&&&&&&&&&&&&&&&&&&%%%%%%%%%%%%%%.......                                                                                                                                                                                                           ",
"                                                                                                                                                                                                            .......++++++++++++++@@@@@@@@@@@@@@@@@@@@@@@@@@@@&&&&&&&@@@@@@@&&&&&&&&&&&&&&&&&&&&&%%%%%%%%%%%%%%.......                                                                                                                                                                                                           ",
"                                                                                                                                                                                                            .......++++++++++++++@@@@@@@@@@@@@@@@@@@@@@@@@@@@&&&&&&&@@@@@@@&&&&&&&&&&&&&&&&&&&&&%%%%%%%%%%%%%%.......                                                                                                                                                                                                           ",
"                                                                                                                                                                                                            .......++++++++++++++@@@@@@@@@@@@@@@@@@@@@@@@@@@@&&&&&&&@@@@@@@&&&&&&&&&&&&&&&&&&&&&%%%%%%%%%%%%%%.......                                                                                                                                                                                                           ",
"                                                                                                                                                                                                            .......++++++++++++++@@@@@@@@@@@@@@@@@@@@@@@@@@@@&&&&&&&@@@@@@@&&&&&&&&&&&&&&&&&&&&&%%%%%%%%%%%%%%.......                                                                                                                                                                                                           ",
"                                                                                                                                                                                                            .......++++++++++++++@@@@@@@@@@@@@@@@@@@@@@@@@@@@&&&&&&&@@@@@@@&&&&&&&&&&&&&&&&&&&&&%%%%%%%%%%%%%%.......                                                                                                                                                                                                           ",
"                                                                                                                                                                                                            .......++++++++++++++@@@@@@@@@@@@@@@@@@@@@@@@@@@@&&&&&&&@@@@@@@&&&&&&&&&&&&&&&&&&&&&%%%%%%%%%%%%%%.......                                                                                                                                                                                                           ",
"                                                                                                                                                                                                            .......+++++++++++++++++++++@@@@@@@@@@@@@@%%%%%%%%%%%%%%&&&&&&&%%%%%%%&&&&&&&%%%%%%%&&&&&&&&&&&&&&.......                                                                                                                                                                                                           ",
"                                                                                                                                                                                                            .......+++++++++++++++++++++@@@@@@@@@@@@@@%%%%%%%%%%%%%%&&&&&&&%%%%%%%&&&&&&&%%%%%%%&&&&&&&&&&&&&&.......                                                                                                                                                                                                           ",
"                                                                                                                                                                                                            .......+++++++++++++++++++++@@@@@@@@@@@@@@%%%%%%%%%%%%%%&&&&&&&%%%%%%%&&&&&&&%%%%%%%&&&&&&&&&&&&&&.......                                                                                                                                                                                                           ",
"                                                                                                                                                                                                            .......+++++++++++++++++++++@@@@@@@@@@@@@@%%%%%%%%%%%%%%&&&&&&&%%%%%%%&&&&&&&%%%%%%%&&&&&&&&&&&&&&.......                                                                                                                                                                                                           ",
"                                                                                                                                                                                                            .......+++++++++++++++++++++@@@@@@@@@@@@@@%%%%%%%%%%%%%%&&&&&&&%%%%%%%&&&&&&&%%%%%%%&&&&&&&&&&&&&&.......                                                                                                                                                                                                           ",
"                                                                                                                                                                                                            .......+++++++++++++++++++++@@@@@@@@@@@@@@%%%%%%%%%%%%%%&&&&&&&%%%%%%%&&&&&&&%%%%%%%&&&&&&&&&&&&&&.......                                                                                                                                                                                                           ",
"                                                                                                                                                                                                            .......+++++++++++++++++++++@@@@@@@@@@@@@@%%%%%%%%%%%%%%&&&&&&&%%%%%%%&&&&&&&%%%%%%%&&&&&&&&&&&&&&.......                                                                                                                                                                                                           ",
"                                                                                                                                                                                                            .......+++++++++++++++++++++@@@@@@@@@@@@@@@@@@@@@&&&&&&&&&&&&&&&&&&&&&%%%%%%%@@@@@@@%%%%%%%@@@@@@@.......                                                                                                                                                                                                           ",
"                                                                                                                                                                                                            .......+++++++++++++++++++++@@@@@@@@@@@@@@@@@@@@@&&&&&&&&&&&&&&&&&&&&&%%%%%%%@@@@@@@%%%%%%%@@@@@@@.......                                                                                                                                                                                                           ",
"                                                                                                                                                                                                            .......+++++++++++++++++++++@@@@@@@@@@@@@@@@@@@@@&&&&&&&&&&&&&&&&&&&&&%%%%%%%@@@@@@@%%%%%%%@@@@@@@.......                                                                                                                                                                                                           ",
"                                                                                                                                                                                                            .......+++++++++++++++++++++@@@@@@@@@@@@@@@@@@@@@&&&&&&&&&&&&&&&&&&&&&%%%%%%%@@@@@@@%%%%%%%@@@@@@@.......                                                                                                                                                                                                           ",
"                                                                                                                                                                                                            .......+++++++++++++++++++++@@@@@@@@@@@@@@@@@@@@@&&&&&&&&&&&&&&&&&&&&&%%%%%%%@@@@@@@%%%%%%%@@@@@@@.......                                                                                                                                                                                                           ",
"                                                                                                                                                                                                            .......+++++++++++++++++++++@@@@@@@@@@@@@@@@@@@@@&&&&&&&&&&&&&&&&&&&&&%%%%%%%@@@@@@@%%%%%%%@@@@@@@.......                                                                                                                                                                                                           ",
"                                                                                                                                                                                                            .......+++++++++++++++++++++@@@@@@@@@@@@@@@@@@@@@&&&&&&&&&&&&&&&&&&&&&%%%%%%%@@@@@@@%%%%%%%@@@@@@@.......                                                                                                                                                                                                           ",
"                                                                                                                                                                                                            .......+++++++++++++++++++++@@@@@@@$$$$$$$@@@@@@@@@@@@@@@@@@@@@@@@@@@@@@@@@@@@@@@@@@@@@@@@@@@@@@@@.......                                                                                                                                                                                                           ",
"                                                                                                                                                                                                            .......+++++++++++++++++++++@@@@@@@$$$$$$$@@@@@@@@@@@@@@@@@@@@@@@@@@@@@@@@@@@@@@@@@@@@@@@@@@@@@@@@.......                                                                                                                                                                                                           ",
"                                                                                                                                                                                                            .......+++++++++++++++++++++@@@@@@@$$$$$$$@@@@@@@@@@@@@@@@@@@@@@@@@@@@@@@@@@@@@@@@@@@@@@@@@@@@@@@@.......                                                                                                                                                                                                           ",
"                                                                                                                                                                                                            .......+++++++++++++++++++++@@@@@@@$$$$$$$@@@@@@@@@@@@@@@@@@@@@@@@@@@@@@@@@@@@@@@@@@@@@@@@@@@@@@@@.......                                                                                                                                                                                                           ",
"                                                                                                                                                                                                            .......+++++++++++++++++++++@@@@@@@$$$$$$$@@@@@@@@@@@@@@@@@@@@@@@@@@@@@@@@@@@@@@@@@@@@@@@@@@@@@@@@.......                                                                                                                                                                                                           ",
"                                                                                                                                                                                                            .......+++++++++++++++++++++@@@@@@@$$$$$$$@@@@@@@@@@@@@@@@@@@@@@@@@@@@@@@@@@@@@@@@@@@@@@@@@@@@@@@@.......                                                                                                                                                                                                           ",
"                                                                                                                                                                                                            .......+++++++++++++++++++++@@@@@@@$$$$$$$@@@@@@@@@@@@@@@@@@@@@@@@@@@@@@@@@@@@@@@@@@@@@@@@@@@@@@@@.......                                                                                                                                                                                                           ",
"                                                                                                                                                                                                            .......+++++++++++++++++++++@@@@@@@@@@@@@@@@@@@@@@@@@@@@@@@@@@@@@@@@@@@@@@@@@@@@@@@@@@@@@@@.......                                                                                                                                                                                                                  ",
"                                                                                                                                                                                                            .......+++++++++++++++++++++@@@@@@@@@@@@@@@@@@@@@@@@@@@@@@@@@@@@@@@@@@@@@@@@@@@@@@@@@@@@@@@.......                                                                                                                                                                                                                  ",
"                                                                                                                                                                                                            .......+++++++++++++++++++++@@@@@@@@@@@@@@@@@@@@@@@@@@@@@@@@@@@@@@@@@@@@@@@@@@@@@@@@@@@@@@@.......                                                                                                                                                                                                                  ",
"                                                                                                                                                                                                            .......+++++++++++++++++++++@@@@@@@@@@@@@@@@@@@@@@@@@@@@@@@@@@@@@@@@@@@@@@@@@@@@@@@@@@@@@@@.......                                                                                                                                                                                                                  ",
"                                                                                                                                                                                                            .......+++++++++++++++++++++@@@@@@@@@@@@@@@@@@@@@@@@@@@@@@@@@@@@@@@@@@@@@@@@@@@@@@@@@@@@@@@.......                                                                                                                                                                                                                  ",
"                                                                                                                                                                                                            .......+++++++++++++++++++++@@@@@@@@@@@@@@@@@@@@@@@@@@@@@@@@@@@@@@@@@@@@@@@@@@@@@@@@@@@@@@@.......                                                                                                                                                                                                                  ",
"                                                                                                                                                                                                            .......+++++++++++++++++++++@@@@@@@@@@@@@@@@@@@@@@@@@@@@@@@@@@@@@@@@@@@@@@@@@@@@@@@@@@@@@@@.......                                                                                                                                                                                                                  ",
"                                                                                                                                                                                                            .......+++++++##############@@@@@@@@@@@@@@@@@@@@@@@@@@@@@@@@@@@$$$$$$$@@@@@@@@@@@@@@@@@@@@@.......                                                                                                                                                                                                                  ",
"                                                                                                                                                                                                            .......+++++++##############@@@@@@@@@@@@@@@@@@@@@@@@@@@@@@@@@@@$$$$$$$@@@@@@@@@@@@@@@@@@@@@.......                                                                                                                                                                                                                  ",
"                                                                                                                                                                                                            .......+++++++##############@@@@@@@@@@@@@@@@@@@@@@@@@@@@@@@@@@@$$$$$$$@@@@@@@@@@@@@@@@@@@@@.......                                                                                                                                                                                                                  ",
"                                                                                                                                                                                                            .......+++++++##############@@@@@@@@@@@@@@@@@@@@@@@@@@@@@@@@@@@$$$$$$$@@@@@@@@@@@@@@@@@@@@@.......                                                                                                                                                                                                                  ",
"                                                                                                                                                                                                            .......+++++++##############@@@@@@@@@@@@@@@@@@@@@@@@@@@@@@@@@@@$$$$$$$@@@@@@@@@@@@@@@@@@@@@.......                                                                                                                                                                                                                  ",
"                                                                                                                                                                                                            .......+++++++##############@@@@@@@@@@@@@@@@@@@@@@@@@@@@@@@@@@@$$$$$$$@@@@@@@@@@@@@@@@@@@@@.......                                                                                                                                                                                                                  ",
"                                                                                                                                                                                                            .......+++++++##############@@@@@@@@@@@@@@@@@@@@@@@@@@@@@@@@@@@$$$$$$$@@@@@@@@@@@@@@@@@@@@@.......                                                                                                                                                                                                                  ",
"                                                                                                                                                                                                            .......+++++++++++++++++++++#######@@@@@@@@@@@@@@@@@@@@@@@@@@@@@@@@@@@$$$$$$$@@@@@@@@@@@@@@.......                                                                                                                                                                                                                  ",
"                                                                                                                                                                                                            .......+++++++++++++++++++++#######@@@@@@@@@@@@@@@@@@@@@@@@@@@@@@@@@@@$$$$$$$@@@@@@@@@@@@@@.......                                                                                                                                                                                                                  ",
"                                                                                                                                                                                                            .......+++++++++++++++++++++#######@@@@@@@@@@@@@@@@@@@@@@@@@@@@@@@@@@@$$$$$$$@@@@@@@@@@@@@@.......                                                                                                                                                                                                                  ",
"                                                                                                                                                                                                            .......+++++++++++++++++++++#######@@@@@@@@@@@@@@@@@@@@@@@@@@@@@@@@@@@$$$$$$$@@@@@@@@@@@@@@.......                                                                                                                                                                                                                  ",
"                                                                                                                                                                                                            .......+++++++++++++++++++++#######@@@@@@@@@@@@@@@@@@@@@@@@@@@@@@@@@@@$$$$$$$@@@@@@@@@@@@@@.......                                                                                                                                                                                                                  ",
"                                                                                                                                                                                                            .......+++++++++++++++++++++#######@@@@@@@@@@@@@@@@@@@@@@@@@@@@@@@@@@@$$$$$$$@@@@@@@@@@@@@@.......                                                                                                                                                                                                                  ",
"                                                                                                                                                                                                            .......+++++++++++++++++++++#######@@@@@@@@@@@@@@@@@@@@@@@@@@@@@@@@@@@$$$$$$$@@@@@@@@@@@@@@.......                                                                                                                                                                                                                  ",
"                                                                                                                                                                                                                   .......+++++++++++++++++++++@@@@@@@@@@@@@@@@@@@@@@@@@@@@@@@@@@@@@@@@@@@@@@@@@.......                                                                                                                                                                                                                         ",
"                                                                                                                                                                                                                   .......+++++++++++++++++++++@@@@@@@@@@@@@@@@@@@@@@@@@@@@@@@@@@@@@@@@@@@@@@@@@.......                                                                                                                                                                                                                         ",
"                                                                                                                                                                                                                   .......+++++++++++++++++++++@@@@@@@@@@@@@@@@@@@@@@@@@@@@@@@@@@@@@@@@@@@@@@@@@.......                                                                                                                                                                                                                         ",
"                                                                                                                                                                                                                   .......+++++++++++++++++++++@@@@@@@@@@@@@@@@@@@@@@@@@@@@@@@@@@@@@@@@@@@@@@@@@.......                                                                                                                                                                                                                         ",
"                                                                                                                                                                                                                   .......+++++++++++++++++++++@@@@@@@@@@@@@@@@@@@@@@@@@@@@@@@@@@@@@@@@@@@@@@@@@.......                                                                                                                                                                                                                         ",
"                                                                                                                                                                                                                   .......+++++++++++++++++++++@@@@@@@@@@@@@@@@@@@@@@@@@@@@@@@@@@@@@@@@@@@@@@@@@.......                                                                                                                                                                                                                         ",
"                                                                                                                                                                                                                   .......+++++++++++++++++++++@@@@@@@@@@@@@@@@@@@@@@@@@@@@@@@@@@@@@@@@@@@@@@@@@.......                                                                                                                                                                                                                         ",
"                                                                                                                                                                                                                   .......++++++++++++++++++++++++++++@@@@@@@$$$$$$$@@@@@@@@@@@@@@@@@@@@@.......                                                                                                                                                                                                                                ",
"                                                                                                                                                                                                                   .......++++++++++++++++++++++++++++@@@@@@@$$$$$$$@@@@@@@@@@@@@@@@@@@@@.......                                                                                                                                                                                                                                ",
"                                                                                                                                                                                                                   .......++++++++++++++++++++++++++++@@@@@@@$$$$$$$@@@@@@@@@@@@@@@@@@@@@.......                                                                                                                                                                                                                                ",
"                                                                                                                                                                                                                   .......++++++++++++++++++++++++++++@@@@@@@$$$$$$$@@@@@@@@@@@@@@@@@@@@@.......                                                                                                                                                                                                                                ",
"                                                                                                                                                                                                                   .......++++++++++++++++++++++++++++@@@@@@@$$$$$$$@@@@@@@@@@@@@@@@@@@@@.......                                                                                                                                                                                                                                ",
"                                                                                                                                                                                                                   .......++++++++++++++++++++++++++++@@@@@@@$$$$$$$@@@@@@@@@@@@@@@@@@@@@.......                                                                                                                                                                                                                                ",
"                                                                                                                                                                                                                   .......++++++++++++++++++++++++++++@@@@@@@$$$$$$$@@@@@@@@@@@@@@@@@@@@@.......                                                                                                                                                                                                                                ",
"                                                                                                                                                                                                                          .......+++++++++++++++++++++@@@@@@@@@@@@@@@@@@@@@$$$$$$$$$$$$$$.......                                                                                                                                                                                                                                ",
"                                                                                                                                                                                                                          .......+++++++++++++++++++++@@@@@@@@@@@@@@@@@@@@@$$$$$$$$$$$$$$.......                                                                                                                                                                                                                                ",
"                                                                                                                                                                                                                          .......+++++++++++++++++++++@@@@@@@@@@@@@@@@@@@@@$$$$$$$$$$$$$$.......                                                                                                                                                                                                                                ",
"                                                                                                                                                                                                                          .......+++++++++++++++++++++@@@@@@@@@@@@@@@@@@@@@$$$$$$$$$$$$$$.......                                                                                                                                                                                                                                ",
"                                                                                                                                                                                                                          .......+++++++++++++++++++++@@@@@@@@@@@@@@@@@@@@@$$$$$$$$$$$$$$.......                                                                                                                                                                                                                                ",
"                                                                                                                                                                                                                          .......+++++++++++++++++++++@@@@@@@@@@@@@@@@@@@@@$$$$$$$$$$$$$$.......                                                                                                                                                                                                                                ",
"                                                                                                                                                                                                                          .......+++++++++++++++++++++@@@@@@@@@@@@@@@@@@@@@$$$$$$$$$$$$$$.......                                                                                                                                                                                                                                ",
"                                                                                                                                                                                                                          .......+++++++++++++++++++++#######@@@@@@@@@@@@@@@@@@@@@.......                                                                                                                                                                                                                                       ",
"                                                                                                                                                                                                                          .......+++++++++++++++++++++#######@@@@@@@@@@@@@@@@@@@@@.......                                                                                                                                                                                                                                       ",
"                                                                                                                                                                                                                          .......+++++++++++++++++++++#######@@@@@@@@@@@@@@@@@@@@@.......                                                                                                                                                                                                                                       ",
"                                                                                                                                                                                                                          .......+++++++++++++++++++++#######@@@@@@@@@@@@@@@@@@@@@.......                                                                                                                                                                                                                                       ",
"                                                                                                                                                                                                                          .......+++++++++++++++++++++#######@@@@@@@@@@@@@@@@@@@@@.......                                                                                                                                                                                                                                       ",
"                                                                                                                                                                                                                          .......+++++++++++++++++++++#######@@@@@@@@@@@@@@@@@@@@@.......                                                                                                                                                                                                                                       ",
"                                                                                                                                                                                                                          .......+++++++++++++++++++++#######@@@@@@@@@@@@@@@@@@@@@.......                                                                                                                                                                                                                                       ",
"                                                                                                                                                                                                                                 .......++++++++++++++#######+++++++@@@@@@@@@@@@@@.......                                                                                                                                                                                                                                       ",
"                                                                                                                                                                                                                                 .......++++++++++++++#######+++++++@@@@@@@@@@@@@@.......                                                                                                                                                                                                                                       ",
"                                                                                                                                                                                                                                 .......++++++++++++++#######+++++++@@@@@@@@@@@@@@.......                                                                                                                                                                                                                                       ",
"                                                                                                                                                                                                                                 .......++++++++++++++#######+++++++@@@@@@@@@@@@@@.......                                                                                                                                                                                                                                       ",
"                                                                                                                                                                                                                                 .......++++++++++++++#######+++++++@@@@@@@@@@@@@@.......                                                                                                                                                                                                                                       ",
"                                                                                                                                                                                                                                 .......++++++++++++++#######+++++++@@@@@@@@@@@@@@.......                                                                                                                                                                                                                                       ",
"                                                                                                                                                                                                                                 .......++++++++++++++#######+++++++@@@@@@@@@@@@@@.......                                                                                                                                                                                                                                       ",
"                                                                                                                                                                                                                                        ..........................................                                                                                                                                                                                                                                              ",
"                                                                                                                                                                                                                                        ..........................................                                                                                                                                                                                                                                              ",
"                                                                                                                                                                                                                                        ..........................................                                                                                                                                                                                                                                              ",
"                                                                                                                                                                                                                                        ..........................................                                                                                                                                                                                                                                              ",
"                                                                                                                                                                                                                                        ..........................................                                                                                                                                                                                                                                              ",
"                                                                                                                                                                                                                                        ..........................................                                                                                                                                                                                                                                              ",
"                                                                                                                                                                                                                                        ..........................................                                                                                                                                                                                                                                              ",
"                                                                                                                                                                                                                                                                                                                                                                                                                                                                                                                                ",
"                                                                                                                                                                                                                                                                                                                                                                                                                                                                                                                                ",
"                                                                                                                                                                                                                                                                                                                                                                                                                                                                                                                                ",
"                                                                                                                                                                                                                                                                                                                                                                                                                                                                                                                                ",
"                                                                                                                                                                                                                                                                                                                                                                                                                                                                                                                                ",
"                                                                                                                                                                                                                                                                                                                                                                                                                                                                                                                                ",
"                                                                                                                                                                                                                                                                                                                                                                                                                                                                                                                                ",
"                                                                                                                                                                                                                                                                                                                                                                                                                                                                                                                                ",
"                                                                                                                                                                                                                                                                                                                                                                                                                                                                                                                                ",
"                                                                                                                                                                                                                                                                                                                                                                                                                                                                                                                                ",
"                                                                                                                                                                                                                                                                                                                                                                                                                                                                                                                                ",
"                                                                                                                                                                                                                                                                                                                                                                                                                                                                                                                                ",
"                                                                                                                                                                                                                                                                                                                                                                                                                                                                                                                                ",
"                                                                                                                                                                                                                                                                                                                                                                                                                                                                                                                                ",
"                                                                                                                                                                                                                                                                                                                                                                                                                                                                                                                                ",
"                                                                                                                                                                                                                                                                                                                                                                                                                                                                                                                                ",
"                                                                                                                                                                                                                                                                                                                                                                                                                                                                                                                                ",
"                                                                                                                                                                                                                                                                                                                                                                                                                                                                                                                                ",
"                                                                                                                                                                                                                                                                                                                                                                                                                                                                                                                                ",
"                                                                                                                                                                                                                                                                                                                                                                                                                                                                                                                                ",
"                                                                                                                                                                                                                                                                                                                                                                                                                                                                                                                                ",
"                                                                                                                                                                                                                                                                                                                                                                                                                                                                                                                                ",
"                                                                                                                                                                                                                                                                                                                                                                                                                                                                                                                                ",
"                                                                                                                                                                                                                                                                                                                                                                                                                                                                                                                                ",
"                                                                                                                                                                                                                                                                                                                                                                                                                                                                                                                                ",
"                                                                                                                                                                                                                                                                                                                                                                                                                                                                                                                                ",
"                                                                                                                                                                                                                                                                                                                                                                                                                                                                                                                                ",
"                                                                                                                                                                                                                                                                                                                                                                                                                                                                                                                                ",
"                                                                                                                                                                                                                                                                                                                                                                                                                                                                                                                                ",
"                                                                                                                                                                                                                                                                                                                                                                                                                                                                                                                                ",
"                                                                                                                                                                                                                                                                                                                                                                                                                                                                                                                                ",
"                                                                                                                                                                                                                                                                                                                                                                                                                                                                                                                                ",
"                                                                                                                                                                                                                                                                                                                                                                                                                                                                                                                                ",
"                                                                                                                                                                                                                                                                                                                                                                                                                                                                                                                                ",
"                                                                                                                                                                                                                                                                                                                                                                                                                                                                                                                                ",
"                                                                                                                                                                                                                                                                                                                                                                                                                                                                                                                                ",
"                                                                                                                                                                                                                                                                                                                                                                                                                                                                                                                                ",
"                                                                                                                                                                                                                                                                                                                                                                                                                                                                                                                                ",
"                                                                                                                                                                                                                                                                                                                                                                                                                                                                                                                                ",
"                                                                                                                                                                                                                                                                                                                                                                                                                                                                                                                                ",
"                                                                                                                                                                                                                                                                                                                                                                                                                                                                                                                                ",
"                                                                                                                                                                                                                                                                                                                                                                                                                                                                                                                                "};
