/* XPM */
static char * pg_right_arm2_xpm[] = {
"591 476 18 1",
" 	c #FF00FF",
".	c #000000",
"+	c #CE9E7F",
"@	c #BD826A",
"#	c #74443B",
"$	c #80C221",
"%	c #6E3F36",
"&	c #C6E17C",
"*	c #95D73A",
"=	c #DCF791",
"-	c #EF0403",
";	c #FB3C38",
">	c #FF493B",
",	c #B10004",
"'	c #FCD05A",
")	c #FF3B3B",
"!	c #FEE591",
"~	c #B7E65C",
"                                                                                                                                                                                                                                                                                                                                                                                                                                                                                                                                                                                                               ",
"                                                                                                                                                                                                                                                                                                                                                                                                                                                                                                                                                                                                               ",
"                                                                                                                                                                                                                                                                                                                                                                                                                                                                                                                                                                                                               ",
"                                                                                                                                                                                                                                                                                                                                                                                                                                                                                                                                                                                                               ",
"                                                                                                                                                                                                                                                                                                                                                                                                                                                                                                                                                                                                               ",
"                                                                                                                                                                                                                                                                                                                                                                                                                                                                                                                                                                                                               ",
"                                                                                                                                                                                                                                                                                                                                                                                                                                                                                                                                                                                                               ",
"                                                                                                                             .....................                                                                                                         ............................                                                                                                                                                                                                                                                                                                                        ",
"                                                                                                                             .....................                                                                                                         ............................                                                                                                                                                                                                                                                                                                                        ",
"                                                                                                                             .....................                                                                                                         ............................                                                                                                                                                                                                                                                                                                                        ",
"                                                                                                                             .....................                                                                                                         ............................                                                                                                                                                                                                                                                                                                                        ",
"                                                                                                                             .....................                                                                                                         ............................                                                                                                                                                                                                                                                                                                                        ",
"                                                                                                                             .....................                                                                                                         ............................                                                                                                                                                                                                                                                                                                                        ",
"                                                             .....................                                           .....................                                                                                                         ............................                                                                                                                                                                                                                                                                                                                        ",
"                                                             .....................                                    ..............++++++++++++++.......                                                                                           .......@@@@@@@+++++++++++++++++++++.......                                                                                                                                                                                                                                                                                                                 ",
"                                                             .....................                                    ..............++++++++++++++.......                                                                                           .......@@@@@@@+++++++++++++++++++++.......                                                                                                                                                                                                                                                                                                                 ",
"                                                             .....................                                    ..............++++++++++++++.......                                                                                           .......@@@@@@@+++++++++++++++++++++.......                                                                                                                                                                                                                                                                                                                 ",
"                                                             .....................                                    ..............++++++++++++++.......                                                                                           .......@@@@@@@+++++++++++++++++++++.......                                                                                                                                                                                                                                                                                                                 ",
"                                                             .....................                                    ..............++++++++++++++.......                                                                                           .......@@@@@@@+++++++++++++++++++++.......                                                                                                                                                                                                                                                                                                                 ",
"                                                             .....................                                    ..............++++++++++++++.......                                                                                           .......@@@@@@@+++++++++++++++++++++.......                                                                                                                                                                                                                                                                                                                 ",
"                                               ..............@@@@@@@++++++++++++++.......                             ..............++++++++++++++.......                                                                                           .......@@@@@@@+++++++++++++++++++++.......                                                                                                                                                                                                                                                                                                                 ",
"                                               ..............@@@@@@@++++++++++++++.......                             .......@@@@@@@+++++++++++++++++++++.......                                                                             ..............@@@@@@@+++++++++++++++++++++.......                                                                                                                                                                                                                                                                                                                 ",
"                                               ..............@@@@@@@++++++++++++++.......                             .......@@@@@@@+++++++++++++++++++++.......                                                                             ..............@@@@@@@+++++++++++++++++++++.......                                                                                                                                                                                                                                                                                                                 ",
"                                               ..............@@@@@@@++++++++++++++.......                             .......@@@@@@@+++++++++++++++++++++.......                                                                             ..............@@@@@@@+++++++++++++++++++++.......                                                                                                                                                                                                                                                                                                                 ",
"                                               ..............@@@@@@@++++++++++++++.......                             .......@@@@@@@+++++++++++++++++++++.......                                                                             ..............@@@@@@@+++++++++++++++++++++.......                                                                                                                                                                                                                                                                                                                 ",
"                                               ..............@@@@@@@++++++++++++++.......                             .......@@@@@@@+++++++++++++++++++++.......                                                                             ..............@@@@@@@+++++++++++++++++++++.......                                                                                                                                                                                                                                                                                                                 ",
"                                               ..............@@@@@@@++++++++++++++.......                             .......@@@@@@@+++++++++++++++++++++.......                                                                             ..............@@@@@@@+++++++++++++++++++++.......                                                                                                                                                                                                                                                                                                                 ",
"                                               .......@@@@@@@++++++++++++++++++++++++++++.......                      .......@@@@@@@+++++++++++++++++++++.......                                                                             ..............@@@@@@@+++++++++++++++++++++.......                                                                                                                                                                                                                                                                                                                 ",
"                                               .......@@@@@@@++++++++++++++++++++++++++++.......                      .......@@@@@@@++++++++++++++++++++++++++++.......                                                                      .......@@@@@@@@@@@@@@+++++++++++++++++++++.......                                                                                                                                                                                                                                                                                                                 ",
"                                               .......@@@@@@@++++++++++++++++++++++++++++.......                      .......@@@@@@@++++++++++++++++++++++++++++.......                                                                      .......@@@@@@@@@@@@@@+++++++++++++++++++++.......                                                                                                                                                                                                                                                                                                                 ",
"                                               .......@@@@@@@++++++++++++++++++++++++++++.......                      .......@@@@@@@++++++++++++++++++++++++++++.......                                                                      .......@@@@@@@@@@@@@@+++++++++++++++++++++.......                                                                                                                                                                                                                                                                                                                 ",
"                                               .......@@@@@@@++++++++++++++++++++++++++++.......                      .......@@@@@@@++++++++++++++++++++++++++++.......                                                                      .......@@@@@@@@@@@@@@+++++++++++++++++++++.......                                                                                                                                                                                                                                                                                                                 ",
"                                               .......@@@@@@@++++++++++++++++++++++++++++.......                      .......@@@@@@@++++++++++++++++++++++++++++.......                                                                      .......@@@@@@@@@@@@@@+++++++++++++++++++++.......                                                                                                                                                                                                                                                                                                                 ",
"                                               .......@@@@@@@++++++++++++++++++++++++++++.......                      .......@@@@@@@++++++++++++++++++++++++++++.......                                                                      .......@@@@@@@@@@@@@@+++++++++++++++++++++.......                                                                                                                                                                                                                                                                                                                 ",
"                                               .......@@@@@@@+++++++++++++++++++++++++++++++++++.......               .......@@@@@@@++++++++++++++++++++++++++++.......                                                                      .......@@@@@@@@@@@@@@+++++++++++++++++++++.......                                                                                                                                                                                                                                                                                                                 ",
"                                               .......@@@@@@@+++++++++++++++++++++++++++++++++++.......               .......@@@@@@@@@@@@@@++++++++++++++++++++++++++++.......                                                               .......@@@@@@@++++++++++++++++++++++++++++..............                                                                                                                                                                                                                                                                                                          ",
"                                               .......@@@@@@@+++++++++++++++++++++++++++++++++++.......               .......@@@@@@@@@@@@@@++++++++++++++++++++++++++++.......                                                               .......@@@@@@@++++++++++++++++++++++++++++..............                                                                                                                                                                                                                                                                                                          ",
"                                               .......@@@@@@@+++++++++++++++++++++++++++++++++++.......               .......@@@@@@@@@@@@@@++++++++++++++++++++++++++++.......                                                               .......@@@@@@@++++++++++++++++++++++++++++..............                                                                                                                                                                                                                                                                                                          ",
"                                               .......@@@@@@@+++++++++++++++++++++++++++++++++++.......               .......@@@@@@@@@@@@@@++++++++++++++++++++++++++++.......                                                               .......@@@@@@@++++++++++++++++++++++++++++..............                                                                                                                                                                                                                                                                                                          ",
"                                               .......@@@@@@@+++++++++++++++++++++++++++++++++++.......               .......@@@@@@@@@@@@@@++++++++++++++++++++++++++++.......                                                               .......@@@@@@@++++++++++++++++++++++++++++..............                                                                                                                                                                                                                                                                                                          ",
"                                               .......@@@@@@@+++++++++++++++++++++++++++++++++++.......               .......@@@@@@@@@@@@@@++++++++++++++++++++++++++++.......                                                               .......@@@@@@@++++++++++++++++++++++++++++..............                                                                                                                                                                                                                                                                                                          ",
"                                                      .......@@@@@@@++++++++++++++++++++++++++++..............        .......@@@@@@@@@@@@@@++++++++++++++++++++++++++++.......                                                               .......@@@@@@@++++++++++++++++++++++++++++..............                                                                                                                                                                                                                                                                                                          ",
"                                                      .......@@@@@@@++++++++++++++++++++++++++++..............               .......@@@@@@@@@@@@@@+++++++@@@@@@@#######..............                                                        .......@@@@@@@+++++++++++++++++++++++++++++++++++..............                                                                                                                                                                                                                                                                                                   ",
"                                                      .......@@@@@@@++++++++++++++++++++++++++++..............               .......@@@@@@@@@@@@@@+++++++@@@@@@@#######..............                                                        .......@@@@@@@+++++++++++++++++++++++++++++++++++..............                                                                                                                                                                                                                                                                                                   ",
"                                                      .......@@@@@@@++++++++++++++++++++++++++++..............               .......@@@@@@@@@@@@@@+++++++@@@@@@@#######..............                                                        .......@@@@@@@+++++++++++++++++++++++++++++++++++..............                                                                                                                                                                                                                                                                                                   ",
"                                                      .......@@@@@@@++++++++++++++++++++++++++++..............               .......@@@@@@@@@@@@@@+++++++@@@@@@@#######..............                                                        .......@@@@@@@+++++++++++++++++++++++++++++++++++..............                                                                                                                                                                                                                                                                                                   ",
"                                                      .......@@@@@@@++++++++++++++++++++++++++++..............               .......@@@@@@@@@@@@@@+++++++@@@@@@@#######..............                                                        .......@@@@@@@+++++++++++++++++++++++++++++++++++..............                                                                                                                                                                                                                                                                                                   ",
"                                                      .......@@@@@@@++++++++++++++++++++++++++++..............               .......@@@@@@@@@@@@@@+++++++@@@@@@@#######..............                                                        .......@@@@@@@+++++++++++++++++++++++++++++++++++..............                                                                                                                                                                                                                                                                                                   ",
"                          ............................       .......@@@@@@@++++++++++++++++++++++++++++.......               .......@@@@@@@@@@@@@@+++++++@@@@@@@#######..............              ............................              .......@@@@@@@+++++++++++++++++++++++++++++++++++..............                                                                                                                                                                                                                                                                                                   ",
"                          ............................       .......@@@@@@@++++++++++++++++++++++++++++.......                      .......@@@@@@@@@@@@@@##############++++++++++++++.......       ............................              .......@@@@@@@@@@@@@@++++++++++++++++++++++++++++@@@@@@@.......                                                                                                                                                                                                                                                                                                   ",
"                          ............................       .......@@@@@@@++++++++++++++++++++++++++++.......                      .......@@@@@@@@@@@@@@##############++++++++++++++.......       ............................              .......@@@@@@@@@@@@@@++++++++++++++++++++++++++++@@@@@@@.......                                                                                                                                                                                                                                                                                                   ",
"                          ............................       .......@@@@@@@++++++++++++++++++++++++++++.......                      .......@@@@@@@@@@@@@@##############++++++++++++++.......       ............................              .......@@@@@@@@@@@@@@++++++++++++++++++++++++++++@@@@@@@.......                                                                                                                                                                                                                                                                                                   ",
"                          ............................       .......@@@@@@@++++++++++++++++++++++++++++.......                      .......@@@@@@@@@@@@@@##############++++++++++++++.......       ............................              .......@@@@@@@@@@@@@@++++++++++++++++++++++++++++@@@@@@@.......                                                                                                                                                                                                                                                                                                   ",
"                          ............................       .......@@@@@@@++++++++++++++++++++++++++++.......                      .......@@@@@@@@@@@@@@##############++++++++++++++.......       ............................              .......@@@@@@@@@@@@@@++++++++++++++++++++++++++++@@@@@@@.......                                                                                                                                                                                                                                                                                                   ",
"                          ............................       .......@@@@@@@++++++++++++++++++++++++++++.......                      .......@@@@@@@@@@@@@@##############++++++++++++++.......       ............................              .......@@@@@@@@@@@@@@++++++++++++++++++++++++++++@@@@@@@.......                                                                                                                                                                                                                                                                                                   ",
"                   .......@@@@@@@+++++++++++++++++++++..............@@@@@@@++++++++++++++@@@@@@@@@@@@@@#######.......               .......@@@@@@@@@@@@@@##############++++++++++++++..............$$$$$$$$$$$$$$$$$$$$$$$$$$$$.....................@@@@@@@@@@@@@@++++++++++++++++++++++++++++@@@@@@@.......                                                                                                                                                                                                                                                                                                   ",
"                   .......@@@@@@@+++++++++++++++++++++..............@@@@@@@++++++++++++++@@@@@@@@@@@@@@#######.......                      .......%%%%%%%@@@@@@@+++++++++++++++++++++..............$$$$$$$$$$$$$$$$$$$$$$$$$$$$............................@@@@@@@+++++++++++++++++++++++++++++++++++@@@@@@@.......                                                                                                                                                                                                                                                                                            ",
"                   .......@@@@@@@+++++++++++++++++++++..............@@@@@@@++++++++++++++@@@@@@@@@@@@@@#######.......                      .......%%%%%%%@@@@@@@+++++++++++++++++++++..............$$$$$$$$$$$$$$$$$$$$$$$$$$$$............................@@@@@@@+++++++++++++++++++++++++++++++++++@@@@@@@.......                                                                                                                                                                                                                                                                                            ",
"                   .......@@@@@@@+++++++++++++++++++++..............@@@@@@@++++++++++++++@@@@@@@@@@@@@@#######.......                      .......%%%%%%%@@@@@@@+++++++++++++++++++++..............$$$$$$$$$$$$$$$$$$$$$$$$$$$$............................@@@@@@@+++++++++++++++++++++++++++++++++++@@@@@@@.......                                                                                                                                                                                                                                                                                            ",
"                   .......@@@@@@@+++++++++++++++++++++..............@@@@@@@++++++++++++++@@@@@@@@@@@@@@#######.......                      .......%%%%%%%@@@@@@@+++++++++++++++++++++..............$$$$$$$$$$$$$$$$$$$$$$$$$$$$............................@@@@@@@+++++++++++++++++++++++++++++++++++@@@@@@@.......                                                                                                                                                                                                                                                                                            ",
"                   .......@@@@@@@+++++++++++++++++++++..............@@@@@@@++++++++++++++@@@@@@@@@@@@@@#######.......                      .......%%%%%%%@@@@@@@+++++++++++++++++++++..............$$$$$$$$$$$$$$$$$$$$$$$$$$$$............................@@@@@@@+++++++++++++++++++++++++++++++++++@@@@@@@.......                                                                                                                                                                                                                                                                                            ",
"                   .......@@@@@@@+++++++++++++++++++++..............@@@@@@@++++++++++++++@@@@@@@@@@@@@@#######.......                      .......%%%%%%%@@@@@@@+++++++++++++++++++++..............$$$$$$$$$$$$$$$$$$$$$$$$$$$$............................@@@@@@@+++++++++++++++++++++++++++++++++++@@@@@@@.......                                                                                                                                                                                                                                                                                            ",
"                   .......@@@@@@@++++++++++++++++++++++++++++..............@@@@@@@@@@@@@@##############++++++++++++++.......               .......%%%%%%%@@@@@@@+++++++++++++++++++++.......$$$$$$$$$$$$$$$$$$$$$$$$$$$$$$$$$$$$$$$$$$$$$$$$$.....................+++++++++++++++++++++++++++++++++++@@@@@@@.......                                                                                                                                                                                                                                                                                            ",
"                   .......@@@@@@@++++++++++++++++++++++++++++..............@@@@@@@@@@@@@@##############++++++++++++++.......               ..............@@@@@@@+++++++++++++++++++++.......$$$$$$$$$$$$$$$$$$$$$$$$$$$$$$$$$$$$$$$$$$$$$$$$$.....................@@@@@@@@@@@@@@#######++++++++++++++@@@@@@@.......                                                                                                                                                                                                                                                                                            ",
"                   .......@@@@@@@++++++++++++++++++++++++++++..............@@@@@@@@@@@@@@##############++++++++++++++.......               ..............@@@@@@@+++++++++++++++++++++.......$$$$$$$$$$$$$$$$$$$$$$$$$$$$$$$$$$$$$$$$$$$$$$$$$.....................@@@@@@@@@@@@@@#######++++++++++++++@@@@@@@.......                                                                                                                                                                                                                                                                                            ",
"                   .......@@@@@@@++++++++++++++++++++++++++++..............@@@@@@@@@@@@@@##############++++++++++++++.......               ..............@@@@@@@+++++++++++++++++++++.......$$$$$$$$$$$$$$$$$$$$$$$$$$$$$$$$$$$$$$$$$$$$$$$$$.....................@@@@@@@@@@@@@@#######++++++++++++++@@@@@@@.......                                                                                                                                                                                                                                                                                            ",
"                   .......@@@@@@@++++++++++++++++++++++++++++..............@@@@@@@@@@@@@@##############++++++++++++++.......               ..............@@@@@@@+++++++++++++++++++++.......$$$$$$$$$$$$$$$$$$$$$$$$$$$$$$$$$$$$$$$$$$$$$$$$$.....................@@@@@@@@@@@@@@#######++++++++++++++@@@@@@@.......                                                                                                                                                                                                                                                                                            ",
"                   .......@@@@@@@++++++++++++++++++++++++++++..............@@@@@@@@@@@@@@##############++++++++++++++.......               ..............@@@@@@@+++++++++++++++++++++.......$$$$$$$$$$$$$$$$$$$$$$$$$$$$$$$$$$$$$$$$$$$$$$$$$.....................@@@@@@@@@@@@@@#######++++++++++++++@@@@@@@.......                                                                                                                                                                                                                                                                                            ",
"                   .......@@@@@@@++++++++++++++++++++++++++++..............@@@@@@@@@@@@@@##############++++++++++++++.......               ..............@@@@@@@+++++++++++++++++++++.......$$$$$$$$$$$$$$$$$$$$$$$$$$$$$$$$$$$$$$$$$$$$$$$$$.....................@@@@@@@@@@@@@@#######++++++++++++++@@@@@@@.......                                                                                                                                                                                                                                                                                            ",
"                   .......@@@@@@@++++++++++++++++++++++++++++.......       .......##############++++++++++++++++++++++++++++.......        ..............@@@@@@@@@@@@@@+++++++.......$$$$$$$$$$$$$$$$$$$$$$$$$$$$&&&&&&&$$$$$$$$$$$$$$$$$$$$$$$$$$$$$$$$$$$$$$$$$$..............#######++++++++++++++@@@@@@@.......                                                                                                                                                                                                                                                                                            ",
"                   .......@@@@@@@++++++++++++++++++++++++++++.......       .......##############++++++++++++++++++++++++++++.......               .......@@@@@@@@@@@@@@+++++++.......$$$$$$$$$$$$$$$$$$$$$$$$$$$$&&&&&&&$$$$$$$$$$$$$$$$$$$$$$$$$$$$$$$$$$$$$$$$$$..............+++++++++++++++++++++@@@@@@@..............                                                                                                                                                                                                                                                                                     ",
"                   .......@@@@@@@++++++++++++++++++++++++++++.......       .......##############++++++++++++++++++++++++++++.......               .......@@@@@@@@@@@@@@+++++++.......$$$$$$$$$$$$$$$$$$$$$$$$$$$$&&&&&&&$$$$$$$$$$$$$$$$$$$$$$$$$$$$$$$$$$$$$$$$$$..............+++++++++++++++++++++@@@@@@@..............                                                                                                                                                                                                                                                                                     ",
"                   .......@@@@@@@++++++++++++++++++++++++++++.......       .......##############++++++++++++++++++++++++++++.......               .......@@@@@@@@@@@@@@+++++++.......$$$$$$$$$$$$$$$$$$$$$$$$$$$$&&&&&&&$$$$$$$$$$$$$$$$$$$$$$$$$$$$$$$$$$$$$$$$$$..............+++++++++++++++++++++@@@@@@@..............                                                                                                                                                                                                                                                                                     ",
"                   .......@@@@@@@++++++++++++++++++++++++++++.......       .......##############++++++++++++++++++++++++++++.......               .......@@@@@@@@@@@@@@+++++++.......$$$$$$$$$$$$$$$$$$$$$$$$$$$$&&&&&&&$$$$$$$$$$$$$$$$$$$$$$$$$$$$$$$$$$$$$$$$$$..............+++++++++++++++++++++@@@@@@@..............                                                                                                                                                                                                                                                                                     ",
"                   .......@@@@@@@++++++++++++++++++++++++++++.......       .......##############++++++++++++++++++++++++++++.......               .......@@@@@@@@@@@@@@+++++++.......$$$$$$$$$$$$$$$$$$$$$$$$$$$$&&&&&&&$$$$$$$$$$$$$$$$$$$$$$$$$$$$$$$$$$$$$$$$$$..............+++++++++++++++++++++@@@@@@@..............                                                                                                                                                                                                                                                                                     ",
"                   .......@@@@@@@++++++++++++++++++++++++++++.......       .......##############++++++++++++++++++++++++++++.......               .......@@@@@@@@@@@@@@+++++++.......$$$$$$$$$$$$$$$$$$$$$$$$$$$$&&&&&&&$$$$$$$$$$$$$$$$$$$$$$$$$$$$$$$$$$$$$$$$$$..............+++++++++++++++++++++@@@@@@@..............                                                                                                                                                                                                                                                                                     ",
"                   ..............@@@@@@@++++++++++++++@@@@@@@@@@@@@@.......       .......@@@@@@@++++++++++++++++++++++++++++..............        ..............@@@@@@@.......***********************************$$$$$$$$$$$$$$$$$$$$$$$$$$$$$$$$$$$&&&&&&&$$$$$$$$$$$$$$$$$$$$$.......++++++++++++++@@@@@@@..............                                                                                                                                                                                                                                                                                     ",
"                   ..............@@@@@@@++++++++++++++@@@@@@@@@@@@@@.......       .......@@@@@@@++++++++++++++++++++++++++++..............               .......@@@@@@@.......***********************************$$$$$$$$$$$$$$$$$$$$$$$$$$$$$$$$$$$&&&&&&&$$$$$$$$$$$$$$$$$$$$$.......+++++++++++++++++++++@@@@@@@.......                                                                                                                                                                                                                                                                                     ",
"                   ..............@@@@@@@++++++++++++++@@@@@@@@@@@@@@.......       .......@@@@@@@++++++++++++++++++++++++++++..............               .......@@@@@@@.......***********************************$$$$$$$$$$$$$$$$$$$$$$$$$$$$$$$$$$$&&&&&&&$$$$$$$$$$$$$$$$$$$$$.......+++++++++++++++++++++@@@@@@@.......                                                                                                                                                                                                                                                                                     ",
"                   ..............@@@@@@@++++++++++++++@@@@@@@@@@@@@@.......       .......@@@@@@@++++++++++++++++++++++++++++..............               .......@@@@@@@.......***********************************$$$$$$$$$$$$$$$$$$$$$$$$$$$$$$$$$$$&&&&&&&$$$$$$$$$$$$$$$$$$$$$.......+++++++++++++++++++++@@@@@@@.......                                                                                                                                                                                                                                                                                     ",
"                   ..............@@@@@@@++++++++++++++@@@@@@@@@@@@@@.......       .......@@@@@@@++++++++++++++++++++++++++++..............               .......@@@@@@@.......***********************************$$$$$$$$$$$$$$$$$$$$$$$$$$$$$$$$$$$&&&&&&&$$$$$$$$$$$$$$$$$$$$$.......+++++++++++++++++++++@@@@@@@.......                                                                                                                                                                                                                                                                                     ",
"                   ..............@@@@@@@++++++++++++++@@@@@@@@@@@@@@.......       .......@@@@@@@++++++++++++++++++++++++++++..............               .......@@@@@@@.......***********************************$$$$$$$$$$$$$$$$$$$$$$$$$$$$$$$$$$$&&&&&&&$$$$$$$$$$$$$$$$$$$$$.......+++++++++++++++++++++@@@@@@@.......                                                                                                                                                                                                                                                                                     ",
"                   ..............@@@@@@@++++++++++++++@@@@@@@@@@@@@@.......       .......@@@@@@@++++++++++++++++++++++++++++..............               .......@@@@@@@.......***********************************$$$$$$$$$$$$$$$$$$$$$$$$$$$$$$$$$$$&&&&&&&$$$$$$$$$$$$$$$$$$$$$.......+++++++++++++++++++++@@@@@@@.......                                                                                                                                                                                                                                                                                     ",
"                          .......@@@@@@@+++++++@@@@@@@@@@@@@@#######.......       .......@@@@@@@++++++++++++++++++++++++++++@@@@@@@@.......              .....................*******$$$$$$$=======$$$$$$$=======**************$$$$$$$$$$$$$$$$$$$$$$$$$$$$$$$$$$$$$$$$$$$$$$$$$.......+++++++++++++++++++++@@@@@@@.......                                                                                                                                                                                                                                                                                     ",
"                          .......@@@@@@@+++++++@@@@@@@@@@@@@@#######.......       .......@@@@@@@++++++++++++++++++++++++++++@@@@@@@@.......              .....................*******$$$$$$$=======$$$$$$$=======**************$$$$$$$$$$$$$$$$$$$$$$$$$$$$$$$$$$$$$$$$$$$$$$$$$.......+++++++++++++++++++++@@@@@@@.......                                                                                                                                                                                                                                                                                     ",
"                          .......@@@@@@@+++++++@@@@@@@@@@@@@@#######.......       .......@@@@@@@++++++++++++++++++++++++++++@@@@@@@@.......              .....................*******$$$$$$$=======$$$$$$$=======**************$$$$$$$$$$$$$$$$$$$$$$$$$$$$$$$$$$$$$$$$$$$$$$$$$.......+++++++++++++++++++++@@@@@@@.......                                                                                                                                                                                                                                                                                     ",
"                          .......@@@@@@@+++++++@@@@@@@@@@@@@@#######.......       .......@@@@@@@++++++++++++++++++++++++++++@@@@@@@@.......              .....................*******$$$$$$$=======$$$$$$$=======**************$$$$$$$$$$$$$$$$$$$$$$$$$$$$$$$$$$$$$$$$$$$$$$$$$.......+++++++++++++++++++++@@@@@@@.......                                                                                                                                                                                                                                                                                     ",
"                          .......@@@@@@@+++++++@@@@@@@@@@@@@@#######.......       .......@@@@@@@++++++++++++++++++++++++++++@@@@@@@@.......              .....................*******$$$$$$$=======$$$$$$$=======**************$$$$$$$$$$$$$$$$$$$$$$$$$$$$$$$$$$$$$$$$$$$$$$$$$.......+++++++++++++++++++++@@@@@@@.......                                                                                                                                                                                                                                                                                     ",
"                          .......@@@@@@@+++++++@@@@@@@@@@@@@@#######.......       .......@@@@@@@++++++++++++++++++++++++++++@@@@@@@@.......              .....................*******$$$$$$$=======$$$$$$$=======**************$$$$$$$$$$$$$$$$$$$$$$$$$$$$$$$$$$$$$$$$$$$$$$$$$.......+++++++++++++++++++++@@@@@@@.......                                                                                                                                                                                                                                                                                     ",
"                          .......@@@@@@@+++++++@@@@@@@@@@@@@@#######.......       .......@@@@@@@++++++++++++++++++++++++++++@@@@@@@@.......              .....................*******$$$$$$$=======$$$$$$$=======**************$$$$$$$$$$$$$$$$$$$$$$$$$$$$$$$$$$$$$$$$$$$$$$$$$.......+++++++++++++++++++++@@@@@@@.......                                                                                                                                                                                                                                                                                     ",
"                                 .......@@@@@@@@@@@@@@#######++++++++++++++.......       .......@@@@@@@++++++++++++++@@@@@@@@@@@@@@@#######.......              ..............*********************$$$$$$$=======**************=======*******$$$$$$$$$$$$$$$$$$$$$&&&&&&&$$$$$$$$$$$$$$.......++++++++++++++@@@@@@@.......                                                                                                                                                                                                                                                                                     ",
"                                 .......@@@@@@@@@@@@@@#######++++++++++++++.......       .......@@@@@@@++++++++++++++@@@@@@@@@@@@@@@#######.......              ..............*********************$$$$$$$=======**************=======*******$$$$$$$$$$$$$$$$$$$$$&&&&&&&$$$$$$$$$$$$$$.......+++++++++++++++++++++@@@@@@@.......                                                                                                                                                                                                                                                                              ",
"                                 .......@@@@@@@@@@@@@@#######++++++++++++++.......       .......@@@@@@@++++++++++++++@@@@@@@@@@@@@@@#######.......              ..............*********************$$$$$$$=======**************=======*******$$$$$$$$$$$$$$$$$$$$$&&&&&&&$$$$$$$$$$$$$$.......+++++++++++++++++++++@@@@@@@.......                                                                                                                                                                                                                                                                              ",
"                                 .......@@@@@@@@@@@@@@#######++++++++++++++.......       .......@@@@@@@++++++++++++++@@@@@@@@@@@@@@@#######.......              ..............*********************$$$$$$$=======**************=======*******$$$$$$$$$$$$$$$$$$$$$&&&&&&&$$$$$$$$$$$$$$.......+++++++++++++++++++++@@@@@@@.......                                                                                                                                                                                                                                                                              ",
"                                 .......@@@@@@@@@@@@@@#######++++++++++++++.......       .......@@@@@@@++++++++++++++@@@@@@@@@@@@@@@#######.......              ..............*********************$$$$$$$=======**************=======*******$$$$$$$$$$$$$$$$$$$$$&&&&&&&$$$$$$$$$$$$$$.......+++++++++++++++++++++@@@@@@@.......                                                                                                                                                                                                                                                                              ",
"                                 .......@@@@@@@@@@@@@@#######++++++++++++++.......       .......@@@@@@@++++++++++++++@@@@@@@@@@@@@@@#######.......              ..............*********************$$$$$$$=======**************=======*******$$$$$$$$$$$$$$$$$$$$$&&&&&&&$$$$$$$$$$$$$$.......+++++++++++++++++++++@@@@@@@.......                                                                                                                                                                                                                                                                              ",
"                                 .......@@@@@@@@@@@@@@#######++++++++++++++.......       .......@@@@@@@++++++++++++++@@@@@@@@@@@@@@@#######.......              ..............*********************$$$$$$$=======**************=======*******$$$$$$$$$$$$$$$$$$$$$&&&&&&&$$$$$$$$$$$$$$.......+++++++++++++++++++++@@@@@@@.......                                                                                                                                                                                                                                                                              ",
"            ............................##############@@@@@@@+++++++++++++++++++++.......       .......@@@@@@@@@@@@@@###############++++++++++++++..............******************************************$$$$$$$=======$$$$$$$=======*******=======*******&&&&&&&$$$$$$$$$$$$$$$$$$$$$.......+++++++++++++++++++++@@@@@@@.......                                                                                                                                                                                                                                                                              ",
"            ............................##############@@@@@@@+++++++++++++++++++++.......       .......@@@@@@@@@@@@@@###############++++++++++++++..............******************************************$$$$$$$=======$$$$$$$=======*******=======*******&&&&&&&$$$$$$$$$$$$$$$$$$$$$.......+++++++++++++++++++++@@@@@@@..............                                                                                                                                                                                                                                                                       ",
"            ............................##############@@@@@@@+++++++++++++++++++++.......       .......@@@@@@@@@@@@@@###############++++++++++++++..............******************************************$$$$$$$=======$$$$$$$=======*******=======*******&&&&&&&$$$$$$$$$$$$$$$$$$$$$.......+++++++++++++++++++++@@@@@@@..............                                                                                                                                                                                                                                                                       ",
"            ............................##############@@@@@@@+++++++++++++++++++++.......       .......@@@@@@@@@@@@@@###############++++++++++++++..............******************************************$$$$$$$=======$$$$$$$=======*******=======*******&&&&&&&$$$$$$$$$$$$$$$$$$$$$.......+++++++++++++++++++++@@@@@@@..............                                                                                                                                                                                                                                                                       ",
"            ............................##############@@@@@@@+++++++++++++++++++++.......       .......@@@@@@@@@@@@@@###############++++++++++++++..............******************************************$$$$$$$=======$$$$$$$=======*******=======*******&&&&&&&$$$$$$$$$$$$$$$$$$$$$.......+++++++++++++++++++++@@@@@@@..............                                                                                                                                                                                                                                                                       ",
"            ............................##############@@@@@@@+++++++++++++++++++++.......       .......@@@@@@@@@@@@@@###############++++++++++++++..............******************************************$$$$$$$=======$$$$$$$=======*******=======*******&&&&&&&$$$$$$$$$$$$$$$$$$$$$.......+++++++++++++++++++++@@@@@@@..............                                                                                                                                                                                                                                                                       ",
"            ............................##############@@@@@@@+++++++++++++++++++++.......       .......@@@@@@@@@@@@@@###############++++++++++++++..............******************************************$$$$$$$=======$$$$$$$=======*******=======*******&&&&&&&$$$$$$$$$$$$$$$$$$$$$.......+++++++++++++++++++++@@@@@@@..............                                                                                                                                                                                                                                                                       ",
"     .......@@@@@@@+++++++++++++++++++++.......@@@@@@@+++++++++++++++++++++++++++++++++++.....................##############@@@@@@@++++++++++++++++++++++.......*******=======***********************************$$$$$$$=======****************************=======$$$$$$$$$$$$$$$$$$$$$.......+++++++++++++++++++++@@@@@@@..............                                                                                                                                                                                                                                                                       ",
"     .......@@@@@@@+++++++++++++++++++++.......@@@@@@@+++++++++++++++++++++++++++++++++++.....................##############@@@@@@@++++++++++++++++++++++.......*******=======***********************************$$$$$$$=======****************************=======$$$$$$$$$$$$$$$$$$$$$.......++++++++++++++++++++++++++++@@@@@@@..............                                                                                                                                                                                                                                                                ",
"     .......@@@@@@@+++++++++++++++++++++.......@@@@@@@+++++++++++++++++++++++++++++++++++.....................##############@@@@@@@++++++++++++++++++++++.......*******=======***********************************$$$$$$$=======****************************=======$$$$$$$$$$$$$$$$$$$$$.......++++++++++++++++++++++++++++@@@@@@@..............                                                                                                                                                                                                                                                                ",
"     .......@@@@@@@+++++++++++++++++++++.......@@@@@@@+++++++++++++++++++++++++++++++++++.....................##############@@@@@@@++++++++++++++++++++++.......*******=======***********************************$$$$$$$=======****************************=======$$$$$$$$$$$$$$$$$$$$$.......++++++++++++++++++++++++++++@@@@@@@..............                                                                                                                                                                                                                                                                ",
"     .......@@@@@@@+++++++++++++++++++++.......@@@@@@@+++++++++++++++++++++++++++++++++++.....................##############@@@@@@@++++++++++++++++++++++.......*******=======***********************************$$$$$$$=======****************************=======$$$$$$$$$$$$$$$$$$$$$.......++++++++++++++++++++++++++++@@@@@@@..............                                                                                                                                                                                                                                                                ",
"     .......@@@@@@@+++++++++++++++++++++.......@@@@@@@+++++++++++++++++++++++++++++++++++.....................##############@@@@@@@++++++++++++++++++++++.......*******=======***********************************$$$$$$$=======****************************=======$$$$$$$$$$$$$$$$$$$$$.......++++++++++++++++++++++++++++@@@@@@@..............                                                                                                                                                                                                                                                                ",
"     .......@@@@@@@+++++++++++++++++++++.......@@@@@@@+++++++++++++++++++++++++++++++++++.....................##############@@@@@@@++++++++++++++++++++++.......*******=======***********************************$$$$$$$=======****************************=======$$$$$$$$$$$$$$$$$$$$$.......++++++++++++++++++++++++++++@@@@@@@..............                                                                                                                                                                                                                                                                ",
"     .......@@@@@@@++++++++++++++++++++++++++++.......@@@@@@@++++++++++++++++++++++++++++.......       ..............@@@@@@@++++++++++++++++++++++.......******************************************=======*******=======****************************=======**************$$$$$$$$$$$$$$$$$$$$$.......+++++++++++++++++++++@@@@@@@..............                                                                                                                                                                                                                                                                ",
"     .......@@@@@@@++++++++++++++++++++++++++++.......@@@@@@@++++++++++++++++++++++++++++.......       ..............@@@@@@@++++++++++++++++++++++.......******************************************=======*******=======****************************=======**************$$$$$$$$$$$$$$$$$$$$$.......++++++++++++++++++++++++++++@@@@@@@.......                                                                                                                                                                                                                                                                ",
"     .......@@@@@@@++++++++++++++++++++++++++++.......@@@@@@@++++++++++++++++++++++++++++.......       ..............@@@@@@@++++++++++++++++++++++.......******************************************=======*******=======****************************=======**************$$$$$$$$$$$$$$$$$$$$$.......++++++++++++++++++++++++++++@@@@@@@.......                                                                                                                                                                                                                                                                ",
"     .......@@@@@@@++++++++++++++++++++++++++++.......@@@@@@@++++++++++++++++++++++++++++.......       ..............@@@@@@@++++++++++++++++++++++.......******************************************=======*******=======****************************=======**************$$$$$$$$$$$$$$$$$$$$$.......++++++++++++++++++++++++++++@@@@@@@.......                                                                                                                                                                                                                                                                ",
"     .......@@@@@@@++++++++++++++++++++++++++++.......@@@@@@@++++++++++++++++++++++++++++.......       ..............@@@@@@@++++++++++++++++++++++.......******************************************=======*******=======****************************=======**************$$$$$$$$$$$$$$$$$$$$$.......++++++++++++++++++++++++++++@@@@@@@.......                                                                                                                                                                                                                                                                ",
"     .......@@@@@@@++++++++++++++++++++++++++++.......@@@@@@@++++++++++++++++++++++++++++.......       ..............@@@@@@@++++++++++++++++++++++.......******************************************=======*******=======****************************=======**************$$$$$$$$$$$$$$$$$$$$$.......++++++++++++++++++++++++++++@@@@@@@.......                                                                                                                                                                                                                                                                ",
"     .......@@@@@@@++++++++++++++++++++++++++++.......@@@@@@@++++++++++++++++++++++++++++.......       ..............@@@@@@@++++++++++++++++++++++.......******************************************=======*******=======****************************=======**************$$$$$$$$$$$$$$$$$$$$$.......++++++++++++++++++++++++++++@@@@@@@.......                                                                                                                                                                                                                                                                ",
"     .......@@@@@@@++++++++++++++++++++++++++++..............@@@@@@@+++++++++++++++++++++@@@@@@@.......       .......@@@@@@@++++++++++++++++++++++.......*********************=======****************************==============**************$$$$$$$=======**************=======$$$$$$$$$$$$$$$$$$$$$.......+++++++++++++++++++++@@@@@@@.......                                                                                                                                                                                                                                                                ",
"     .......@@@@@@@++++++++++++++++++++++++++++..............@@@@@@@+++++++++++++++++++++@@@@@@@.......       .......@@@@@@@++++++++++++++++++++++.......*********************=======****************************==============**************$$$$$$$=======**************=======$$$$$$$$$$$$$$$$$$$$$.......+++++++++++++++++++++@@@@@@@.......                                                                                                                                                                                                                                                                ",
"     .......@@@@@@@++++++++++++++++++++++++++++..............@@@@@@@+++++++++++++++++++++@@@@@@@.......       .......@@@@@@@++++++++++++++++++++++.......*********************=======****************************==============**************$$$$$$$=======**************=======$$$$$$$$$$$$$$$$$$$$$.......+++++++++++++++++++++@@@@@@@.......                                                                                                                                                                                                                                                                ",
"     .......@@@@@@@++++++++++++++++++++++++++++..............@@@@@@@+++++++++++++++++++++@@@@@@@.......       .......@@@@@@@++++++++++++++++++++++.......*********************=======****************************==============**************$$$$$$$=======**************=======$$$$$$$$$$$$$$$$$$$$$.......+++++++++++++++++++++@@@@@@@.......                                                                                                                                                                                                                                                                ",
"     .......@@@@@@@++++++++++++++++++++++++++++..............@@@@@@@+++++++++++++++++++++@@@@@@@.......       .......@@@@@@@++++++++++++++++++++++.......*********************=======****************************==============**************$$$$$$$=======**************=======$$$$$$$$$$$$$$$$$$$$$.......+++++++++++++++++++++@@@@@@@.......                                                                                                                                                                                                                                                                ",
"     .......@@@@@@@++++++++++++++++++++++++++++..............@@@@@@@+++++++++++++++++++++@@@@@@@.......       .......@@@@@@@++++++++++++++++++++++.......*********************=======****************************==============**************$$$$$$$=======**************=======$$$$$$$$$$$$$$$$$$$$$.......+++++++++++++++++++++@@@@@@@.......                                                                                                                                                                                                                                                                ",
"     .......@@@@@@@++++++++++++++++++++++++++++..............@@@@@@@+++++++++++++++++++++@@@@@@@.......       .......@@@@@@@++++++++++++++++++++++.......*********************=======****************************==============**************$$$$$$$=======**************=======$$$$$$$$$$$$$$$$$$$$$.......+++++++++++++++++++++@@@@@@@.......                                                                                                                                                                                                                                                                ",
"     ..............@@@@@@@+++++++++++++++++++++@@@@@@@.......@@@@@@@@@@@@@@+++++++@@@@@@@#######+++++++.......       .......@@@@@@@+++++++++++++++.......*********************$$$$$$$==============**************$$$$$$$=======*******$$$$$$$=======*******$$$$$$$=======**************$$$$$$$.......++++++++++++++++++++++++++++@@@@@@@.......                                                                                                                                                                                                                                                                ",
"     ..............@@@@@@@+++++++++++++++++++++@@@@@@@.......@@@@@@@@@@@@@@+++++++@@@@@@@#######+++++++.......       .......@@@@@@@+++++++++++++++.......*********************$$$$$$$==============**************$$$$$$$=======*******$$$$$$$=======*******$$$$$$$=======**************$$$$$$$.......++++++++++++++++++++++++++++@@@@@@@.......                                                                                                                                                                                                                                                                ",
"     ..............@@@@@@@+++++++++++++++++++++@@@@@@@.......@@@@@@@@@@@@@@+++++++@@@@@@@#######+++++++.......       .......@@@@@@@+++++++++++++++.......*********************$$$$$$$==============**************$$$$$$$=======*******$$$$$$$=======*******$$$$$$$=======**************$$$$$$$.......++++++++++++++++++++++++++++@@@@@@@.......                                                                                                                                                                                                                                                                ",
"     ..............@@@@@@@+++++++++++++++++++++@@@@@@@.......@@@@@@@@@@@@@@+++++++@@@@@@@#######+++++++.......       .......@@@@@@@+++++++++++++++.......*********************$$$$$$$==============**************$$$$$$$=======*******$$$$$$$=======*******$$$$$$$=======**************$$$$$$$.......++++++++++++++++++++++++++++@@@@@@@.......                                                                                                                                                                                                                                                                ",
"     ..............@@@@@@@+++++++++++++++++++++@@@@@@@.......@@@@@@@@@@@@@@+++++++@@@@@@@#######+++++++.......       .......@@@@@@@+++++++++++++++.......*********************$$$$$$$==============**************$$$$$$$=======*******$$$$$$$=======*******$$$$$$$=======**************$$$$$$$.......++++++++++++++++++++++++++++@@@@@@@.......                                                                                                                                                                                                                                                                ",
"     ..............@@@@@@@+++++++++++++++++++++@@@@@@@.......@@@@@@@@@@@@@@+++++++@@@@@@@#######+++++++.......       .......@@@@@@@+++++++++++++++.......*********************$$$$$$$==============**************$$$$$$$=======*******$$$$$$$=======*******$$$$$$$=======**************$$$$$$$.......++++++++++++++++++++++++++++@@@@@@@.......                                                                                                                                                                                                                                                                ",
"     ..............@@@@@@@+++++++++++++++++++++@@@@@@@.......@@@@@@@@@@@@@@+++++++@@@@@@@#######+++++++.......       .......@@@@@@@+++++++++++++++.......*********************$$$$$$$==============**************$$$$$$$=======*******$$$$$$$=======*******$$$$$$$=======**************$$$$$$$.......++++++++++++++++++++++++++++@@@@@@@.......                                                                                                                                                                                                                                                                ",
"            .......@@@@@@@++++++++++++++@@@@@@@@@@@@@@..............@@@@@@@##############@@@@@@@++++++++++++++..............@@@@@@@@@@@@@@+++++++@@@@@@@@.......*********************$$$$$$$==============**************============================*******$$$$$$$=======**************$$$$$$$$$$$$$$.......+++++++++++++++++++++@@@@@@@.......                                                                                                                                                                                                                                                                ",
"            .......@@@@@@@++++++++++++++@@@@@@@@@@@@@@..............@@@@@@@##############@@@@@@@++++++++++++++..............@@@@@@@@@@@@@@+++++++@@@@@@@@.......*********************$$$$$$$==============**************============================*******$$$$$$$=======**************$$$$$$$$$$$$$$.......+++++++++++++++++++++@@@@@@@.......                                                                                                                                                                                                                                                                ",
"            .......@@@@@@@++++++++++++++@@@@@@@@@@@@@@..............@@@@@@@##############@@@@@@@++++++++++++++..............@@@@@@@@@@@@@@+++++++@@@@@@@@.......*********************$$$$$$$==============**************============================*******$$$$$$$=======**************$$$$$$$$$$$$$$.......+++++++++++++++++++++@@@@@@@.......                                                                                                                                                                                                                                                                ",
"            .......@@@@@@@++++++++++++++@@@@@@@@@@@@@@..............@@@@@@@##############@@@@@@@++++++++++++++..............@@@@@@@@@@@@@@+++++++@@@@@@@@.......*********************$$$$$$$==============**************============================*******$$$$$$$=======**************$$$$$$$$$$$$$$.......+++++++++++++++++++++@@@@@@@.......                                                                                                                                                                                                                                                                ",
"            .......@@@@@@@++++++++++++++@@@@@@@@@@@@@@..............@@@@@@@##############@@@@@@@++++++++++++++..............@@@@@@@@@@@@@@+++++++@@@@@@@@.......*********************$$$$$$$==============**************============================*******$$$$$$$=======**************$$$$$$$$$$$$$$.......+++++++++++++++++++++@@@@@@@.......                                                                                                                                                                                                                                                                ",
"            .......@@@@@@@++++++++++++++@@@@@@@@@@@@@@..............@@@@@@@##############@@@@@@@++++++++++++++..............@@@@@@@@@@@@@@+++++++@@@@@@@@.......*********************$$$$$$$==============**************============================*******$$$$$$$=======**************$$$$$$$$$$$$$$.......+++++++++++++++++++++@@@@@@@.......                                                                                                                                                                                                                                                                ",
"            .......@@@@@@@++++++++++++++@@@@@@@@@@@@@@..............@@@@@@@##############@@@@@@@++++++++++++++..............@@@@@@@@@@@@@@+++++++@@@@@@@@.......*********************$$$$$$$==============**************============================*******$$$$$$$=======**************$$$$$$$$$$$$$$.......+++++++++++++++++++++@@@@@@@.......                                                                                                                                                                                                                                                                ",
"            ..............@@@@@@@@@@@@@@@@@@@@@#######.......       .......@@@@@@@@@@@@@@+++++++++++++++++++++++++++++++++++.......@@@@@@@@@@@@@@########.......**************=======*******$$$$$$$==============*******=====================$$$$$$$***********************************=======$$$$$$$$$$$$$$.......++++++++++++++@@@@@@@.......                                                                                                                                                                                                                                                                ",
"            ..............@@@@@@@@@@@@@@@@@@@@@#######.......       .......@@@@@@@@@@@@@@+++++++++++++++++++++++++++++++++++.......@@@@@@@@@@@@@@########.......**************=======*******$$$$$$$==============*******=====================$$$$$$$***********************************=======$$$$$$$$$$$$$$.......++++++++++++++@@@@@@@.......                                                                                                                                                                                                                                                                ",
"            ..............@@@@@@@@@@@@@@@@@@@@@#######.......       .......@@@@@@@@@@@@@@+++++++++++++++++++++++++++++++++++.......@@@@@@@@@@@@@@########.......**************=======*******$$$$$$$==============*******=====================$$$$$$$***********************************=======$$$$$$$$$$$$$$.......++++++++++++++@@@@@@@.......                                                                                                                                                                                                                                                                ",
"            ..............@@@@@@@@@@@@@@@@@@@@@#######.......       .......@@@@@@@@@@@@@@+++++++++++++++++++++++++++++++++++.......@@@@@@@@@@@@@@########.......**************=======*******$$$$$$$==============*******=====================$$$$$$$***********************************=======$$$$$$$$$$$$$$.......++++++++++++++@@@@@@@.......                                                                                                                                                                                                                                                                ",
"            ..............@@@@@@@@@@@@@@@@@@@@@#######.......       .......@@@@@@@@@@@@@@+++++++++++++++++++++++++++++++++++.......@@@@@@@@@@@@@@########.......**************=======*******$$$$$$$==============*******=====================$$$$$$$***********************************=======$$$$$$$$$$$$$$.......++++++++++++++@@@@@@@.......                                                                                                                                                                                                                                                                ",
"            ..............@@@@@@@@@@@@@@@@@@@@@#######.......       .......@@@@@@@@@@@@@@+++++++++++++++++++++++++++++++++++.......@@@@@@@@@@@@@@########.......**************=======*******$$$$$$$==============*******=====================$$$$$$$***********************************=======$$$$$$$$$$$$$$.......++++++++++++++@@@@@@@.......                                                                                                                                                                                                                                                                ",
"            ..............@@@@@@@@@@@@@@@@@@@@@#######.......       .......@@@@@@@@@@@@@@+++++++++++++++++++++++++++++++++++.......@@@@@@@@@@@@@@########.......**************=======*******$$$$$$$==============*******=====================$$$$$$$***********************************=======$$$$$$$$$$$$$$.......++++++++++++++@@@@@@@.......                                                                                                                                                                                                                                                                ",
"                   .......@@@@@@@##############@@@@@@@+++++++..............@@@@@@@++++++++++++++++++++++++++++++++++++++++++.....................#######++++++++.......****************************$$$$$$$$$$$$$$============================*********************$$$$$$$=======**************$$$$$$$$$$$$$$.......++++++++++++++@@@@@@@.......                                                                                                                                                                                                                                                                ",
"                   .......@@@@@@@##############@@@@@@@+++++++..............@@@@@@@++++++++++++++++++++++++++++++++++++++++++.....................#######++++++++.......****************************$$$$$$$$$$$$$$============================*********************$$$$$$$=======**************$$$$$$$$$$$$$$.......++++++++++++++@@@@@@@.......                                                                                                                                                                                                                                                                ",
"                   .......@@@@@@@##############@@@@@@@+++++++..............@@@@@@@++++++++++++++++++++++++++++++++++++++++++.....................#######++++++++.......****************************$$$$$$$$$$$$$$============================*********************$$$$$$$=======**************$$$$$$$$$$$$$$.......++++++++++++++@@@@@@@.......                                                                                                                                                                                                                                                                ",
"                   .......@@@@@@@##############@@@@@@@+++++++..............@@@@@@@++++++++++++++++++++++++++++++++++++++++++.....................#######++++++++.......****************************$$$$$$$$$$$$$$============================*********************$$$$$$$=======**************$$$$$$$$$$$$$$.......++++++++++++++@@@@@@@.......                                                                                                                                                                                                                                                                ",
"                   .......@@@@@@@##############@@@@@@@+++++++..............@@@@@@@++++++++++++++++++++++++++++++++++++++++++.....................#######++++++++.......****************************$$$$$$$$$$$$$$============================*********************$$$$$$$=======**************$$$$$$$$$$$$$$.......++++++++++++++@@@@@@@.......                                                                                                                                                                                                                                                                ",
"                   .......@@@@@@@##############@@@@@@@+++++++..............@@@@@@@++++++++++++++++++++++++++++++++++++++++++.....................#######++++++++.......****************************$$$$$$$$$$$$$$============================*********************$$$$$$$=======**************$$$$$$$$$$$$$$.......++++++++++++++@@@@@@@.......                                                                                                                                                                                                                                                                ",
"                   .......@@@@@@@##############@@@@@@@+++++++..............@@@@@@@++++++++++++++++++++++++++++++++++++++++++.....................#######++++++++.......****************************$$$$$$$$$$$$$$============================*********************$$$$$$$=======**************$$$$$$$$$$$$$$.......++++++++++++++@@@@@@@.......                                                                                                                                                                                                                                                                ",
"                   ..............@@@@@@@@@@@@@@+++++++++++++++++++++..............@@@@@@@+++++++++++++++++++++++++++++++++++@@@@@@@.......++++++++++++++++++++++.......***********************************$$$$$$$$$$$$$$$$$$$$$=====================**************$$$$$$$=======*********************$$$$$$$.......++++++++++++++@@@@@@@.......                                                                                                                                                                                                                                                                ",
"                   ..............@@@@@@@@@@@@@@+++++++++++++++++++++..............@@@@@@@+++++++++++++++++++++++++++++++++++@@@@@@@.......++++++++++++++++++++++.......***********************************$$$$$$$$$$$$$$$$$$$$$=====================**************$$$$$$$=======*********************$$$$$$$.......++++++++++++++@@@@@@@..............                                                                                                                                                                                                                                                         ",
"                   ..............@@@@@@@@@@@@@@+++++++++++++++++++++..............@@@@@@@+++++++++++++++++++++++++++++++++++@@@@@@@.......++++++++++++++++++++++.......***********************************$$$$$$$$$$$$$$$$$$$$$=====================**************$$$$$$$=======*********************$$$$$$$.......++++++++++++++@@@@@@@..............                                                                                                                                                                                                                                                         ",
"                   ..............@@@@@@@@@@@@@@+++++++++++++++++++++..............@@@@@@@+++++++++++++++++++++++++++++++++++@@@@@@@.......++++++++++++++++++++++.......***********************************$$$$$$$$$$$$$$$$$$$$$=====================**************$$$$$$$=======*********************$$$$$$$.......++++++++++++++@@@@@@@..............                                                                                                                                                                                                                                                         ",
"                   ..............@@@@@@@@@@@@@@+++++++++++++++++++++..............@@@@@@@+++++++++++++++++++++++++++++++++++@@@@@@@.......++++++++++++++++++++++.......***********************************$$$$$$$$$$$$$$$$$$$$$=====================**************$$$$$$$=======*********************$$$$$$$.......++++++++++++++@@@@@@@..............                                                                                                                                                                                                                                                         ",
"                   ..............@@@@@@@@@@@@@@+++++++++++++++++++++..............@@@@@@@+++++++++++++++++++++++++++++++++++@@@@@@@.......++++++++++++++++++++++.......***********************************$$$$$$$$$$$$$$$$$$$$$=====================**************$$$$$$$=======*********************$$$$$$$.......++++++++++++++@@@@@@@..............                                                                                                                                                                                                                                                         ",
"                   ..............@@@@@@@@@@@@@@+++++++++++++++++++++..............@@@@@@@+++++++++++++++++++++++++++++++++++@@@@@@@.......++++++++++++++++++++++.......***********************************$$$$$$$$$$$$$$$$$$$$$=====================**************$$$$$$$=======*********************$$$$$$$.......++++++++++++++@@@@@@@..............                                                                                                                                                                                                                                                         ",
"                          .......@@@@@@@+++++++++++++++++++++@@@@@@@#######..............@@@@@@@@@@@@@@++++++++++++++@@@@@@@#######+++++++++++++++++++++++++++++.......**************=======****************************$$$$$$$==============$$$$$$$*******$$$$$$$=======*********************=======$$$$$$$.......++++++++++++++@@@@@@@..............                                                                                                                                                                                                                                                         ",
"                          .......@@@@@@@+++++++++++++++++++++@@@@@@@#######..............@@@@@@@@@@@@@@++++++++++++++@@@@@@@#######+++++++++++++++++++++++++++++.......**************=======****************************$$$$$$$==============$$$$$$$*******$$$$$$$=======*********************=======$$$$$$$.......++++++++++++++@@@@@@@@@@@@@@.......                                                                                                                                                                                                                                                         ",
"                          .......@@@@@@@+++++++++++++++++++++@@@@@@@#######..............@@@@@@@@@@@@@@++++++++++++++@@@@@@@#######+++++++++++++++++++++++++++++.......**************=======****************************$$$$$$$==============$$$$$$$*******$$$$$$$=======*********************=======$$$$$$$.......++++++++++++++@@@@@@@@@@@@@@.......                                                                                                                                                                                                                                                         ",
"                          .......@@@@@@@+++++++++++++++++++++@@@@@@@#######..............@@@@@@@@@@@@@@++++++++++++++@@@@@@@#######+++++++++++++++++++++++++++++.......**************=======****************************$$$$$$$==============$$$$$$$*******$$$$$$$=======*********************=======$$$$$$$.......++++++++++++++@@@@@@@@@@@@@@.......                                                                                                                                                                                                                                                         ",
"                          .......@@@@@@@+++++++++++++++++++++@@@@@@@#######..............@@@@@@@@@@@@@@++++++++++++++@@@@@@@#######+++++++++++++++++++++++++++++.......**************=======****************************$$$$$$$==============$$$$$$$*******$$$$$$$=======*********************=======$$$$$$$.......++++++++++++++@@@@@@@@@@@@@@.......                                                                                                                                                                                                                                                         ",
"                          .......@@@@@@@+++++++++++++++++++++@@@@@@@#######..............@@@@@@@@@@@@@@++++++++++++++@@@@@@@#######+++++++++++++++++++++++++++++.......**************=======****************************$$$$$$$==============$$$$$$$*******$$$$$$$=======*********************=======$$$$$$$.......++++++++++++++@@@@@@@@@@@@@@.......                                                                                                                                                                                                                                                         ",
"                          .......@@@@@@@+++++++++++++++++++++@@@@@@@#######..............@@@@@@@@@@@@@@++++++++++++++@@@@@@@#######+++++++++++++++++++++++++++++.......**************=======****************************$$$$$$$==============$$$$$$$*******$$$$$$$=======*********************=======$$$$$$$.......++++++++++++++@@@@@@@@@@@@@@.......                                                                                                                                                                                                                                                         ",
"                          ..............@@@@@@@+++++++@@@@@@@##############+++++++..............@@@@@@@@@@@@@@@@@@@@@#######@@@@@@@@@@@@@@@@@@@@@@@@@@@@@@@@@@@@.......**************$$$$$$$==============**************$$$$$$$=====================*******$$$$$$$=======****************************$$$$$$$$$$$$$$.......+++++++@@@@@@@@@@@@@@.......                                                                                                                                                                                                                                                         ",
"                          ..............@@@@@@@+++++++@@@@@@@##############+++++++..............@@@@@@@@@@@@@@@@@@@@@#######@@@@@@@@@@@@@@@@@@@@@@@@@@@@@@@@@@@@.......**************$$$$$$$==============**************$$$$$$$=====================*******$$$$$$$=======****************************$$$$$$$$$$$$$$.......+++++++@@@@@@@@@@@@@@.......                                                                                                                                                                                                                                                         ",
"                          ..............@@@@@@@+++++++@@@@@@@##############+++++++..............@@@@@@@@@@@@@@@@@@@@@#######@@@@@@@@@@@@@@@@@@@@@@@@@@@@@@@@@@@@.......**************$$$$$$$==============**************$$$$$$$=====================*******$$$$$$$=======****************************$$$$$$$$$$$$$$.......+++++++@@@@@@@@@@@@@@.......                                                                                                                                                                                                                                                         ",
"                          ..............@@@@@@@+++++++@@@@@@@##############+++++++..............@@@@@@@@@@@@@@@@@@@@@#######@@@@@@@@@@@@@@@@@@@@@@@@@@@@@@@@@@@@.......**************$$$$$$$==============**************$$$$$$$=====================*******$$$$$$$=======****************************$$$$$$$$$$$$$$.......+++++++@@@@@@@@@@@@@@.......                                                                                                                                                                                                                                                         ",
"                          ..............@@@@@@@+++++++@@@@@@@##############+++++++..............@@@@@@@@@@@@@@@@@@@@@#######@@@@@@@@@@@@@@@@@@@@@@@@@@@@@@@@@@@@.......**************$$$$$$$==============**************$$$$$$$=====================*******$$$$$$$=======****************************$$$$$$$$$$$$$$.......+++++++@@@@@@@@@@@@@@.......                                                                                                                                                                                                                                                         ",
"                          ..............@@@@@@@+++++++@@@@@@@##############+++++++..............@@@@@@@@@@@@@@@@@@@@@#######@@@@@@@@@@@@@@@@@@@@@@@@@@@@@@@@@@@@.......**************$$$$$$$==============**************$$$$$$$=====================*******$$$$$$$=======****************************$$$$$$$$$$$$$$.......+++++++@@@@@@@@@@@@@@.......                                                                                                                                                                                                                                                         ",
"                          ..............@@@@@@@+++++++@@@@@@@##############+++++++..............@@@@@@@@@@@@@@@@@@@@@#######@@@@@@@@@@@@@@@@@@@@@@@@@@@@@@@@@@@@.......**************$$$$$$$==============**************$$$$$$$=====================*******$$$$$$$=======****************************$$$$$$$$$$$$$$.......+++++++@@@@@@@@@@@@@@.......                                                                                                                                                                                                                                                         ",
"                                 ..............@@@@@@@#######++++++++++++++++++++++++++++.......@@@@@@@@@@@@@@.......@@@@@@@@@@@@@@@@@@@@@@@@@@@@@@@@@@@@@@@@@@@@@@@@@#.......******............................========*******=====================$$$$$$$=======**************$$$$$$$=======**************$$$$$$$.......+++++++@@@@@@@@@@@@@@.......                                                                                                                                                                                                                                                         ",
"                                 ..............@@@@@@@#######++++++++++++++++++++++++++++.......@@@@@@@@@@@@@@.......@@@@@@@@@@@@@@@@@@@@@@@@@@@@@@@@@@@@@@@@@@@@@@@@@#.......******............................========*******=====================$$$$$$$=======**************$$$$$$$=======**************$$$$$$$.......@@@@@@@@@@@@@@@@@@@@@.......                                                                                                                                                                                                                                                         ",
"                                 ..............@@@@@@@#######++++++++++++++++++++++++++++.......@@@@@@@@@@@@@@.......@@@@@@@@@@@@@@@@@@@@@@@@@@@@@@@@@@@@@@@@@@@@@@@@@#.......******............................========*******=====================$$$$$$$=======**************$$$$$$$=======**************$$$$$$$.......@@@@@@@@@@@@@@@@@@@@@.......                                                                                                                                                                                                                                                         ",
"                                 ..............@@@@@@@#######++++++++++++++++++++++++++++.......@@@@@@@@@@@@@@.......@@@@@@@@@@@@@@@@@@@@@@@@@@@@@@@@@@@@@@@@@@@@@@@@@#.......******............................========*******=====================$$$$$$$=======**************$$$$$$$=======**************$$$$$$$.......@@@@@@@@@@@@@@@@@@@@@.......                                                                                                                                                                                                                                                         ",
"                                 ..............@@@@@@@#######++++++++++++++++++++++++++++.......@@@@@@@@@@@@@@.......@@@@@@@@@@@@@@@@@@@@@@@@@@@@@@@@@@@@@@@@@@@@@@@@@#.......******............................========*******=====================$$$$$$$=======**************$$$$$$$=======**************$$$$$$$.......@@@@@@@@@@@@@@@@@@@@@.......                                                                                                                                                                                                                                                         ",
"                                 ..............@@@@@@@#######++++++++++++++++++++++++++++.......@@@@@@@@@@@@@@.......@@@@@@@@@@@@@@@@@@@@@@@@@@@@@@@@@@@@@@@@@@@@@@@@@#.......******............................========*******=====================$$$$$$$=======**************$$$$$$$=======**************$$$$$$$.......@@@@@@@@@@@@@@@@@@@@@.......                                                                                                                                                                                                                                                         ",
"                                 ..............@@@@@@@#######++++++++++++++++++++++++++++.......@@@@@@@@@@@@@@.......@@@@@@@@@@@@@@@@@@@@@@@@@@@@@@@@@@@@@@@@@@@@@@@@@#.......******............................========*******=====================$$$$$$$=======**************$$$$$$$=======**************$$$$$$$.......@@@@@@@@@@@@@@@@@@@@@.......                                                                                                                                                                                                                                                         ",
"                                        ..............@@@@@@@+++++++++++++++++++++++++++++++++++..............@@@@@@@++++++++++++++++++++++++++++@@@@@@@##############..............----------------------------..............====================================*******$$$$$$$=======*********************$$$$$$$.......@@@@@@@@@@@@@@@@@@@@@.......                                                                                                                                                                                                                                                         ",
"                                        ..............@@@@@@@+++++++++++++++++++++++++++++++++++..............@@@@@@@++++++++++++++++++++++++++++@@@@@@@##############..............----------------------------..............====================================*******$$$$$$$=======*********************$$$$$$$.......@@@@@@@@@@@@@@@@@@@@@.......                                                                                                                                                                                                                                                         ",
"                                        ..............@@@@@@@+++++++++++++++++++++++++++++++++++..............@@@@@@@++++++++++++++++++++++++++++@@@@@@@##############..............----------------------------..............====================================*******$$$$$$$=======*********************$$$$$$$.......@@@@@@@@@@@@@@@@@@@@@.......                                                                                                                                                                                                                                                         ",
"                                        ..............@@@@@@@+++++++++++++++++++++++++++++++++++..............@@@@@@@++++++++++++++++++++++++++++@@@@@@@##############..............----------------------------..............====================================*******$$$$$$$=======*********************$$$$$$$.......@@@@@@@@@@@@@@@@@@@@@.......                                                                                                                                                                                                                                                         ",
"                                        ..............@@@@@@@+++++++++++++++++++++++++++++++++++..............@@@@@@@++++++++++++++++++++++++++++@@@@@@@##############..............----------------------------..............====================================*******$$$$$$$=======*********************$$$$$$$.......@@@@@@@@@@@@@@@@@@@@@.......                                                                                                                                                                                                                                                         ",
"                                        ..............@@@@@@@+++++++++++++++++++++++++++++++++++..............@@@@@@@++++++++++++++++++++++++++++@@@@@@@##############..............----------------------------..............====================================*******$$$$$$$=======*********************$$$$$$$.......@@@@@@@@@@@@@@@@@@@@@.......                                                                                                                                                                                                                                                         ",
"                                        ..............@@@@@@@+++++++++++++++++++++++++++++++++++..............@@@@@@@++++++++++++++++++++++++++++@@@@@@@##############..............----------------------------..............====================================*******$$$$$$$=======*********************$$$$$$$.......@@@@@@@@@@@@@@@@@@@@@.......                                                                                                                                                                                                                                                         ",
"                                               .......@@@@@@@@@@@@@@+++++++++++++++++++++@@@@@@@@@@@@@@@@@@@@@++++++++++++++++++++++++++++++++++++++++++#######.......--------------;;;;;;;;;;;;;;;;;;;;;;;;;;;;--------------.......$=====================**************$$$$$$$=======*********************.......+++++++@@@@@@@@@@@@@@@@@@@@@.......                                                                                                                                                                                                                                                         ",
"                                               .......@@@@@@@@@@@@@@+++++++++++++++++++++@@@@@@@@@@@@@@@@@@@@@++++++++++++++++++++++++++++++++++++++++++#######.......--------------;;;;;;;;;;;;;;;;;;;;;;;;;;;;--------------.......$=====================**************$$$$$$$=======*********************.......+++++++@@@@@@@@@@@@@@@@@@@@@..............                                                                                                                                                                                                                                                  ",
"                                               .......@@@@@@@@@@@@@@+++++++++++++++++++++@@@@@@@@@@@@@@@@@@@@@++++++++++++++++++++++++++++++++++++++++++#######.......--------------;;;;;;;;;;;;;;;;;;;;;;;;;;;;--------------.......$=====================**************$$$$$$$=======*********************.......+++++++@@@@@@@@@@@@@@@@@@@@@..............                                                                                                                                                                                                                                                  ",
"                                               .......@@@@@@@@@@@@@@+++++++++++++++++++++@@@@@@@@@@@@@@@@@@@@@++++++++++++++++++++++++++++++++++++++++++#######.......--------------;;;;;;;;;;;;;;;;;;;;;;;;;;;;--------------.......$=====================**************$$$$$$$=======*********************.......+++++++@@@@@@@@@@@@@@@@@@@@@..............                                                                                                                                                                                                                                                  ",
"                                               .......@@@@@@@@@@@@@@+++++++++++++++++++++@@@@@@@@@@@@@@@@@@@@@++++++++++++++++++++++++++++++++++++++++++#######.......--------------;;;;;;;;;;;;;;;;;;;;;;;;;;;;--------------.......$=====================**************$$$$$$$=======*********************.......+++++++@@@@@@@@@@@@@@@@@@@@@..............                                                                                                                                                                                                                                                  ",
"                                               .......@@@@@@@@@@@@@@+++++++++++++++++++++@@@@@@@@@@@@@@@@@@@@@++++++++++++++++++++++++++++++++++++++++++#######.......--------------;;;;;;;;;;;;;;;;;;;;;;;;;;;;--------------.......$=====================**************$$$$$$$=======*********************.......+++++++@@@@@@@@@@@@@@@@@@@@@..............                                                                                                                                                                                                                                                  ",
"                                               .......@@@@@@@@@@@@@@+++++++++++++++++++++@@@@@@@@@@@@@@@@@@@@@++++++++++++++++++++++++++++++++++++++++++#######.......--------------;;;;;;;;;;;;;;;;;;;;;;;;;;;;--------------.......$=====================**************$$$$$$$=======*********************.......+++++++@@@@@@@@@@@@@@@@@@@@@..............                                                                                                                                                                                                                                                  ",
"                                               ..............@@@@@@@@@@@@@@++++++++++++++@@@@@@@++++++++++++++++++++++++++++++++++++++++++#######..............-------;;;;;;;;;;;;;;>>>>>>>>>>>>>>>>>>>>>;;;;;;;;;;;;;;;;;;;;;-------.......===============**************=======****************************.......+++++++@@@@@@@@@@@@@@@@@@@@@..............                                                                                                                                                                                                                                                  ",
"                                               ..............@@@@@@@@@@@@@@++++++++++++++@@@@@@@++++++++++++++++++++++++++++++++++++++++++#######..............-------;;;;;;;;;;;;;;>>>>>>>>>>>>>>>>>>>>>;;;;;;;;;;;;;;;;;;;;;-------.......===============**************=======****************************.......@@@@@@@@@@@@@@@@@@@@@@@@@@@@@@@@@@@.......                                                                                                                                                                                                                                                  ",
"                                               ..............@@@@@@@@@@@@@@++++++++++++++@@@@@@@++++++++++++++++++++++++++++++++++++++++++#######..............-------;;;;;;;;;;;;;;>>>>>>>>>>>>>>>>>>>>>;;;;;;;;;;;;;;;;;;;;;-------.......===============**************=======****************************.......@@@@@@@@@@@@@@@@@@@@@@@@@@@@@@@@@@@.......                                                                                                                                                                                                                                                  ",
"                                               ..............@@@@@@@@@@@@@@++++++++++++++@@@@@@@++++++++++++++++++++++++++++++++++++++++++#######..............-------;;;;;;;;;;;;;;>>>>>>>>>>>>>>>>>>>>>;;;;;;;;;;;;;;;;;;;;;-------.......===============**************=======****************************.......@@@@@@@@@@@@@@@@@@@@@@@@@@@@@@@@@@@.......                                                                                                                                                                                                                                                  ",
"                                               ..............@@@@@@@@@@@@@@++++++++++++++@@@@@@@++++++++++++++++++++++++++++++++++++++++++#######..............-------;;;;;;;;;;;;;;>>>>>>>>>>>>>>>>>>>>>;;;;;;;;;;;;;;;;;;;;;-------.......===============**************=======****************************.......@@@@@@@@@@@@@@@@@@@@@@@@@@@@@@@@@@@.......                                                                                                                                                                                                                                                  ",
"                                               ..............@@@@@@@@@@@@@@++++++++++++++@@@@@@@++++++++++++++++++++++++++++++++++++++++++#######..............-------;;;;;;;;;;;;;;>>>>>>>>>>>>>>>>>>>>>;;;;;;;;;;;;;;;;;;;;;-------.......===============**************=======****************************.......@@@@@@@@@@@@@@@@@@@@@@@@@@@@@@@@@@@.......                                                                                                                                                                                                                                                  ",
"                                               ..............@@@@@@@@@@@@@@++++++++++++++@@@@@@@++++++++++++++++++++++++++++++++++++++++++#######..............-------;;;;;;;;;;;;;;>>>>>>>>>>>>>>>>>>>>>;;;;;;;;;;;;;;;;;;;;;-------.......===============**************=======****************************.......@@@@@@@@@@@@@@@@@@@@@@@@@@@@@@@@@@@.......                                                                                                                                                                                                                                                  ",
"                                                      ..............@@@@@@@@@@@@@@@@@@@@@++++++++++++++++++++++++++++++++++++++++++#######.......--------------;;;;;;;>>>>>>>,,,,,,,,,,,,,,>>>>>>>>>>>>>>,,,,,,,>>>>>>>>>>>>>>;;;;;;;-------.......===============$$$$$$$=======****************************.......@@@@@@@@@@@@@@@@@@@@@@@@@@@@@@@@@@@.......                                                                                                                                                                                                                                                  ",
"                                                      ..............@@@@@@@@@@@@@@@@@@@@@++++++++++++++++++++++++++++++++++++++++++#######.......--------------;;;;;;;>>>>>>>,,,,,,,,,,,,,,>>>>>>>>>>>>>>,,,,,,,>>>>>>>>>>>>>>;;;;;;;-------.......===============$$$$$$$=======****************************.......@@@@@@@@@@@@@@@@@@@@@@@@@@@@@@@@@@@.......                                                                                                                                                                                                                                                  ",
"                                                      ..............@@@@@@@@@@@@@@@@@@@@@++++++++++++++++++++++++++++++++++++++++++#######.......--------------;;;;;;;>>>>>>>,,,,,,,,,,,,,,>>>>>>>>>>>>>>,,,,,,,>>>>>>>>>>>>>>;;;;;;;-------.......===============$$$$$$$=======****************************.......@@@@@@@@@@@@@@@@@@@@@@@@@@@@@@@@@@@.......                                                                                                                                                                                                                                                  ",
"                                                      ..............@@@@@@@@@@@@@@@@@@@@@++++++++++++++++++++++++++++++++++++++++++#######.......--------------;;;;;;;>>>>>>>,,,,,,,,,,,,,,>>>>>>>>>>>>>>,,,,,,,>>>>>>>>>>>>>>;;;;;;;-------.......===============$$$$$$$=======****************************.......@@@@@@@@@@@@@@@@@@@@@@@@@@@@@@@@@@@.......                                                                                                                                                                                                                                                  ",
"                                                      ..............@@@@@@@@@@@@@@@@@@@@@++++++++++++++++++++++++++++++++++++++++++#######.......--------------;;;;;;;>>>>>>>,,,,,,,,,,,,,,>>>>>>>>>>>>>>,,,,,,,>>>>>>>>>>>>>>;;;;;;;-------.......===============$$$$$$$=======****************************.......@@@@@@@@@@@@@@@@@@@@@@@@@@@@@@@@@@@.......                                                                                                                                                                                                                                                  ",
"                                                      ..............@@@@@@@@@@@@@@@@@@@@@++++++++++++++++++++++++++++++++++++++++++#######.......--------------;;;;;;;>>>>>>>,,,,,,,,,,,,,,>>>>>>>>>>>>>>,,,,,,,>>>>>>>>>>>>>>;;;;;;;-------.......===============$$$$$$$=======****************************.......@@@@@@@@@@@@@@@@@@@@@@@@@@@@@@@@@@@.......                                                                                                                                                                                                                                                  ",
"                                                      ..............@@@@@@@@@@@@@@@@@@@@@++++++++++++++++++++++++++++++++++++++++++#######.......--------------;;;;;;;>>>>>>>,,,,,,,,,,,,,,>>>>>>>>>>>>>>,,,,,,,>>>>>>>>>>>>>>;;;;;;;-------.......===============$$$$$$$=======****************************.......@@@@@@@@@@@@@@@@@@@@@@@@@@@@@@@@@@@.......                                                                                                                                                                                                                                                  ",
"                                                             ..............@@@@@@@@@@@@@@+++++++++++++++++++++++++++++++++++#######@@@@@@@.......-------;;;;;;;,,,,,,,,,,,,,,''''''')))))))!!!!!!!,,,,,,,,,,,,,,,,,,,,,,,,,,,,;;;;;;;-------.......======================***********************************.......@@@@@@@@@@@@@@@@@@@@@@@@@@@@@@@@@@@.......                                                                                                                                                                                                                                                  ",
"                                                             ..............@@@@@@@@@@@@@@+++++++++++++++++++++++++++++++++++#######@@@@@@@.......-------;;;;;;;,,,,,,,,,,,,,,''''''')))))))!!!!!!!,,,,,,,,,,,,,,,,,,,,,,,,,,,,;;;;;;;-------.......======================***********************************.......@@@@@@@@@@@@@@@@@@@@@@@@@@@@@@@@@@@.......                                                                                                                                                                                                                                                  ",
"                                                             ..............@@@@@@@@@@@@@@+++++++++++++++++++++++++++++++++++#######@@@@@@@.......-------;;;;;;;,,,,,,,,,,,,,,''''''')))))))!!!!!!!,,,,,,,,,,,,,,,,,,,,,,,,,,,,;;;;;;;-------.......======================***********************************.......@@@@@@@@@@@@@@@@@@@@@@@@@@@@@@@@@@@.......                                                                                                                                                                                                                                                  ",
"                                                             ..............@@@@@@@@@@@@@@+++++++++++++++++++++++++++++++++++#######@@@@@@@.......-------;;;;;;;,,,,,,,,,,,,,,''''''')))))))!!!!!!!,,,,,,,,,,,,,,,,,,,,,,,,,,,,;;;;;;;-------.......======================***********************************.......@@@@@@@@@@@@@@@@@@@@@@@@@@@@@@@@@@@.......                                                                                                                                                                                                                                                  ",
"                                                             ..............@@@@@@@@@@@@@@+++++++++++++++++++++++++++++++++++#######@@@@@@@.......-------;;;;;;;,,,,,,,,,,,,,,''''''')))))))!!!!!!!,,,,,,,,,,,,,,,,,,,,,,,,,,,,;;;;;;;-------.......======================***********************************.......@@@@@@@@@@@@@@@@@@@@@@@@@@@@@@@@@@@.......                                                                                                                                                                                                                                                  ",
"                                                             ..............@@@@@@@@@@@@@@+++++++++++++++++++++++++++++++++++#######@@@@@@@.......-------;;;;;;;,,,,,,,,,,,,,,''''''')))))))!!!!!!!,,,,,,,,,,,,,,,,,,,,,,,,,,,,;;;;;;;-------.......======================***********************************.......@@@@@@@@@@@@@@@@@@@@@@@@@@@@@@@@@@@.......                                                                                                                                                                                                                                                  ",
"                                                             ..............@@@@@@@@@@@@@@+++++++++++++++++++++++++++++++++++#######@@@@@@@.......-------;;;;;;;,,,,,,,,,,,,,,''''''')))))))!!!!!!!,,,,,,,,,,,,,,,,,,,,,,,,,,,,;;;;;;;-------.......======================***********************************.......@@@@@@@@@@@@@@@@@@@@@@@@@@@@@@@@@@@.......                                                                                                                                                                                                                                                  ",
"                                                                    ..............@@@@@@@++++++++++++++++++++++++++++#######@@@@@@@.......-------;;;;;;;,,,,,,,'''''''>>>>>>>''''''')))))))>>>>>>>)))))))'''''''>>>>>>>'''''''>>>>>>>;;;;;;;-------.......===============****************************.......@@@@@@@@@@@@@@@@@@@@@@@@@@@@@@@@@@@@@@@@@@.......                                                                                                                                                                                                                                                  ",
"                                                                    ..............@@@@@@@++++++++++++++++++++++++++++#######@@@@@@@.......-------;;;;;;;,,,,,,,'''''''>>>>>>>''''''')))))))>>>>>>>)))))))'''''''>>>>>>>'''''''>>>>>>>;;;;;;;-------.......===============****************************.......@@@@@@@@@@@@@@@@@@@@@@@@@@@@@@@@@@@+++++++.......                                                                                                                                                                                                                                                  ",
"                                                                    ..............@@@@@@@++++++++++++++++++++++++++++#######@@@@@@@.......-------;;;;;;;,,,,,,,'''''''>>>>>>>''''''')))))))>>>>>>>)))))))'''''''>>>>>>>'''''''>>>>>>>;;;;;;;-------.......===============****************************.......@@@@@@@@@@@@@@@@@@@@@@@@@@@@@@@@@@@+++++++.......                                                                                                                                                                                                                                                  ",
"                                                                    ..............@@@@@@@++++++++++++++++++++++++++++#######@@@@@@@.......-------;;;;;;;,,,,,,,'''''''>>>>>>>''''''')))))))>>>>>>>)))))))'''''''>>>>>>>'''''''>>>>>>>;;;;;;;-------.......===============****************************.......@@@@@@@@@@@@@@@@@@@@@@@@@@@@@@@@@@@+++++++.......                                                                                                                                                                                                                                                  ",
"                                                                    ..............@@@@@@@++++++++++++++++++++++++++++#######@@@@@@@.......-------;;;;;;;,,,,,,,'''''''>>>>>>>''''''')))))))>>>>>>>)))))))'''''''>>>>>>>'''''''>>>>>>>;;;;;;;-------.......===============****************************.......@@@@@@@@@@@@@@@@@@@@@@@@@@@@@@@@@@@+++++++.......                                                                                                                                                                                                                                                  ",
"                                                                    ..............@@@@@@@++++++++++++++++++++++++++++#######@@@@@@@.......-------;;;;;;;,,,,,,,'''''''>>>>>>>''''''')))))))>>>>>>>)))))))'''''''>>>>>>>'''''''>>>>>>>;;;;;;;-------.......===============****************************.......@@@@@@@@@@@@@@@@@@@@@@@@@@@@@@@@@@@+++++++.......                                                                                                                                                                                                                                                  ",
"                                                                    ..............@@@@@@@++++++++++++++++++++++++++++#######@@@@@@@.......-------;;;;;;;,,,,,,,'''''''>>>>>>>''''''')))))))>>>>>>>)))))))'''''''>>>>>>>'''''''>>>>>>>;;;;;;;-------.......===============****************************.......@@@@@@@@@@@@@@@@@@@@@@@@@@@@@@@@@@@+++++++.......                                                                                                                                                                                                                                                  ",
"                                                                           ..............@@@@@@@++++++++++++++#######@@@@@@@@@@@@@@.......------->>>>>>>,,,,,,,>>>>>>>>>>>>>>!!!!!!!)))))))>>>>>>>)))))))>>>>>>>!!!!!!!>>>>>>>>>>>>>>>>>>>>>)))))))-------.......========****************************.......@@@@@@@@@@@@@@@@@@@@@@@@@@@@@@@@@@@+++++++.......                                                                                                                                                                                                                                                  ",
"                                                                           ..............@@@@@@@++++++++++++++#######@@@@@@@@@@@@@@.......------->>>>>>>,,,,,,,>>>>>>>>>>>>>>!!!!!!!)))))))>>>>>>>)))))))>>>>>>>!!!!!!!>>>>>>>>>>>>>>>>>>>>>)))))))-------.......========****************************.......@@@@@@@@@@@@@@@@@@@@@@@@@@@@++++++++++++++.......                                                                                                                                                                                                                                                  ",
"                                                                           ..............@@@@@@@++++++++++++++#######@@@@@@@@@@@@@@.......------->>>>>>>,,,,,,,>>>>>>>>>>>>>>!!!!!!!)))))))>>>>>>>)))))))>>>>>>>!!!!!!!>>>>>>>>>>>>>>>>>>>>>)))))))-------.......========****************************.......@@@@@@@@@@@@@@@@@@@@@@@@@@@@++++++++++++++.......                                                                                                                                                                                                                                                  ",
"                                                                           ..............@@@@@@@++++++++++++++#######@@@@@@@@@@@@@@.......------->>>>>>>,,,,,,,>>>>>>>>>>>>>>!!!!!!!)))))))>>>>>>>)))))))>>>>>>>!!!!!!!>>>>>>>>>>>>>>>>>>>>>)))))))-------.......========****************************.......@@@@@@@@@@@@@@@@@@@@@@@@@@@@++++++++++++++.......                                                                                                                                                                                                                                                  ",
"                                                                           ..............@@@@@@@++++++++++++++#######@@@@@@@@@@@@@@.......------->>>>>>>,,,,,,,>>>>>>>>>>>>>>!!!!!!!)))))))>>>>>>>)))))))>>>>>>>!!!!!!!>>>>>>>>>>>>>>>>>>>>>)))))))-------.......========****************************.......@@@@@@@@@@@@@@@@@@@@@@@@@@@@++++++++++++++.......                                                                                                                                                                                                                                                  ",
"                                                                           ..............@@@@@@@++++++++++++++#######@@@@@@@@@@@@@@.......------->>>>>>>,,,,,,,>>>>>>>>>>>>>>!!!!!!!)))))))>>>>>>>)))))))>>>>>>>!!!!!!!>>>>>>>>>>>>>>>>>>>>>)))))))-------.......========****************************.......@@@@@@@@@@@@@@@@@@@@@@@@@@@@++++++++++++++.......                                                                                                                                                                                                                                                  ",
"                                                                           ..............@@@@@@@++++++++++++++#######@@@@@@@@@@@@@@.......------->>>>>>>,,,,,,,>>>>>>>>>>>>>>!!!!!!!)))))))>>>>>>>)))))))>>>>>>>!!!!!!!>>>>>>>>>>>>>>>>>>>>>)))))))-------.......========****************************.......@@@@@@@@@@@@@@@@@@@@@@@@@@@@++++++++++++++.......                                                                                                                                                                                                                                                  ",
"                                                                                  .......@@@@@@@@@@@@@@+++++++#######@@@@@@@.......------->>>>>>>,,,,,,,,,,,,,,>>>>>>>>>>>>>>)))))))!!!!!!!)))))))!!!!!!!>>>>>>>>>>>>>>''''''',,,,,,,>>>>>>>)))))))-------.......=~~~~~~~~~~~~~~~~~~~~~*******.......@@@@@@@@@@@@@@@@@@@@@@@@@@@@@@@@@@@++++++++++++++.......                                                                                                                                                                                                                                                  ",
"                                                                                  .......@@@@@@@@@@@@@@+++++++#######@@@@@@@.......------->>>>>>>,,,,,,,,,,,,,,>>>>>>>>>>>>>>)))))))!!!!!!!)))))))!!!!!!!>>>>>>>>>>>>>>''''''',,,,,,,>>>>>>>)))))))-------.......=~~~~~~~~~~~~~~~~~~~~~*******.......#####################@@@@@@@+++++++++++++++++++++..............                                                                                                                                                                                                                                           ",
"                                                                                  .......@@@@@@@@@@@@@@+++++++#######@@@@@@@.......------->>>>>>>,,,,,,,,,,,,,,>>>>>>>>>>>>>>)))))))!!!!!!!)))))))!!!!!!!>>>>>>>>>>>>>>''''''',,,,,,,>>>>>>>)))))))-------.......=~~~~~~~~~~~~~~~~~~~~~*******.......#####################@@@@@@@+++++++++++++++++++++..............                                                                                                                                                                                                                                           ",
"                                                                                  .......@@@@@@@@@@@@@@+++++++#######@@@@@@@.......------->>>>>>>,,,,,,,,,,,,,,>>>>>>>>>>>>>>)))))))!!!!!!!)))))))!!!!!!!>>>>>>>>>>>>>>''''''',,,,,,,>>>>>>>)))))))-------.......=~~~~~~~~~~~~~~~~~~~~~*******.......#####################@@@@@@@+++++++++++++++++++++..............                                                                                                                                                                                                                                           ",
"                                                                                  .......@@@@@@@@@@@@@@+++++++#######@@@@@@@.......------->>>>>>>,,,,,,,,,,,,,,>>>>>>>>>>>>>>)))))))!!!!!!!)))))))!!!!!!!>>>>>>>>>>>>>>''''''',,,,,,,>>>>>>>)))))))-------.......=~~~~~~~~~~~~~~~~~~~~~*******.......#####################@@@@@@@+++++++++++++++++++++..............                                                                                                                                                                                                                                           ",
"                                                                                  .......@@@@@@@@@@@@@@+++++++#######@@@@@@@.......------->>>>>>>,,,,,,,,,,,,,,>>>>>>>>>>>>>>)))))))!!!!!!!)))))))!!!!!!!>>>>>>>>>>>>>>''''''',,,,,,,>>>>>>>)))))))-------.......=~~~~~~~~~~~~~~~~~~~~~*******.......#####################@@@@@@@+++++++++++++++++++++..............                                                                                                                                                                                                                                           ",
"                                                                                  .......@@@@@@@@@@@@@@+++++++#######@@@@@@@.......------->>>>>>>,,,,,,,,,,,,,,>>>>>>>>>>>>>>)))))))!!!!!!!)))))))!!!!!!!>>>>>>>>>>>>>>''''''',,,,,,,>>>>>>>)))))))-------.......=~~~~~~~~~~~~~~~~~~~~~*******.......#####################@@@@@@@+++++++++++++++++++++..............                                                                                                                                                                                                                                           ",
"                                                                                  ..............@@@@@@@@@@@@@@@@@@@@@@@@@@@@.......-------;;;;;;;>>>>>>>!!!!!!!,,,,,,,)))))))))))))))))))))!!!!!!!))))))))))))))!!!!!!!,,,,,,,,,,,,,,>>>>>>>)))))))-------.......~~~~~~~~~~~~~~~~~~~~~~.......@@@@@@@#####################@@@@@@@+++++++++++++++++++++..............                                                                                                                                                                                                                                           ",
"                                                                                  ..............@@@@@@@@@@@@@@@@@@@@@@@@@@@@.......-------;;;;;;;>>>>>>>!!!!!!!,,,,,,,)))))))))))))))))))))!!!!!!!))))))))))))))!!!!!!!,,,,,,,,,,,,,,>>>>>>>)))))))-------.......~~~~~~~~~~~~~~~~~~~~~~.......#######++++++++++++++++++++++++++++++++++++++++++++++++++++++++.......                                                                                                                                                                                                                                           ",
"                                                                                  ..............@@@@@@@@@@@@@@@@@@@@@@@@@@@@.......-------;;;;;;;>>>>>>>!!!!!!!,,,,,,,)))))))))))))))))))))!!!!!!!))))))))))))))!!!!!!!,,,,,,,,,,,,,,>>>>>>>)))))))-------.......~~~~~~~~~~~~~~~~~~~~~~.......#######++++++++++++++++++++++++++++++++++++++++++++++++++++++++.......                                                                                                                                                                                                                                           ",
"                                                                                  ..............@@@@@@@@@@@@@@@@@@@@@@@@@@@@.......-------;;;;;;;>>>>>>>!!!!!!!,,,,,,,)))))))))))))))))))))!!!!!!!))))))))))))))!!!!!!!,,,,,,,,,,,,,,>>>>>>>)))))))-------.......~~~~~~~~~~~~~~~~~~~~~~.......#######++++++++++++++++++++++++++++++++++++++++++++++++++++++++.......                                                                                                                                                                                                                                           ",
"                                                                                  ..............@@@@@@@@@@@@@@@@@@@@@@@@@@@@.......-------;;;;;;;>>>>>>>!!!!!!!,,,,,,,)))))))))))))))))))))!!!!!!!))))))))))))))!!!!!!!,,,,,,,,,,,,,,>>>>>>>)))))))-------.......~~~~~~~~~~~~~~~~~~~~~~.......#######++++++++++++++++++++++++++++++++++++++++++++++++++++++++.......                                                                                                                                                                                                                                           ",
"                                                                                  ..............@@@@@@@@@@@@@@@@@@@@@@@@@@@@.......-------;;;;;;;>>>>>>>!!!!!!!,,,,,,,)))))))))))))))))))))!!!!!!!))))))))))))))!!!!!!!,,,,,,,,,,,,,,>>>>>>>)))))))-------.......~~~~~~~~~~~~~~~~~~~~~~.......#######++++++++++++++++++++++++++++++++++++++++++++++++++++++++.......                                                                                                                                                                                                                                           ",
"                                                                                  ..............@@@@@@@@@@@@@@@@@@@@@@@@@@@@.......-------;;;;;;;>>>>>>>!!!!!!!,,,,,,,)))))))))))))))))))))!!!!!!!))))))))))))))!!!!!!!,,,,,,,,,,,,,,>>>>>>>)))))))-------.......~~~~~~~~~~~~~~~~~~~~~~.......#######++++++++++++++++++++++++++++++++++++++++++++++++++++++++.......                                                                                                                                                                                                                                           ",
"                                                                                         ..............@@@@@@@@@@@@@@@@@@@@@.......-------;;;;;;;>>>>>>>,,,,,,,)))))))>>>>>>>!!!!!!!)))))))>>>>>>>))))))),,,,,,,,,,,,,,!!!!!!!>>>>>>>>>>>>>>)))))))-------.......~~~~~~~~~~~~~~~.......##############++++++++++++++++++++++++++++++++++++++++++++++++++++++++.......                                                                                                                                                                                                                                           ",
"                                                                                         ..............@@@@@@@@@@@@@@@@@@@@@.......-------;;;;;;;>>>>>>>,,,,,,,)))))))>>>>>>>!!!!!!!)))))))>>>>>>>))))))),,,,,,,,,,,,,,!!!!!!!>>>>>>>>>>>>>>)))))))-------.......~~~~~~~~~~~~~~~.......+++++++++++++++++++++++++++++++++++++++++++++++++++++++++++++++++++++++++++++.......                                                                                                                                                                                                                                    ",
"                                                                                         ..............@@@@@@@@@@@@@@@@@@@@@.......-------;;;;;;;>>>>>>>,,,,,,,)))))))>>>>>>>!!!!!!!)))))))>>>>>>>))))))),,,,,,,,,,,,,,!!!!!!!>>>>>>>>>>>>>>)))))))-------.......~~~~~~~~~~~~~~~.......+++++++++++++++++++++++++++++++++++++++++++++++++++++++++++++++++++++++++++++.......                                                                                                                                                                                                                                    ",
"                                                                                         ..............@@@@@@@@@@@@@@@@@@@@@.......-------;;;;;;;>>>>>>>,,,,,,,)))))))>>>>>>>!!!!!!!)))))))>>>>>>>))))))),,,,,,,,,,,,,,!!!!!!!>>>>>>>>>>>>>>)))))))-------.......~~~~~~~~~~~~~~~.......+++++++++++++++++++++++++++++++++++++++++++++++++++++++++++++++++++++++++++++.......                                                                                                                                                                                                                                    ",
"                                                                                         ..............@@@@@@@@@@@@@@@@@@@@@.......-------;;;;;;;>>>>>>>,,,,,,,)))))))>>>>>>>!!!!!!!)))))))>>>>>>>))))))),,,,,,,,,,,,,,!!!!!!!>>>>>>>>>>>>>>)))))))-------.......~~~~~~~~~~~~~~~.......+++++++++++++++++++++++++++++++++++++++++++++++++++++++++++++++++++++++++++++.......                                                                                                                                                                                                                                    ",
"                                                                                         ..............@@@@@@@@@@@@@@@@@@@@@.......-------;;;;;;;>>>>>>>,,,,,,,)))))))>>>>>>>!!!!!!!)))))))>>>>>>>))))))),,,,,,,,,,,,,,!!!!!!!>>>>>>>>>>>>>>)))))))-------.......~~~~~~~~~~~~~~~.......+++++++++++++++++++++++++++++++++++++++++++++++++++++++++++++++++++++++++++++.......                                                                                                                                                                                                                                    ",
"                                                                                         ..............@@@@@@@@@@@@@@@@@@@@@.......-------;;;;;;;>>>>>>>,,,,,,,)))))))>>>>>>>!!!!!!!)))))))>>>>>>>))))))),,,,,,,,,,,,,,!!!!!!!>>>>>>>>>>>>>>)))))))-------.......~~~~~~~~~~~~~~~.......+++++++++++++++++++++++++++++++++++++++++++++++++++++++++++++++++++++++++++++.......                                                                                                                                                                                                                                    ",
"                                                                                                ..............@@@@@@@@@@@@@@.......-------;;;;;;;;;;;;;;>>>>>>>,,,,,,,!!!!!!!,,,,,,,)))))))!!!!!!!))))))),,,,,,,))))))))))))))>>>>>>>>>>>>>>)))))))-------......................++++++++++++++++++++++++++++++++++++++++++++++++++++++++++++++++++++++++++++++++++++.......                                                                                                                                                                                                                                    ",
"                                                                                                ..............@@@@@@@@@@@@@@.......-------;;;;;;;;;;;;;;>>>>>>>,,,,,,,!!!!!!!,,,,,,,)))))))!!!!!!!))))))),,,,,,,))))))))))))))>>>>>>>>>>>>>>)))))))-------......................++++++++++++++++++++++++++++++++++++++++++++++++++++++++++++++++++++++++++++++++++++.......                                                                                                                                                                                                                                    ",
"                                                                                                ..............@@@@@@@@@@@@@@.......-------;;;;;;;;;;;;;;>>>>>>>,,,,,,,!!!!!!!,,,,,,,)))))))!!!!!!!))))))),,,,,,,))))))))))))))>>>>>>>>>>>>>>)))))))-------......................++++++++++++++++++++++++++++++++++++++++++++++++++++++++++++++++++++++++++++++++++++.......                                                                                                                                                                                                                                    ",
"                                                                                                ..............@@@@@@@@@@@@@@.......-------;;;;;;;;;;;;;;>>>>>>>,,,,,,,!!!!!!!,,,,,,,)))))))!!!!!!!))))))),,,,,,,))))))))))))))>>>>>>>>>>>>>>)))))))-------......................++++++++++++++++++++++++++++++++++++++++++++++++++++++++++++++++++++++++++++++++++++.......                                                                                                                                                                                                                                    ",
"                                                                                                ..............@@@@@@@@@@@@@@.......-------;;;;;;;;;;;;;;>>>>>>>,,,,,,,!!!!!!!,,,,,,,)))))))!!!!!!!))))))),,,,,,,))))))))))))))>>>>>>>>>>>>>>)))))))-------......................++++++++++++++++++++++++++++++++++++++++++++++++++++++++++++++++++++++++++++++++++++.......                                                                                                                                                                                                                                    ",
"                                                                                                ..............@@@@@@@@@@@@@@.......-------;;;;;;;;;;;;;;>>>>>>>,,,,,,,!!!!!!!,,,,,,,)))))))!!!!!!!))))))),,,,,,,))))))))))))))>>>>>>>>>>>>>>)))))))-------......................++++++++++++++++++++++++++++++++++++++++++++++++++++++++++++++++++++++++++++++++++++.......                                                                                                                                                                                                                                    ",
"                                                                                                ..............@@@@@@@@@@@@@@.......-------;;;;;;;;;;;;;;>>>>>>>,,,,,,,!!!!!!!,,,,,,,)))))))!!!!!!!))))))),,,,,,,))))))))))))))>>>>>>>>>>>>>>)))))))-------......................++++++++++++++++++++++++++++++++++++++++++++++++++++++++++++++++++++++++++++++++++++.......                                                                                                                                                                                                                                    ",
"                                                                                                       ..............@@@@@@@.......--------------;;;;;;;;;;;;;;>>>>>>>)))))))!!!!!!!''''''')))))))!!!!!!!'''''''>>>>>>>)))))))>>>>>>>)))))))-------.......@@@@@@@@++++++++++++++++++++++++++++++++++++++++++++++++++++++++++++++++++++++++++++++++++++++++++++++++++.......                                                                                                                                                                                                                                    ",
"                                                                                                       ..............@@@@@@@.......--------------;;;;;;;;;;;;;;>>>>>>>)))))))!!!!!!!''''''')))))))!!!!!!!'''''''>>>>>>>)))))))>>>>>>>)))))))-------.......@@@@@@@@+++++++++++++++++++++++++++++++++++++++++++++++++++++++++++++++++++++++++++++++++++++++++++++++++++++++++..............                                                                                                                                                                                                                      ",
"                                                                                                       ..............@@@@@@@.......--------------;;;;;;;;;;;;;;>>>>>>>)))))))!!!!!!!''''''')))))))!!!!!!!'''''''>>>>>>>)))))))>>>>>>>)))))))-------.......@@@@@@@@+++++++++++++++++++++++++++++++++++++++++++++++++++++++++++++++++++++++++++++++++++++++++++++++++++++++++..............                                                                                                                                                                                                                      ",
"                                                                                                       ..............@@@@@@@.......--------------;;;;;;;;;;;;;;>>>>>>>)))))))!!!!!!!''''''')))))))!!!!!!!'''''''>>>>>>>)))))))>>>>>>>)))))))-------.......@@@@@@@@+++++++++++++++++++++++++++++++++++++++++++++++++++++++++++++++++++++++++++++++++++++++++++++++++++++++++..............                                                                                                                                                                                                                      ",
"                                                                                                       ..............@@@@@@@.......--------------;;;;;;;;;;;;;;>>>>>>>)))))))!!!!!!!''''''')))))))!!!!!!!'''''''>>>>>>>)))))))>>>>>>>)))))))-------.......@@@@@@@@+++++++++++++++++++++++++++++++++++++++++++++++++++++++++++++++++++++++++++++++++++++++++++++++++++++++++..............                                                                                                                                                                                                                      ",
"                                                                                                       ..............@@@@@@@.......--------------;;;;;;;;;;;;;;>>>>>>>)))))))!!!!!!!''''''')))))))!!!!!!!'''''''>>>>>>>)))))))>>>>>>>)))))))-------.......@@@@@@@@+++++++++++++++++++++++++++++++++++++++++++++++++++++++++++++++++++++++++++++++++++++++++++++++++++++++++..............                                                                                                                                                                                                                      ",
"                                                                                                       ..............@@@@@@@.......--------------;;;;;;;;;;;;;;>>>>>>>)))))))!!!!!!!''''''')))))))!!!!!!!'''''''>>>>>>>)))))))>>>>>>>)))))))-------.......@@@@@@@@+++++++++++++++++++++++++++++++++++++++++++++++++++++++++++++++++++++++++++++++++++++++++++++++++++++++++..............                                                                                                                                                                                                                      ",
"                                                                                                              ..............@@@@@@@.......--------------;;;;;;;>>>>>>>,,,,,,,,,,,,,,,,,,,,,'''''''''''''',,,,,,,,,,,,,,>>>>>>>>>>>>>>)))))))-------.......+++++++++++++++++++++++++++++++++++++++++++++++++++++++++++++++++++++++++++++++++++++++++++++++++++++++++++++++++..............                                                                                                                                                                                                                      ",
"                                                                                                              ..............@@@@@@@.......--------------;;;;;;;>>>>>>>,,,,,,,,,,,,,,,,,,,,,'''''''''''''',,,,,,,,,,,,,,>>>>>>>>>>>>>>)))))))-------.......++++++++++++++++++++++++++++++++++++++++++++++++++++++++++++++++++++++++++++++++++++++++++++++++++++++++++++++++++++++++..............                                                                                                                                                                                                               ",
"                                                                                                              ..............@@@@@@@.......--------------;;;;;;;>>>>>>>,,,,,,,,,,,,,,,,,,,,,'''''''''''''',,,,,,,,,,,,,,>>>>>>>>>>>>>>)))))))-------.......++++++++++++++++++++++++++++++++++++++++++++++++++++++++++++++++++++++++++++++++++++++++++++++++++++++++++++++++++++++++..............                                                                                                                                                                                                               ",
"                                                                                                              ..............@@@@@@@.......--------------;;;;;;;>>>>>>>,,,,,,,,,,,,,,,,,,,,,'''''''''''''',,,,,,,,,,,,,,>>>>>>>>>>>>>>)))))))-------.......++++++++++++++++++++++++++++++++++++++++++++++++++++++++++++++++++++++++++++++++++++++++++++++++++++++++++++++++++++++++..............                                                                                                                                                                                                               ",
"                                                                                                              ..............@@@@@@@.......--------------;;;;;;;>>>>>>>,,,,,,,,,,,,,,,,,,,,,'''''''''''''',,,,,,,,,,,,,,>>>>>>>>>>>>>>)))))))-------.......++++++++++++++++++++++++++++++++++++++++++++++++++++++++++++++++++++++++++++++++++++++++++++++++++++++++++++++++++++++++..............                                                                                                                                                                                                               ",
"                                                                                                              ..............@@@@@@@.......--------------;;;;;;;>>>>>>>,,,,,,,,,,,,,,,,,,,,,'''''''''''''',,,,,,,,,,,,,,>>>>>>>>>>>>>>)))))))-------.......++++++++++++++++++++++++++++++++++++++++++++++++++++++++++++++++++++++++++++++++++++++++++++++++++++++++++++++++++++++++..............                                                                                                                                                                                                               ",
"                                                                                                              ..............@@@@@@@.......--------------;;;;;;;>>>>>>>,,,,,,,,,,,,,,,,,,,,,'''''''''''''',,,,,,,,,,,,,,>>>>>>>>>>>>>>)))))))-------.......++++++++++++++++++++++++++++++++++++++++++++++++++++++++++++++++++++++++++++++++++++++++++++++++++++++++++++++++++++++++..............                                                                                                                                                                                                               ",
"                                                                                                                     ..............@@@@@@@.......-------;;;;;;;;;;;;;;>>>>>>>>>>>>>>,,,,,,,,,,,,,,,,,,,,,,,,,,,,>>>>>>>>>>>>>>)))))))-------.......+++++++++++++++++++++++++++++++++++++++++++++++++++++++++++++++++++++++++++++++++++++++++++++++++++++++++++++++++++++++++++++++..............                                                                                                                                                                                                               ",
"                                                                                                                     ..............@@@@@@@.......-------;;;;;;;;;;;;;;>>>>>>>>>>>>>>,,,,,,,,,,,,,,,,,,,,,,,,,,,,>>>>>>>>>>>>>>)))))))-------.......++++++++++++++++++++++++++++++++++++++++++++++++++++++++++++++++++++++++++++++++++++++++++++++++++++++++++++++++++++++++++++++++++++++..............                                                                                                                                                                                                        ",
"                                                                                                                     ..............@@@@@@@.......-------;;;;;;;;;;;;;;>>>>>>>>>>>>>>,,,,,,,,,,,,,,,,,,,,,,,,,,,,>>>>>>>>>>>>>>)))))))-------.......++++++++++++++++++++++++++++++++++++++++++++++++++++++++++++++++++++++++++++++++++++++++++++++++++++++++++++++++++++++++++++++++++++++..............                                                                                                                                                                                                        ",
"                                                                                                                     ..............@@@@@@@.......-------;;;;;;;;;;;;;;>>>>>>>>>>>>>>,,,,,,,,,,,,,,,,,,,,,,,,,,,,>>>>>>>>>>>>>>)))))))-------.......++++++++++++++++++++++++++++++++++++++++++++++++++++++++++++++++++++++++++++++++++++++++++++++++++++++++++++++++++++++++++++++++++++++..............                                                                                                                                                                                                        ",
"                                                                                                                     ..............@@@@@@@.......-------;;;;;;;;;;;;;;>>>>>>>>>>>>>>,,,,,,,,,,,,,,,,,,,,,,,,,,,,>>>>>>>>>>>>>>)))))))-------.......++++++++++++++++++++++++++++++++++++++++++++++++++++++++++++++++++++++++++++++++++++++++++++++++++++++++++++++++++++++++++++++++++++++..............                                                                                                                                                                                                        ",
"                                                                                                                     ..............@@@@@@@.......-------;;;;;;;;;;;;;;>>>>>>>>>>>>>>,,,,,,,,,,,,,,,,,,,,,,,,,,,,>>>>>>>>>>>>>>)))))))-------.......++++++++++++++++++++++++++++++++++++++++++++++++++++++++++++++++++++++++++++++++++++++++++++++++++++++++++++++++++++++++++++++++++++++..............                                                                                                                                                                                                        ",
"                                                                                                                     ..............@@@@@@@.......-------;;;;;;;;;;;;;;>>>>>>>>>>>>>>,,,,,,,,,,,,,,,,,,,,,,,,,,,,>>>>>>>>>>>>>>)))))))-------.......++++++++++++++++++++++++++++++++++++++++++++++++++++++++++++++++++++++++++++++++++++++++++++++++++++++++++++++++++++++++++++++++++++++..............                                                                                                                                                                                                        ",
"                                                                                                                            ..............@@@@@@@.......-------;;;;;;;)))))))>>>>>>>>>>>>>>>>>>>>>>>>>>>>)))))))))))))))))))))-------.......++++++++++++++##############+++++++++++++++++++++++++++++++++++++++++++++++++++++++++++++++++++++++++++++++++++++++++++++++++++++++++++++++++..............                                                                                                                                                                                                        ",
"                                                                                                                            ..............@@@@@@@.......-------;;;;;;;)))))))>>>>>>>>>>>>>>>>>>>>>>>>>>>>)))))))))))))))))))))-------.......++++++++++++++##############++++++++++++++++++++++++++++++++++++++++++++++++++++++++++++++++++++++++++++++++++++++++++++++++++++++++++++++++++++++++..............                                                                                                                                                                                                 ",
"                                                                                                                            ..............@@@@@@@.......-------;;;;;;;)))))))>>>>>>>>>>>>>>>>>>>>>>>>>>>>)))))))))))))))))))))-------.......++++++++++++++##############++++++++++++++++++++++++++++++++++++++++++++++++++++++++++++++++++++++++++++++++++++++++++++++++++++++++++++++++++++++++..............                                                                                                                                                                                                 ",
"                                                                                                                            ..............@@@@@@@.......-------;;;;;;;)))))))>>>>>>>>>>>>>>>>>>>>>>>>>>>>)))))))))))))))))))))-------.......++++++++++++++##############++++++++++++++++++++++++++++++++++++++++++++++++++++++++++++++++++++++++++++++++++++++++++++++++++++++++++++++++++++++++..............                                                                                                                                                                                                 ",
"                                                                                                                            ..............@@@@@@@.......-------;;;;;;;)))))))>>>>>>>>>>>>>>>>>>>>>>>>>>>>)))))))))))))))))))))-------.......++++++++++++++##############++++++++++++++++++++++++++++++++++++++++++++++++++++++++++++++++++++++++++++++++++++++++++++++++++++++++++++++++++++++++..............                                                                                                                                                                                                 ",
"                                                                                                                            ..............@@@@@@@.......-------;;;;;;;)))))))>>>>>>>>>>>>>>>>>>>>>>>>>>>>)))))))))))))))))))))-------.......++++++++++++++##############++++++++++++++++++++++++++++++++++++++++++++++++++++++++++++++++++++++++++++++++++++++++++++++++++++++++++++++++++++++++..............                                                                                                                                                                                                 ",
"                                                                                                                            ..............@@@@@@@.......-------;;;;;;;)))))))>>>>>>>>>>>>>>>>>>>>>>>>>>>>)))))))))))))))))))))-------.......++++++++++++++##############++++++++++++++++++++++++++++++++++++++++++++++++++++++++++++++++++++++++++++++++++++++++++++++++++++++++++++++++++++++++..............                                                                                                                                                                                                 ",
"                                                                                                                                   ..............@@@@@@@.......-------))))))))))))))))))))))))))))))))))))))))))--------------..............++++++++++++++#######+++++++#######+++++++++++++++++++++++++++++++++++++++++++++++++++++++++++++++++++++++++++++++++++++++++++++++++++++++++++++++++..............                                                                                                                                                                                                 ",
"                                                                                                                                   ..............@@@@@@@.......-------))))))))))))))))))))))))))))))))))))))))))--------------..............+++++++##############+++++++#######++++++++++++++++++++++++++++++++++++++++++++++++++++++++++++++++++++++++++++++++++++++++++++++++++++++++++++++++++++++++.......                                                                                                                                                                                                 ",
"                                                                                                                                   ..............@@@@@@@.......-------))))))))))))))))))))))))))))))))))))))))))--------------..............+++++++##############+++++++#######++++++++++++++++++++++++++++++++++++++++++++++++++++++++++++++++++++++++++++++++++++++++++++++++++++++++++++++++++++++++.......                                                                                                                                                                                                 ",
"                                                                                                                                   ..............@@@@@@@.......-------))))))))))))))))))))))))))))))))))))))))))--------------..............+++++++##############+++++++#######++++++++++++++++++++++++++++++++++++++++++++++++++++++++++++++++++++++++++++++++++++++++++++++++++++++++++++++++++++++++.......                                                                                                                                                                                                 ",
"                                                                                                                                   ..............@@@@@@@.......-------))))))))))))))))))))))))))))))))))))))))))--------------..............+++++++##############+++++++#######++++++++++++++++++++++++++++++++++++++++++++++++++++++++++++++++++++++++++++++++++++++++++++++++++++++++++++++++++++++++.......                                                                                                                                                                                                 ",
"                                                                                                                                   ..............@@@@@@@.......-------))))))))))))))))))))))))))))))))))))))))))--------------..............+++++++##############+++++++#######++++++++++++++++++++++++++++++++++++++++++++++++++++++++++++++++++++++++++++++++++++++++++++++++++++++++++++++++++++++++.......                                                                                                                                                                                                 ",
"                                                                                                                                   ..............@@@@@@@.......-------))))))))))))))))))))))))))))))))))))))))))--------------..............+++++++##############+++++++#######++++++++++++++++++++++++++++++++++++++++++++++++++++++++++++++++++++++++++++++++++++++++++++++++++++++++++++++++++++++++.......                                                                                                                                                                                                 ",
"                                                                                                                                          ............................------------------------------------------.....................@@@@@@@+++++++#######++++++++++++++##############+++++++++++++++++++++++++++++++++++++++++++++++++++++++++++++++++++++++++++++++++++++++++++++++++++++++++++++++++.......                                                                                                                                                                                                 ",
"                                                                                                                                          ............................------------------------------------------.....................@@@@@@@+++++++#######++++++++++++++##############++++++++++++++++++++++++++++++++++++++++++++++++++++++++++++++++++++++++++++++++++++++++++++++++++++++++++++++++++++++++.......                                                                                                                                                                                          ",
"                                                                                                                                          ............................------------------------------------------.....................@@@@@@@+++++++#######++++++++++++++##############++++++++++++++++++++++++++++++++++++++++++++++++++++++++++++++++++++++++++++++++++++++++++++++++++++++++++++++++++++++++.......                                                                                                                                                                                          ",
"                                                                                                                                          ............................------------------------------------------.....................@@@@@@@+++++++#######++++++++++++++##############++++++++++++++++++++++++++++++++++++++++++++++++++++++++++++++++++++++++++++++++++++++++++++++++++++++++++++++++++++++++.......                                                                                                                                                                                          ",
"                                                                                                                                          ............................------------------------------------------.....................@@@@@@@+++++++#######++++++++++++++##############++++++++++++++++++++++++++++++++++++++++++++++++++++++++++++++++++++++++++++++++++++++++++++++++++++++++++++++++++++++++.......                                                                                                                                                                                          ",
"                                                                                                                                          ............................------------------------------------------.....................@@@@@@@+++++++#######++++++++++++++##############++++++++++++++++++++++++++++++++++++++++++++++++++++++++++++++++++++++++++++++++++++++++++++++++++++++++++++++++++++++++.......                                                                                                                                                                                          ",
"                                                                                                                                          ............................------------------------------------------.....................@@@@@@@+++++++#######++++++++++++++##############++++++++++++++++++++++++++++++++++++++++++++++++++++++++++++++++++++++++++++++++++++++++++++++++++++++++++++++++++++++++.......                                                                                                                                                                                          ",
"                                                                                                                                                        ........................................................@@@@@@@.......@@@@@@@@@@@@@@+++++++++++++++++++++++++++++++++++##############+++++++++++++++++++++++++++++++++++++++++++++++++++++++++++++++++++++++++++++++++++++++++++++++++++++++++++++++++.......                                                                                                                                                                                          ",
"                                                                                                                                                        ........................................................@@@@@@@.......@@@@@@@@@@@@@@+++++++++++++++++++++++++++++++++++##############+++++++++++++++++++++++++++++++++++++++++++++++++++++++++++++++++++++++++++++++++++++++++++++++++++++++++++++++++..............                                                                                                                                                                                   ",
"                                                                                                                                                        ........................................................@@@@@@@.......@@@@@@@@@@@@@@+++++++++++++++++++++++++++++++++++##############+++++++++++++++++++++++++++++++++++++++++++++++++++++++++++++++++++++++++++++++++++++++++++++++++++++++++++++++++..............                                                                                                                                                                                   ",
"                                                                                                                                                        ........................................................@@@@@@@.......@@@@@@@@@@@@@@+++++++++++++++++++++++++++++++++++##############+++++++++++++++++++++++++++++++++++++++++++++++++++++++++++++++++++++++++++++++++++++++++++++++++++++++++++++++++..............                                                                                                                                                                                   ",
"                                                                                                                                                        ........................................................@@@@@@@.......@@@@@@@@@@@@@@+++++++++++++++++++++++++++++++++++##############+++++++++++++++++++++++++++++++++++++++++++++++++++++++++++++++++++++++++++++++++++++++++++++++++++++++++++++++++..............                                                                                                                                                                                   ",
"                                                                                                                                                        ........................................................@@@@@@@.......@@@@@@@@@@@@@@+++++++++++++++++++++++++++++++++++##############+++++++++++++++++++++++++++++++++++++++++++++++++++++++++++++++++++++++++++++++++++++++++++++++++++++++++++++++++..............                                                                                                                                                                                   ",
"                                                                                                                                                        ........................................................@@@@@@@.......@@@@@@@@@@@@@@+++++++++++++++++++++++++++++++++++##############+++++++++++++++++++++++++++++++++++++++++++++++++++++++++++++++++++++++++++++++++++++++++++++++++++++++++++++++++..............                                                                                                                                                                                   ",
"                                                                                                                                                               ..............@@@@@@@@@@@@@@@@@@@@@@@@@@@@@@@@@@@@@@@@@@@@@@@@@@@@@@@@++++++++++++++++++++++++++++++++++++++++++@@@@@@@##############++++++++++++++++++++++++++++++++++++++++++++++++++++++++++++++++++++++++++++++++++++++++++++++++++++++++++..............                                                                                                                                                                                   ",
"                                                                                                                                                               ..............@@@@@@@@@@@@@@@@@@@@@@@@@@@@@@@@@@@@@@@@@@@@@@@@@@@@@@@@++++++++++++++++++++++++++++++++++++++++++@@@@@@@##############+++++++++++++++++++++++++++++++++++++++++++++++++++++++++++++++++++++++++++++++++++++++++++++++++++++++++++++++++..............                                                                                                                                                                            ",
"                                                                                                                                                               ..............@@@@@@@@@@@@@@@@@@@@@@@@@@@@@@@@@@@@@@@@@@@@@@@@@@@@@@@@++++++++++++++++++++++++++++++++++++++++++@@@@@@@##############+++++++++++++++++++++++++++++++++++++++++++++++++++++++++++++++++++++++++++++++++++++++++++++++++++++++++++++++++..............                                                                                                                                                                            ",
"                                                                                                                                                               ..............@@@@@@@@@@@@@@@@@@@@@@@@@@@@@@@@@@@@@@@@@@@@@@@@@@@@@@@@++++++++++++++++++++++++++++++++++++++++++@@@@@@@##############+++++++++++++++++++++++++++++++++++++++++++++++++++++++++++++++++++++++++++++++++++++++++++++++++++++++++++++++++..............                                                                                                                                                                            ",
"                                                                                                                                                               ..............@@@@@@@@@@@@@@@@@@@@@@@@@@@@@@@@@@@@@@@@@@@@@@@@@@@@@@@@++++++++++++++++++++++++++++++++++++++++++@@@@@@@##############+++++++++++++++++++++++++++++++++++++++++++++++++++++++++++++++++++++++++++++++++++++++++++++++++++++++++++++++++..............                                                                                                                                                                            ",
"                                                                                                                                                               ..............@@@@@@@@@@@@@@@@@@@@@@@@@@@@@@@@@@@@@@@@@@@@@@@@@@@@@@@@++++++++++++++++++++++++++++++++++++++++++@@@@@@@##############+++++++++++++++++++++++++++++++++++++++++++++++++++++++++++++++++++++++++++++++++++++++++++++++++++++++++++++++++..............                                                                                                                                                                            ",
"                                                                                                                                                               ..............@@@@@@@@@@@@@@@@@@@@@@@@@@@@@@@@@@@@@@@@@@@@@@@@@@@@@@@@++++++++++++++++++++++++++++++++++++++++++@@@@@@@##############+++++++++++++++++++++++++++++++++++++++++++++++++++++++++++++++++++++++++++++++++++++++++++++++++++++++++++++++++..............                                                                                                                                                                            ",
"                                                                                                                                                                      ............................@@@@@@@@@@@@@@@@@@@@@@@@@@@@@@@@@@@+++++++++++++++++++++++++++++++++++++++++++++++++@@@@@@@##############++++++++++++++++++++++++++++++++++++++++++++++++++++++++++++++++++++++++++++++++++++++++++++++++++++++++++..............                                                                                                                                                                            ",
"                                                                                                                                                                      ............................@@@@@@@@@@@@@@@@@@@@@@@@@@@@@@@@@@@+++++++++++++++++++++++++++++++++++++++++++++++++@@@@@@@##############+++++++++++++++++++++++++++++++++++++++++++++++++++++++++++++++++++++++++++++++++++++++++++++++++++++++++++++++++..............                                                                                                                                                                     ",
"                                                                                                                                                                      ............................@@@@@@@@@@@@@@@@@@@@@@@@@@@@@@@@@@@+++++++++++++++++++++++++++++++++++++++++++++++++@@@@@@@##############+++++++++++++++++++++++++++++++++++++++++++++++++++++++++++++++++++++++++++++++++++++++++++++++++++++++++++++++++..............                                                                                                                                                                     ",
"                                                                                                                                                                      ............................@@@@@@@@@@@@@@@@@@@@@@@@@@@@@@@@@@@+++++++++++++++++++++++++++++++++++++++++++++++++@@@@@@@##############+++++++++++++++++++++++++++++++++++++++++++++++++++++++++++++++++++++++++++++++++++++++++++++++++++++++++++++++++..............                                                                                                                                                                     ",
"                                                                                                                                                                      ............................@@@@@@@@@@@@@@@@@@@@@@@@@@@@@@@@@@@+++++++++++++++++++++++++++++++++++++++++++++++++@@@@@@@##############+++++++++++++++++++++++++++++++++++++++++++++++++++++++++++++++++++++++++++++++++++++++++++++++++++++++++++++++++..............                                                                                                                                                                     ",
"                                                                                                                                                                      ............................@@@@@@@@@@@@@@@@@@@@@@@@@@@@@@@@@@@+++++++++++++++++++++++++++++++++++++++++++++++++@@@@@@@##############+++++++++++++++++++++++++++++++++++++++++++++++++++++++++++++++++++++++++++++++++++++++++++++++++++++++++++++++++..............                                                                                                                                                                     ",
"                                                                                                                                                                      ............................@@@@@@@@@@@@@@@@@@@@@@@@@@@@@@@@@@@+++++++++++++++++++++++++++++++++++++++++++++++++@@@@@@@##############+++++++++++++++++++++++++++++++++++++++++++++++++++++++++++++++++++++++++++++++++++++++++++++++++++++++++++++++++..............                                                                                                                                                                     ",
"                                                                                                                                                                                           .....................@@@@@@@@@@@@@@@@@@@@@++++++++++++++++++++++++++++++++++++++++++++++++++++++++@@@@@@@#######+++++++++++++++++++++++++++++++++++++++++++++++++++++++++++++++++++++++++++++++++++++++++++++++++++++++++++++++++..............                                                                                                                                                                     ",
"                                                                                                                                                                                           .....................@@@@@@@@@@@@@@@@@@@@@++++++++++++++++++++++++++++++++++++++++++++++++++++++++@@@@@@@#######++++++++++++++++++++++++++++++++++++++++++++++++++++++++++++++++++++++++++++++++++++++++++++++++++++++++++++++++++++++++..............                                                                                                                                                              ",
"                                                                                                                                                                                           .....................@@@@@@@@@@@@@@@@@@@@@++++++++++++++++++++++++++++++++++++++++++++++++++++++++@@@@@@@#######++++++++++++++++++++++++++++++++++++++++++++++++++++++++++++++++++++++++++++++++++++++++++++++++++++++++++++++++++++++++..............                                                                                                                                                              ",
"                                                                                                                                                                                           .....................@@@@@@@@@@@@@@@@@@@@@++++++++++++++++++++++++++++++++++++++++++++++++++++++++@@@@@@@#######++++++++++++++++++++++++++++++++++++++++++++++++++++++++++++++++++++++++++++++++++++++++++++++++++++++++++++++++++++++++..............                                                                                                                                                              ",
"                                                                                                                                                                                           .....................@@@@@@@@@@@@@@@@@@@@@++++++++++++++++++++++++++++++++++++++++++++++++++++++++@@@@@@@#######++++++++++++++++++++++++++++++++++++++++++++++++++++++++++++++++++++++++++++++++++++++++++++++++++++++++++++++++++++++++..............                                                                                                                                                              ",
"                                                                                                                                                                                           .....................@@@@@@@@@@@@@@@@@@@@@++++++++++++++++++++++++++++++++++++++++++++++++++++++++@@@@@@@#######++++++++++++++++++++++++++++++++++++++++++++++++++++++++++++++++++++++++++++++++++++++++++++++++++++++++++++++++++++++++..............                                                                                                                                                              ",
"                                                                                                                                                                                           .....................@@@@@@@@@@@@@@@@@@@@@++++++++++++++++++++++++++++++++++++++++++++++++++++++++@@@@@@@#######++++++++++++++++++++++++++++++++++++++++++++++++++++++++++++++++++++++++++++++++++++++++++++++++++++++++++++++++++++++++..............                                                                                                                                                              ",
"                                                                                                                                                                                                         .......@@@@@@@@@@@@@@+++++++++++++++++++++++++++++++++++++++++++++++++++++++++++++++@@@@@@@##############+++++++++++++++++++++++++++++++++++++++++++++++++++++++++++++++++++++++++++++++++++++++++++++++++++++++++++++++++..............                                                                                                                                                              ",
"                                                                                                                                                                                                         .......@@@@@@@@@@@@@@+++++++++++++++++++++++++++++++++++++++++++++++++++++++++++++++@@@@@@@##############++++++++++++++++++++++++++++++++++++++++++++++++++++++++++++++++++++++++++++++++++++++++++++++++++++++++++++++++++++++++..............                                                                                                                                                       ",
"                                                                                                                                                                                                         .......@@@@@@@@@@@@@@+++++++++++++++++++++++++++++++++++++++++++++++++++++++++++++++@@@@@@@##############++++++++++++++++++++++++++++++++++++++++++++++++++++++++++++++++++++++++++++++++++++++++++++++++++++++++++++++++++++++++..............                                                                                                                                                       ",
"                                                                                                                                                                                                         .......@@@@@@@@@@@@@@+++++++++++++++++++++++++++++++++++++++++++++++++++++++++++++++@@@@@@@##############++++++++++++++++++++++++++++++++++++++++++++++++++++++++++++++++++++++++++++++++++++++++++++++++++++++++++++++++++++++++..............                                                                                                                                                       ",
"                                                                                                                                                                                                         .......@@@@@@@@@@@@@@+++++++++++++++++++++++++++++++++++++++++++++++++++++++++++++++@@@@@@@##############++++++++++++++++++++++++++++++++++++++++++++++++++++++++++++++++++++++++++++++++++++++++++++++++++++++++++++++++++++++++..............                                                                                                                                                       ",
"                                                                                                                                                                                                         .......@@@@@@@@@@@@@@+++++++++++++++++++++++++++++++++++++++++++++++++++++++++++++++@@@@@@@##############++++++++++++++++++++++++++++++++++++++++++++++++++++++++++++++++++++++++++++++++++++++++++++++++++++++++++++++++++++++++..............                                                                                                                                                       ",
"                                                                                                                                                                                                         .......@@@@@@@@@@@@@@+++++++++++++++++++++++++++++++++++++++++++++++++++++++++++++++@@@@@@@##############++++++++++++++++++++++++++++++++++++++++++++++++++++++++++++++++++++++++++++++++++++++++++++++++++++++++++++++++++++++++..............                                                                                                                                                       ",
"                                                                                                                                                                                                         ..............@@@@@@@@@@@@@@@@@@@@@++++++++++++++++++++++++++++++++++++++++++++++++++++++++@@@@@@@#######++++++++++++++++++++++++++++++++++++++++++++++++++++++++++++++++++++++++++++++++++++++++++++++++++++++++++++++++++++++++..............                                                                                                                                                       ",
"                                                                                                                                                                                                         ..............@@@@@@@@@@@@@@@@@@@@@++++++++++++++++++++++++++++++++++++++++++++++++++++++++@@@@@@@#######+++++++++++++++++++++++++++++++++++++++++++++++++++++++++++++++++++++++++++++++++++++++++++++++++++++++++++++++++++++++++++++++..............                                                                                                                                                ",
"                                                                                                                                                                                                         ..............@@@@@@@@@@@@@@@@@@@@@++++++++++++++++++++++++++++++++++++++++++++++++++++++++@@@@@@@#######+++++++++++++++++++++++++++++++++++++++++++++++++++++++++++++++++++++++++++++++++++++++++++++++++++++++++++++++++++++++++++++++..............                                                                                                                                                ",
"                                                                                                                                                                                                         ..............@@@@@@@@@@@@@@@@@@@@@++++++++++++++++++++++++++++++++++++++++++++++++++++++++@@@@@@@#######+++++++++++++++++++++++++++++++++++++++++++++++++++++++++++++++++++++++++++++++++++++++++++++++++++++++++++++++++++++++++++++++..............                                                                                                                                                ",
"                                                                                                                                                                                                         ..............@@@@@@@@@@@@@@@@@@@@@++++++++++++++++++++++++++++++++++++++++++++++++++++++++@@@@@@@#######+++++++++++++++++++++++++++++++++++++++++++++++++++++++++++++++++++++++++++++++++++++++++++++++++++++++++++++++++++++++++++++++..............                                                                                                                                                ",
"                                                                                                                                                                                                         ..............@@@@@@@@@@@@@@@@@@@@@++++++++++++++++++++++++++++++++++++++++++++++++++++++++@@@@@@@#######+++++++++++++++++++++++++++++++++++++++++++++++++++++++++++++++++++++++++++++++++++++++++++++++++++++++++++++++++++++++++++++++..............                                                                                                                                                ",
"                                                                                                                                                                                                         ..............@@@@@@@@@@@@@@@@@@@@@++++++++++++++++++++++++++++++++++++++++++++++++++++++++@@@@@@@#######+++++++++++++++++++++++++++++++++++++++++++++++++++++++++++++++++++++++++++++++++++++++++++++++++++++++++++++++++++++++++++++++..............                                                                                                                                                ",
"                                                                                                                                                                                                                .......@@@@@@@@@@@@@@@@@@@@@@@@@@@@++++++++++++++++++++++++++++++++++++++++++++++++++++++++@@@@@@@+++++++++++++++++++++++++++++++++++++++++++++++++++++++++++++++++++++++++++++++++++++++++++++++++++++++++++++++++++++++++++++++..............                                                                                                                                                ",
"                                                                                                                                                                                                                .......@@@@@@@@@@@@@@@@@@@@@@@@@@@@++++++++++++++++++++++++++++++++++++++++++++++++++++++++@@@@@@@++++++++++++++++++++++++++++++++++++++++++++++++++++++++++++++++++++++++++++++++++++++++++++++++++++++++++++++++++++++++++++++++++++++..............                                                                                                                                         ",
"                                                                                                                                                                                                                .......@@@@@@@@@@@@@@@@@@@@@@@@@@@@++++++++++++++++++++++++++++++++++++++++++++++++++++++++@@@@@@@++++++++++++++++++++++++++++++++++++++++++++++++++++++++++++++++++++++++++++++++++++++++++++++++++++++++++++++++++++++++++++++++++++++..............                                                                                                                                         ",
"                                                                                                                                                                                                                .......@@@@@@@@@@@@@@@@@@@@@@@@@@@@++++++++++++++++++++++++++++++++++++++++++++++++++++++++@@@@@@@++++++++++++++++++++++++++++++++++++++++++++++++++++++++++++++++++++++++++++++++++++++++++++++++++++++++++++++++++++++++++++++++++++++..............                                                                                                                                         ",
"                                                                                                                                                                                                                .......@@@@@@@@@@@@@@@@@@@@@@@@@@@@++++++++++++++++++++++++++++++++++++++++++++++++++++++++@@@@@@@++++++++++++++++++++++++++++++++++++++++++++++++++++++++++++++++++++++++++++++++++++++++++++++++++++++++++++++++++++++++++++++++++++++..............                                                                                                                                         ",
"                                                                                                                                                                                                                .......@@@@@@@@@@@@@@@@@@@@@@@@@@@@++++++++++++++++++++++++++++++++++++++++++++++++++++++++@@@@@@@++++++++++++++++++++++++++++++++++++++++++++++++++++++++++++++++++++++++++++++++++++++++++++++++++++++++++++++++++++++++++++++++++++++..............                                                                                                                                         ",
"                                                                                                                                                                                                                .......@@@@@@@@@@@@@@@@@@@@@@@@@@@@++++++++++++++++++++++++++++++++++++++++++++++++++++++++@@@@@@@++++++++++++++++++++++++++++++++++++++++++++++++++++++++++++++++++++++++++++++++++++++++++++++++++++++++++++++++++++++++++++++++++++++..............                                                                                                                                         ",
"                                                                                                                                                                                                                .....................@@@@@@@@@@@@@@@@@@@@@++++++++++++++++++++++++++++++++++++++++++++++++++++++++++++++++++++++++++++++++++++++++++++++++++++++++++++++++++++++++++++++++++++++++++++++++++++++++++++++++++++++++++++++++++++++++++++++..............                                                                                                                                         ",
"                                                                                                                                                                                                                .....................@@@@@@@@@@@@@@@@@@@@@+++++++++++++++++++++++++++++++++++++++++++++++++++++++++++++++++++++++++++++++++++++++++++++++++++++++++++++++++++++++++++++++++++++++++++++++++++++++++++++++++++++++++++++++++++++++++++++++++++++.....................                                                                                                                           ",
"                                                                                                                                                                                                                .....................@@@@@@@@@@@@@@@@@@@@@+++++++++++++++++++++++++++++++++++++++++++++++++++++++++++++++++++++++++++++++++++++++++++++++++++++++++++++++++++++++++++++++++++++++++++++++++++++++++++++++++++++++++++++++++++++++++++++++++++++.....................                                                                                                                           ",
"                                                                                                                                                                                                                .....................@@@@@@@@@@@@@@@@@@@@@+++++++++++++++++++++++++++++++++++++++++++++++++++++++++++++++++++++++++++++++++++++++++++++++++++++++++++++++++++++++++++++++++++++++++++++++++++++++++++++++++++++++++++++++++++++++++++++++++++++.....................                                                                                                                           ",
"                                                                                                                                                                                                                .....................@@@@@@@@@@@@@@@@@@@@@+++++++++++++++++++++++++++++++++++++++++++++++++++++++++++++++++++++++++++++++++++++++++++++++++++++++++++++++++++++++++++++++++++++++++++++++++++++++++++++++++++++++++++++++++++++++++++++++++++++.....................                                                                                                                           ",
"                                                                                                                                                                                                                .....................@@@@@@@@@@@@@@@@@@@@@+++++++++++++++++++++++++++++++++++++++++++++++++++++++++++++++++++++++++++++++++++++++++++++++++++++++++++++++++++++++++++++++++++++++++++++++++++++++++++++++++++++++++++++++++++++++++++++++++++++.....................                                                                                                                           ",
"                                                                                                                                                                                                                .....................@@@@@@@@@@@@@@@@@@@@@+++++++++++++++++++++++++++++++++++++++++++++++++++++++++++++++++++++++++++++++++++++++++++++++++++++++++++++++++++++++++++++++++++++++++++++++++++++++++++++++++++++++++++++++++++++++++++++++++++++.....................                                                                                                                           ",
"                                                                                                                                                                                                                              .......@@@@@@@@@@@@@@@@@@@@@@@@@@@@++++++++++++++++++++++++++++++++++++++++++++++++++++++++++++++++++++++++++++++++++++++++++++++++++++++++++++++++++++++++++++++++++++++++++++++++++++++++++++++++++++++++++++++++++++++++++++++.....................                                                                                                                           ",
"                                                                                                                                                                                                                              .......@@@@@@@@@@@@@@@@@@@@@@@@@@@@++++++++++++++++++++++++++++++++++++++++++++++++++++++++++++++++++++++++++++++++++++++++++++++++++++++++++++++++++++++++++++++++++++++++++++++++++++++++++++++++++++++++++++++++++++++++++++++++++++++++++++..............                                                                                                                    ",
"                                                                                                                                                                                                                              .......@@@@@@@@@@@@@@@@@@@@@@@@@@@@++++++++++++++++++++++++++++++++++++++++++++++++++++++++++++++++++++++++++++++++++++++++++++++++++++++++++++++++++++++++++++++++++++++++++++++++++++++++++++++++++++++++++++++++++++++++++++++++++++++++++++..............                                                                                                                    ",
"                                                                                                                                                                                                                              .......@@@@@@@@@@@@@@@@@@@@@@@@@@@@++++++++++++++++++++++++++++++++++++++++++++++++++++++++++++++++++++++++++++++++++++++++++++++++++++++++++++++++++++++++++++++++++++++++++++++++++++++++++++++++++++++++++++++++++++++++++++++++++++++++++++..............                                                                                                                    ",
"                                                                                                                                                                                                                              .......@@@@@@@@@@@@@@@@@@@@@@@@@@@@++++++++++++++++++++++++++++++++++++++++++++++++++++++++++++++++++++++++++++++++++++++++++++++++++++++++++++++++++++++++++++++++++++++++++++++++++++++++++++++++++++++++++++++++++++++++++++++++++++++++++++..............                                                                                                                    ",
"                                                                                                                                                                                                                              .......@@@@@@@@@@@@@@@@@@@@@@@@@@@@++++++++++++++++++++++++++++++++++++++++++++++++++++++++++++++++++++++++++++++++++++++++++++++++++++++++++++++++++++++++++++++++++++++++++++++++++++++++++++++++++++++++++++++++++++++++++++++++++++++++++++..............                                                                                                                    ",
"                                                                                                                                                                                                                              .......@@@@@@@@@@@@@@@@@@@@@@@@@@@@++++++++++++++++++++++++++++++++++++++++++++++++++++++++++++++++++++++++++++++++++++++++++++++++++++++++++++++++++++++++++++++++++++++++++++++++++++++++++++++++++++++++++++++++++++++++++++++++++++++++++++..............                                                                                                                    ",
"                                                                                                                                                                                                                              ..............@@@@@@@@@@@@@@@@@@@@@@@@@@@@+++++++++++++++++++++++++++++++++++++++++++++++++++++++++++++++++++++++++++++++++++++++++++++++++++++++++++++++++++++++++++++++++++++++++++++++++++++++++++++++++++++++++++++++++++++++++++++++++++++..............                                                                                                                    ",
"                                                                                                                                                                                                                              ..............@@@@@@@@@@@@@@@@@@@@@@@@@@@@++++++++++++++++++++++++++++++++++++++++++++++++++++++++++++++++++++++++++++++++++++++++++++++++++++++++++++++++++++++++++++++++++++++++++++++++++++++++++++++++++++++++++++++++++++++++++++++++++++++++++++..............                                                                                                             ",
"                                                                                                                                                                                                                              ..............@@@@@@@@@@@@@@@@@@@@@@@@@@@@++++++++++++++++++++++++++++++++++++++++++++++++++++++++++++++++++++++++++++++++++++++++++++++++++++++++++++++++++++++++++++++++++++++++++++++++++++++++++++++++++++++++++++++++++++++++++++++++++++++++++++..............                                                                                                             ",
"                                                                                                                                                                                                                              ..............@@@@@@@@@@@@@@@@@@@@@@@@@@@@++++++++++++++++++++++++++++++++++++++++++++++++++++++++++++++++++++++++++++++++++++++++++++++++++++++++++++++++++++++++++++++++++++++++++++++++++++++++++++++++++++++++++++++++++++++++++++++++++++++++++++..............                                                                                                             ",
"                                                                                                                                                                                                                              ..............@@@@@@@@@@@@@@@@@@@@@@@@@@@@++++++++++++++++++++++++++++++++++++++++++++++++++++++++++++++++++++++++++++++++++++++++++++++++++++++++++++++++++++++++++++++++++++++++++++++++++++++++++++++++++++++++++++++++++++++++++++++++++++++++++++..............                                                                                                             ",
"                                                                                                                                                                                                                              ..............@@@@@@@@@@@@@@@@@@@@@@@@@@@@++++++++++++++++++++++++++++++++++++++++++++++++++++++++++++++++++++++++++++++++++++++++++++++++++++++++++++++++++++++++++++++++++++++++++++++++++++++++++++++++++++++++++++++++++++++++++++++++++++++++++++..............                                                                                                             ",
"                                                                                                                                                                                                                              ..............@@@@@@@@@@@@@@@@@@@@@@@@@@@@++++++++++++++++++++++++++++++++++++++++++++++++++++++++++++++++++++++++++++++++++++++++++++++++++++++++++++++++++++++++++++++++++++++++++++++++++++++++++++++++++++++++++++++++++++++++++++++++++++++++++++..............                                                                                                             ",
"                                                                                                                                                                                                                                     ..............@@@@@@@@@@@@@@@@@@@@@++++++++++++++++++++++++++++++++++++++++++++++++++++++++++++++++++++++++++++++++++++++++++++++++++++++++++++++++++++++++++++++++++++++++++++++++++++++++++++++++++++++++++++++++++++++++++++++++++++++++++++..............                                                                                                             ",
"                                                                                                                                                                                                                                     ..............@@@@@@@@@@@@@@@@@@@@@+++++++++++++++++++++++++++++++++++++++++++++++++++++++++++++++++++++++++++++++++++++++++++++++++++++++++++++++++++++++++++++++++++++++++++++++++++++++++++++++++++++++++++++++++++++++++++++++++++++++++++++++++++..............                                                                                                      ",
"                                                                                                                                                                                                                                     ..............@@@@@@@@@@@@@@@@@@@@@+++++++++++++++++++++++++++++++++++++++++++++++++++++++++++++++++++++++++++++++++++++++++++++++++++++++++++++++++++++++++++++++++++++++++++++++++++++++++++++++++++++++++++++++++++++++++++++++++++++++++++++++++++..............                                                                                                      ",
"                                                                                                                                                                                                                                     ..............@@@@@@@@@@@@@@@@@@@@@+++++++++++++++++++++++++++++++++++++++++++++++++++++++++++++++++++++++++++++++++++++++++++++++++++++++++++++++++++++++++++++++++++++++++++++++++++++++++++++++++++++++++++++++++++++++++++++++++++++++++++++++++++..............                                                                                                      ",
"                                                                                                                                                                                                                                     ..............@@@@@@@@@@@@@@@@@@@@@+++++++++++++++++++++++++++++++++++++++++++++++++++++++++++++++++++++++++++++++++++++++++++++++++++++++++++++++++++++++++++++++++++++++++++++++++++++++++++++++++++++++++++++++++++++++++++++++++++++++++++++++++++..............                                                                                                      ",
"                                                                                                                                                                                                                                     ..............@@@@@@@@@@@@@@@@@@@@@+++++++++++++++++++++++++++++++++++++++++++++++++++++++++++++++++++++++++++++++++++++++++++++++++++++++++++++++++++++++++++++++++++++++++++++++++++++++++++++++++++++++++++++++++++++++++++++++++++++++++++++++++++..............                                                                                                      ",
"                                                                                                                                                                                                                                     ..............@@@@@@@@@@@@@@@@@@@@@+++++++++++++++++++++++++++++++++++++++++++++++++++++++++++++++++++++++++++++++++++++++++++++++++++++++++++++++++++++++++++++++++++++++++++++++++++++++++++++++++++++++++++++++++++++++++++++++++++++++++++++++++++..............                                                                                                      ",
"                                                                                                                                                                                                                                            .......@@@@@@@@@@@@@@@@@@@@@@@@@@@@++++++++++++++++++++++++++++++++++++++++++++++++++++++++++++++++++++++++++++++++++++++++++++++++++++++++++++++++++++++++++++++++++++++++++++++++++++++++++++++++++++++++++++++++++++++++++++++++++++++++++++..............                                                                                                      ",
"                                                                                                                                                                                                                                            .......@@@@@@@@@@@@@@@@@@@@@@@@@@@@+++++++++++++++++++++++++++++++++++++++++++++++++++++++++++++++++++++++++++++++++++++++++++++++++++++++++++++++++++++++++++++++++++++++++++++++++++++++++++++++++++++++++++++++++++++++++++++++++++++++++++++++++++..............                                                                                               ",
"                                                                                                                                                                                                                                            .......@@@@@@@@@@@@@@@@@@@@@@@@@@@@+++++++++++++++++++++++++++++++++++++++++++++++++++++++++++++++++++++++++++++++++++++++++++++++++++++++++++++++++++++++++++++++++++++++++++++++++++++++++++++++++++++++++++++++++++++++++++++++++++++++++++++++++++..............                                                                                               ",
"                                                                                                                                                                                                                                            .......@@@@@@@@@@@@@@@@@@@@@@@@@@@@+++++++++++++++++++++++++++++++++++++++++++++++++++++++++++++++++++++++++++++++++++++++++++++++++++++++++++++++++++++++++++++++++++++++++++++++++++++++++++++++++++++++++++++++++++++++++++++++++++++++++++++++++++..............                                                                                               ",
"                                                                                                                                                                                                                                            .......@@@@@@@@@@@@@@@@@@@@@@@@@@@@+++++++++++++++++++++++++++++++++++++++++++++++++++++++++++++++++++++++++++++++++++++++++++++++++++++++++++++++++++++++++++++++++++++++++++++++++++++++++++++++++++++++++++++++++++++++++++++++++++++++++++++++++++..............                                                                                               ",
"                                                                                                                                                                                                                                            .......@@@@@@@@@@@@@@@@@@@@@@@@@@@@+++++++++++++++++++++++++++++++++++++++++++++++++++++++++++++++++++++++++++++++++++++++++++++++++++++++++++++++++++++++++++++++++++++++++++++++++++++++++++++++++++++++++++++++++++++++++++++++++++++++++++++++++++..............                                                                                               ",
"                                                                                                                                                                                                                                            .......@@@@@@@@@@@@@@@@@@@@@@@@@@@@+++++++++++++++++++++++++++++++++++++++++++++++++++++++++++++++++++++++++++++++++++++++++++++++++++++++++++++++++++++++++++++++++++++++++++++++++++++++++++++++++++++++++++++++++++++++++++++++++++++++++++++++++++..............                                                                                               ",
"                                                                                                                                                                                                                                            ..............@@@@@@@@@@@@@@@@@@@@@@@@@@@@++++++++++++++++++++++++++++++++++++++++++++++++++++++++++++++++++++++++++++++++++++++++++++++++++++++++++++++++++++++++++++++++++++++++++++++++++++++++++++++++++++++++++++++++++++++++++++++++++++++++++++..............                                                                                               ",
"                                                                                                                                                                                                                                            ..............@@@@@@@@@@@@@@@@@@@@@@@@@@@@+++++++++++++++++++++++++++++++++++++++++++++++++++++++++++++++++++++++++++++++++++++++++++++++++++++++++++++++++++++++++++++++++++++++++++++++++++++++++++++++++++++++++++++++++++++++++++++++++++++++++++++++++++..............                                                                                        ",
"                                                                                                                                                                                                                                            ..............@@@@@@@@@@@@@@@@@@@@@@@@@@@@+++++++++++++++++++++++++++++++++++++++++++++++++++++++++++++++++++++++++++++++++++++++++++++++++++++++++++++++++++++++++++++++++++++++++++++++++++++++++++++++++++++++++++++++++++++++++++++++++++++++++++++++++++..............                                                                                        ",
"                                                                                                                                                                                                                                            ..............@@@@@@@@@@@@@@@@@@@@@@@@@@@@+++++++++++++++++++++++++++++++++++++++++++++++++++++++++++++++++++++++++++++++++++++++++++++++++++++++++++++++++++++++++++++++++++++++++++++++++++++++++++++++++++++++++++++++++++++++++++++++++++++++++++++++++++..............                                                                                        ",
"                                                                                                                                                                                                                                            ..............@@@@@@@@@@@@@@@@@@@@@@@@@@@@+++++++++++++++++++++++++++++++++++++++++++++++++++++++++++++++++++++++++++++++++++++++++++++++++++++++++++++++++++++++++++++++++++++++++++++++++++++++++++++++++++++++++++++++++++++++++++++++++++++++++++++++++++..............                                                                                        ",
"                                                                                                                                                                                                                                            ..............@@@@@@@@@@@@@@@@@@@@@@@@@@@@+++++++++++++++++++++++++++++++++++++++++++++++++++++++++++++++++++++++++++++++++++++++++++++++++++++++++++++++++++++++++++++++++++++++++++++++++++++++++++++++++++++++++++++++++++++++++++++++++++++++++++++++++++..............                                                                                        ",
"                                                                                                                                                                                                                                            ..............@@@@@@@@@@@@@@@@@@@@@@@@@@@@+++++++++++++++++++++++++++++++++++++++++++++++++++++++++++++++++++++++++++++++++++++++++++++++++++++++++++++++++++++++++++++++++++++++++++++++++++++++++++++++++++++++++++++++++++++++++++++++++++++++++++++++++++..............                                                                                        ",
"                                                                                                                                                                                                                                                   .......@@@@@@@@@@@@@@@@@@@@@@@@@@@@@@@@@@@++++++++++++++++++++++++++++++++++++++++++++++++++++++++++++++++++++++++++++++++++++++++++++++++++++++++++++++++++++++++++++++++++++++++++++++++++++++++++++++++++++++++++++++++++++++++++++++++++++++++++++..............                                                                                        ",
"                                                                                                                                                                                                                                                   .......@@@@@@@@@@@@@@@@@@@@@@@@@@@@@@@@@@@+++++++++++++++++++++++++++++++++++++++++++++++++++++++++++++++++++++++++++++++++++++++++++++++++++++++++++++++++++++++++++++++++++++++++++++++++++++++++++++++++++++++++++++++++++++++++++++++++++++++++++++++++++..............                                                                                 ",
"                                                                                                                                                                                                                                                   .......@@@@@@@@@@@@@@@@@@@@@@@@@@@@@@@@@@@+++++++++++++++++++++++++++++++++++++++++++++++++++++++++++++++++++++++++++++++++++++++++++++++++++++++++++++++++++++++++++++++++++++++++++++++++++++++++++++++++++++++++++++++++++++++++++++++++++++++++++++++++++..............                                                                                 ",
"                                                                                                                                                                                                                                                   .......@@@@@@@@@@@@@@@@@@@@@@@@@@@@@@@@@@@+++++++++++++++++++++++++++++++++++++++++++++++++++++++++++++++++++++++++++++++++++++++++++++++++++++++++++++++++++++++++++++++++++++++++++++++++++++++++++++++++++++++++++++++++++++++++++++++++++++++++++++++++++..............                                                                                 ",
"                                                                                                                                                                                                                                                   .......@@@@@@@@@@@@@@@@@@@@@@@@@@@@@@@@@@@+++++++++++++++++++++++++++++++++++++++++++++++++++++++++++++++++++++++++++++++++++++++++++++++++++++++++++++++++++++++++++++++++++++++++++++++++++++++++++++++++++++++++++++++++++++++++++++++++++++++++++++++++++..............                                                                                 ",
"                                                                                                                                                                                                                                                   .......@@@@@@@@@@@@@@@@@@@@@@@@@@@@@@@@@@@+++++++++++++++++++++++++++++++++++++++++++++++++++++++++++++++++++++++++++++++++++++++++++++++++++++++++++++++++++++++++++++++++++++++++++++++++++++++++++++++++++++++++++++++++++++++++++++++++++++++++++++++++++..............                                                                                 ",
"                                                                                                                                                                                                                                                   .......@@@@@@@@@@@@@@@@@@@@@@@@@@@@@@@@@@@+++++++++++++++++++++++++++++++++++++++++++++++++++++++++++++++++++++++++++++++++++++++++++++++++++++++++++++++++++++++++++++++++++++++++++++++++++++++++++++++++++++++++++++++++++++++++++++++++++++++++++++++++++..............                                                                                 ",
"                                                                                                                                                                                                                                                   ..............@@@@@@@@@@@@@@@@@@@@@@@@@@@@@@@@@@@++++++++++++++++++++++++++++++++++++++++++++++++++++++++++++++++++++++++++++++++++++++++++++++++++++++++++++++++++++++++++++++++++++++++++++++++++++++++++++++++++++++++++++++++++++++++++++++++++++++++++++..............                                                                                 ",
"                                                                                                                                                                                                                                                   ..............@@@@@@@@@@@@@@@@@@@@@@@@@@@@@@@@@@@++++++++++++++++++++++++++++++++++++++++++++++++++++++++++++++++++++++++++++++++++++++++++++++++++++++++++++++++++++++++++++++++++++++++++++++++++++++++++++++++++++++++++++++++++++++++++++++++++++++++++++++++++++++++++..............                                                                   ",
"                                                                                                                                                                                                                                                   ..............@@@@@@@@@@@@@@@@@@@@@@@@@@@@@@@@@@@++++++++++++++++++++++++++++++++++++++++++++++++++++++++++++++++++++++++++++++++++++++++++++++++++++++++++++++++++++++++++++++++++++++++++++++++++++++++++++++++++++++++++++++++++++++++++++++++++++++++++++++++++++++++++..............                                                                   ",
"                                                                                                                                                                                                                                                   ..............@@@@@@@@@@@@@@@@@@@@@@@@@@@@@@@@@@@++++++++++++++++++++++++++++++++++++++++++++++++++++++++++++++++++++++++++++++++++++++++++++++++++++++++++++++++++++++++++++++++++++++++++++++++++++++++++++++++++++++++++++++++++++++++++++++++++++++++++++++++++++++++++..............                                                                   ",
"                                                                                                                                                                                                                                                   ..............@@@@@@@@@@@@@@@@@@@@@@@@@@@@@@@@@@@++++++++++++++++++++++++++++++++++++++++++++++++++++++++++++++++++++++++++++++++++++++++++++++++++++++++++++++++++++++++++++++++++++++++++++++++++++++++++++++++++++++++++++++++++++++++++++++++++++++++++++++++++++++++++..............                                                                   ",
"                                                                                                                                                                                                                                                   ..............@@@@@@@@@@@@@@@@@@@@@@@@@@@@@@@@@@@++++++++++++++++++++++++++++++++++++++++++++++++++++++++++++++++++++++++++++++++++++++++++++++++++++++++++++++++++++++++++++++++++++++++++++++++++++++++++++++++++++++++++++++++++++++++++++++++++++++++++++++++++++++++++..............                                                                   ",
"                                                                                                                                                                                                                                                   ..............@@@@@@@@@@@@@@@@@@@@@@@@@@@@@@@@@@@++++++++++++++++++++++++++++++++++++++++++++++++++++++++++++++++++++++++++++++++++++++++++++++++++++++++++++++++++++++++++++++++++++++++++++++++++++++++++++++++++++++++++++++++++++++++++++++++++++++++++++++++++++++++++..............                                                                   ",
"                                                                                                                                                                                                                                                          .......@@@@@@@@@@@@@@@@@@@@@@@@@@@@@@@@@@@@@@@@@@+++++++++++++++++++++++++++++++++++++++++++++++++++++++++++++++++++++++++++++++++++++++++++++++++++++++++++++++++++++++++++++++++++++++++++++++++++++++++++++++++++++++++++++++++++++++++++++++++++++++++++++++++++..............                                                                   ",
"                                                                                                                                                                                                                                                          .......@@@@@@@@@@@@@@@@@@@@@@@@@@@@@@@@@@@@@@@@@@++++++++++++++++++++++++++++++++++++++++++++++++++++++++++++++++++++++++++++++++++++++++++++++++++++++++++++++++++++++++++++++++++++++++++++++++++++++++++++++++++++++++++++++++++++++++++++++++++++++++++++++++++++++++++..............                                                            ",
"                                                                                                                                                                                                                                                          .......@@@@@@@@@@@@@@@@@@@@@@@@@@@@@@@@@@@@@@@@@@++++++++++++++++++++++++++++++++++++++++++++++++++++++++++++++++++++++++++++++++++++++++++++++++++++++++++++++++++++++++++++++++++++++++++++++++++++++++++++++++++++++++++++++++++++++++++++++++++++++++++++++++++++++++++..............                                                            ",
"                                                                                                                                                                                                                                                          .......@@@@@@@@@@@@@@@@@@@@@@@@@@@@@@@@@@@@@@@@@@++++++++++++++++++++++++++++++++++++++++++++++++++++++++++++++++++++++++++++++++++++++++++++++++++++++++++++++++++++++++++++++++++++++++++++++++++++++++++++++++++++++++++++++++++++++++++++++++++++++++++++++++++++++++++..............                                                            ",
"                                                                                                                                                                                                                                                          .......@@@@@@@@@@@@@@@@@@@@@@@@@@@@@@@@@@@@@@@@@@++++++++++++++++++++++++++++++++++++++++++++++++++++++++++++++++++++++++++++++++++++++++++++++++++++++++++++++++++++++++++++++++++++++++++++++++++++++++++++++++++++++++++++++++++++++++++++++++++++++++++++++++++++++++++..............                                                            ",
"                                                                                                                                                                                                                                                          .......@@@@@@@@@@@@@@@@@@@@@@@@@@@@@@@@@@@@@@@@@@++++++++++++++++++++++++++++++++++++++++++++++++++++++++++++++++++++++++++++++++++++++++++++++++++++++++++++++++++++++++++++++++++++++++++++++++++++++++++++++++++++++++++++++++++++++++++++++++++++++++++++++++++++++++++..............                                                            ",
"                                                                                                                                                                                                                                                          .......@@@@@@@@@@@@@@@@@@@@@@@@@@@@@@@@@@@@@@@@@@++++++++++++++++++++++++++++++++++++++++++++++++++++++++++++++++++++++++++++++++++++++++++++++++++++++++++++++++++++++++++++++++++++++++++++++++++++++++++++++++++++++++++++++++++++++++++++++++++++++++++++++++++++++++++..............                                                            ",
"                                                                                                                                                                                                                                                          ..............@@@@@@@@@@@@@@@@@@@@@@@@@@@@@@@@@@@++++++++++++++++++++++++++++++++++++++++++++++++++++++++++++++++++++++++++++++++++++++++++++++++++++++++++++++++++++++++++++++++++++++++++++++++++++++++++++++++++++++++++++++++++++++++++++++++++++++++++++++++++++++++++..............                                                            ",
"                                                                                                                                                                                                                                                          ..............@@@@@@@@@@@@@@@@@@@@@@@@@@@@@@@@@@@+++++++++++++++++++++++++++++++++++++++++++++++++++++++++++++++++++++++++++++++++++++++++++++++++++++++++++++++++++++++++++++++++++++++++++++++++++++++++++++++++++++++++++++++++++++++++++++++++++++++++++++++++++++++++++++++++.....................                                              ",
"                                                                                                                                                                                                                                                          ..............@@@@@@@@@@@@@@@@@@@@@@@@@@@@@@@@@@@+++++++++++++++++++++++++++++++++++++++++++++++++++++++++++++++++++++++++++++++++++++++++++++++++++++++++++++++++++++++++++++++++++++++++++++++++++++++++++++++++++++++++++++++++++++++++++++++++++++++++++++++++++++++++++++++++.....................                                              ",
"                                                                                                                                                                                                                                                          ..............@@@@@@@@@@@@@@@@@@@@@@@@@@@@@@@@@@@+++++++++++++++++++++++++++++++++++++++++++++++++++++++++++++++++++++++++++++++++++++++++++++++++++++++++++++++++++++++++++++++++++++++++++++++++++++++++++++++++++++++++++++++++++++++++++++++++++++++++++++++++++++++++++++++++.....................                                              ",
"                                                                                                                                                                                                                                                          ..............@@@@@@@@@@@@@@@@@@@@@@@@@@@@@@@@@@@+++++++++++++++++++++++++++++++++++++++++++++++++++++++++++++++++++++++++++++++++++++++++++++++++++++++++++++++++++++++++++++++++++++++++++++++++++++++++++++++++++++++++++++++++++++++++++++++++++++++++++++++++++++++++++++++++.....................                                              ",
"                                                                                                                                                                                                                                                          ..............@@@@@@@@@@@@@@@@@@@@@@@@@@@@@@@@@@@+++++++++++++++++++++++++++++++++++++++++++++++++++++++++++++++++++++++++++++++++++++++++++++++++++++++++++++++++++++++++++++++++++++++++++++++++++++++++++++++++++++++++++++++++++++++++++++++++++++++++++++++++++++++++++++++++.....................                                              ",
"                                                                                                                                                                                                                                                          ..............@@@@@@@@@@@@@@@@@@@@@@@@@@@@@@@@@@@+++++++++++++++++++++++++++++++++++++++++++++++++++++++++++++++++++++++++++++++++++++++++++++++++++++++++++++++++++++++++++++++++++++++++++++++++++++++++++++++++++++++++++++++++++++++++++++++++++++++++++++++++++++++++++++++++.....................                                              ",
"                                                                                                                                                                                                                                                                 ..............@@@@@@@@@@@@@@@@@@@@@@@@@@@@@@@@@@@++++++++++++++++++++++++++++++++++++++++++++++++++++++++++++++++++++++++++++++++++++++++++++++++++++++++++++++++++++++++++++++++++++++++++++++++++++++++++++++++++++++++++++++++++++++++++++++++++++++++++++++++++++++++++.....................                                              ",
"                                                                                                                                                                                                                                                                 ..............@@@@@@@@@@@@@@@@@@@@@@@@@@@@@@@@@@@++++++++++++++++++++++++++++++++++++++++++++++++++++++++++++++++++++++++++++++++++++++++++++++++++++++++++++++++++++++++++++++++++++++++++++++++++++++++++++++++++++++++++++++++++++++++++++++++++++++++++++++++++++++++++++++++++++++++..............                                       ",
"                                                                                                                                                                                                                                                                 ..............@@@@@@@@@@@@@@@@@@@@@@@@@@@@@@@@@@@++++++++++++++++++++++++++++++++++++++++++++++++++++++++++++++++++++++++++++++++++++++++++++++++++++++++++++++++++++++++++++++++++++++++++++++++++++++++++++++++++++++++++++++++++++++++++++++++++++++++++++++++++++++++++++++++++++++++..............                                       ",
"                                                                                                                                                                                                                                                                 ..............@@@@@@@@@@@@@@@@@@@@@@@@@@@@@@@@@@@++++++++++++++++++++++++++++++++++++++++++++++++++++++++++++++++++++++++++++++++++++++++++++++++++++++++++++++++++++++++++++++++++++++++++++++++++++++++++++++++++++++++++++++++++++++++++++++++++++++++++++++++++++++++++++++++++++++++..............                                       ",
"                                                                                                                                                                                                                                                                 ..............@@@@@@@@@@@@@@@@@@@@@@@@@@@@@@@@@@@++++++++++++++++++++++++++++++++++++++++++++++++++++++++++++++++++++++++++++++++++++++++++++++++++++++++++++++++++++++++++++++++++++++++++++++++++++++++++++++++++++++++++++++++++++++++++++++++++++++++++++++++++++++++++++++++++++++++..............                                       ",
"                                                                                                                                                                                                                                                                 ..............@@@@@@@@@@@@@@@@@@@@@@@@@@@@@@@@@@@++++++++++++++++++++++++++++++++++++++++++++++++++++++++++++++++++++++++++++++++++++++++++++++++++++++++++++++++++++++++++++++++++++++++++++++++++++++++++++++++++++++++++++++++++++++++++++++++++++++++++++++++++++++++++++++++++++++++..............                                       ",
"                                                                                                                                                                                                                                                                 ..............@@@@@@@@@@@@@@@@@@@@@@@@@@@@@@@@@@@++++++++++++++++++++++++++++++++++++++++++++++++++++++++++++++++++++++++++++++++++++++++++++++++++++++++++++++++++++++++++++++++++++++++++++++++++++++++++++++++++++++++++++++++++++++++++++++++++++++++++++++++++++++++++++++++++++++++..............                                       ",
"                                                                                                                                                                                                                                                                        .......@@@@@@@@@@@@@@@@@@@@@@@@@@@@@@@@@@@@@@@@@@+++++++++++++++++++++++++++++++++++++++++++++++++++++++++++++++++++++++++++++++++++++++++++++++++++++++++++++++++++++++++++++++++++++++++++++++++++++++++++++++++++++++++++++++++++++++++++++++++++++++++++++++++++++++++++++++++..............                                       ",
"                                                                                                                                                                                                                                                                        .......@@@@@@@@@@@@@@@@@@@@@@@@@@@@@@@@@@@@@@@@@@++++++++++++++++++++++++++++++++++++++++++++++++++++++++++++++++++++++++++++++++++++++++++++++++++++++++++++++++++++++++++++++++++++++++++++++++++++++++++++++++++++++++++++++++++++++++++++++++++++++++++++++++++++++++++++++++++++++++..............                                ",
"                                                                                                                                                                                                                                                                        .......@@@@@@@@@@@@@@@@@@@@@@@@@@@@@@@@@@@@@@@@@@++++++++++++++++++++++++++++++++++++++++++++++++++++++++++++++++++++++++++++++++++++++++++++++++++++++++++++++++++++++++++++++++++++++++++++++++++++++++++++++++++++++++++++++++++++++++++++++++++++++++++++++++++++++++++++++++++++++++..............                                ",
"                                                                                                                                                                                                                                                                        .......@@@@@@@@@@@@@@@@@@@@@@@@@@@@@@@@@@@@@@@@@@++++++++++++++++++++++++++++++++++++++++++++++++++++++++++++++++++++++++++++++++++++++++++++++++++++++++++++++++++++++++++++++++++++++++++++++++++++++++++++++++++++++++++++++++++++++++++++++++++++++++++++++++++++++++++++++++++++++++..............                                ",
"                                                                                                                                                                                                                                                                        .......@@@@@@@@@@@@@@@@@@@@@@@@@@@@@@@@@@@@@@@@@@++++++++++++++++++++++++++++++++++++++++++++++++++++++++++++++++++++++++++++++++++++++++++++++++++++++++++++++++++++++++++++++++++++++++++++++++++++++++++++++++++++++++++++++++++++++++++++++++++++++++++++++++++++++++++++++++++++++++..............                                ",
"                                                                                                                                                                                                                                                                        .......@@@@@@@@@@@@@@@@@@@@@@@@@@@@@@@@@@@@@@@@@@++++++++++++++++++++++++++++++++++++++++++++++++++++++++++++++++++++++++++++++++++++++++++++++++++++++++++++++++++++++++++++++++++++++++++++++++++++++++++++++++++++++++++++++++++++++++++++++++++++++++++++++++++++++++++++++++++++++++..............                                ",
"                                                                                                                                                                                                                                                                        .......@@@@@@@@@@@@@@@@@@@@@@@@@@@@@@@@@@@@@@@@@@++++++++++++++++++++++++++++++++++++++++++++++++++++++++++++++++++++++++++++++++++++++++++++++++++++++++++++++++++++++++++++++++++++++++++++++++++++++++++++++++++++++++++++++++++++++++++++++++++++++++++++++++++++++++++++++++++++++++..............                                ",
"                                                                                                                                                                                                                                                                        ..............@@@@@@@@@@@@@@@@@@@@@@@@@@@@@@@@@@@@@@@@@@+++++++++++++++++++++++++++++++++++++++++++++++++++++++++++++++++++++++++++++++++++++++++++++++++++++++++++++++++++++++++++++++++++++++++++++++++++++++++++++++++++++++++++++++++++++++++++++++++++++++++++++++++++++++++++++++++..............                                ",
"                                                                                                                                                                                                                                                                        ..............@@@@@@@@@@@@@@@@@@@@@@@@@@@@@@@@@@@@@@@@@@++++++++++++++++++++++++++++++++++++++++++++++++++++++++++++++++++++++++++++++++++++++++++++++++++++++++++++++++++++++++++++++++++++++++++++++++++++++++++++++++++++++++++++++++++++++++++++++++++++++++++++++++++++++++++++++++++++++++..............                         ",
"                                                                                                                                                                                                                                                                        ..............@@@@@@@@@@@@@@@@@@@@@@@@@@@@@@@@@@@@@@@@@@++++++++++++++++++++++++++++++++++++++++++++++++++++++++++++++++++++++++++++++++++++++++++++++++++++++++++++++++++++++++++++++++++++++++++++++++++++++++++++++++++++++++++++++++++++++++++++++++++++++++++++++++++++++++++++++++++++++++..............                         ",
"                                                                                                                                                                                                                                                                        ..............@@@@@@@@@@@@@@@@@@@@@@@@@@@@@@@@@@@@@@@@@@++++++++++++++++++++++++++++++++++++++++++++++++++++++++++++++++++++++++++++++++++++++++++++++++++++++++++++++++++++++++++++++++++++++++++++++++++++++++++++++++++++++++++++++++++++++++++++++++++++++++++++++++++++++++++++++++++++++++..............                         ",
"                                                                                                                                                                                                                                                                        ..............@@@@@@@@@@@@@@@@@@@@@@@@@@@@@@@@@@@@@@@@@@++++++++++++++++++++++++++++++++++++++++++++++++++++++++++++++++++++++++++++++++++++++++++++++++++++++++++++++++++++++++++++++++++++++++++++++++++++++++++++++++++++++++++++++++++++++++++++++++++++++++++++++++++++++++++++++++++++++++..............                         ",
"                                                                                                                                                                                                                                                                        ..............@@@@@@@@@@@@@@@@@@@@@@@@@@@@@@@@@@@@@@@@@@++++++++++++++++++++++++++++++++++++++++++++++++++++++++++++++++++++++++++++++++++++++++++++++++++++++++++++++++++++++++++++++++++++++++++++++++++++++++++++++++++++++++++++++++++++++++++++++++++++++++++++++++++++++++++++++++++++++++..............                         ",
"                                                                                                                                                                                                                                                                        ..............@@@@@@@@@@@@@@@@@@@@@@@@@@@@@@@@@@@@@@@@@@++++++++++++++++++++++++++++++++++++++++++++++++++++++++++++++++++++++++++++++++++++++++++++++++++++++++++++++++++++++++++++++++++++++++++++++++++++++++++++++++++++++++++++++++++++++++++++++++++++++++++++++++++++++++++++++++++++++++..............                         ",
"                                                                                                                                                                                                                                                                               .......@@@@@@@@@@@@@@@@@@@@@@@@@@@@@@@@@@@@@@@@@@@@@@@@@+++++++++++++++++++++++++++++++++++++++++++++++++++++++++++++++++++++++++++++++++++++++++++++++++++++++++++++++++++++++++++++++++++++++++++++++++++++++++++++++++++++++++++++++++++++++++++++++++++++++++++++++++++++++++++++++++..............                         ",
"                                                                                                                                                                                                                                                                               .......@@@@@@@@@@@@@@@@@@@@@@@@@@@@@@@@@@@@@@@@@@@@@@@@@++++++++++++++++++++++++++++++++++++++++++++++++++++++++++++++++++++++++++++++++++++++++++++++++++++++++++++++++++++++++++++++++++++++++++++++++++++++++++++++++++++++++++++++++++++++++++++++++++++++++++++++++++++++++++++++++++++++++.......                         ",
"                                                                                                                                                                                                                                                                               .......@@@@@@@@@@@@@@@@@@@@@@@@@@@@@@@@@@@@@@@@@@@@@@@@@++++++++++++++++++++++++++++++++++++++++++++++++++++++++++++++++++++++++++++++++++++++++++++++++++++++++++++++++++++++++++++++++++++++++++++++++++++++++++++++++++++++++++++++++++++++++++++++++++++++++++++++++++++++++++++++++++++++++.......                         ",
"                                                                                                                                                                                                                                                                               .......@@@@@@@@@@@@@@@@@@@@@@@@@@@@@@@@@@@@@@@@@@@@@@@@@++++++++++++++++++++++++++++++++++++++++++++++++++++++++++++++++++++++++++++++++++++++++++++++++++++++++++++++++++++++++++++++++++++++++++++++++++++++++++++++++++++++++++++++++++++++++++++++++++++++++++++++++++++++++++++++++++++++++.......                         ",
"                                                                                                                                                                                                                                                                               .......@@@@@@@@@@@@@@@@@@@@@@@@@@@@@@@@@@@@@@@@@@@@@@@@@++++++++++++++++++++++++++++++++++++++++++++++++++++++++++++++++++++++++++++++++++++++++++++++++++++++++++++++++++++++++++++++++++++++++++++++++++++++++++++++++++++++++++++++++++++++++++++++++++++++++++++++++++++++++++++++++++++++++.......                         ",
"                                                                                                                                                                                                                                                                               .......@@@@@@@@@@@@@@@@@@@@@@@@@@@@@@@@@@@@@@@@@@@@@@@@@++++++++++++++++++++++++++++++++++++++++++++++++++++++++++++++++++++++++++++++++++++++++++++++++++++++++++++++++++++++++++++++++++++++++++++++++++++++++++++++++++++++++++++++++++++++++++++++++++++++++++++++++++++++++++++++++++++++++.......                         ",
"                                                                                                                                                                                                                                                                               .......@@@@@@@@@@@@@@@@@@@@@@@@@@@@@@@@@@@@@@@@@@@@@@@@@++++++++++++++++++++++++++++++++++++++++++++++++++++++++++++++++++++++++++++++++++++++++++++++++++++++++++++++++++++++++++++++++++++++++++++++++++++++++++++++++++++++++++++++++++++++++++++++++++++++++++++++++++++++++++++++++++++++++.......                         ",
"                                                                                                                                                                                                                                                                               ..............@@@@@@@@@@@@@@@@@@@@@@@@@@@@@@@@@@@@@@@@@@@@@@@@@+++++++++++++++++++++++++++++++++++++++++++++++++++++++++++++++++++++++++++++++++++++++++++++++++++++++++++++++++++++++++++++++++++++++++++++++++++++++++++++++++++++++++++++++++++++++++++++++++++++++++++++++++++++++++++++++++.......                         ",
"                                                                                                                                                                                                                                                                               ..............@@@@@@@@@@@@@@@@@@@@@@@@@@@@@@@@@@@@@@@@@@@@@@@@@+++++++++++++++++++++++++++++++++++++++++++++++++++++++++++++++++++++++++++++++++++++++++++++++++++++++++++++++++++++++++++++++++++++++++++++++++++++++++++++++++++++++++++++++++++++++++++++++++++++++++++++++++++++++++++++++++..............                  ",
"                                                                                                                                                                                                                                                                               ..............@@@@@@@@@@@@@@@@@@@@@@@@@@@@@@@@@@@@@@@@@@@@@@@@@+++++++++++++++++++++++++++++++++++++++++++++++++++++++++++++++++++++++++++++++++++++++++++++++++++++++++++++++++++++++++++++++++++++++++++++++++++++++++++++++++++++++++++++++++++++++++++++++++++++++++++++++++++++++++++++++++..............                  ",
"                                                                                                                                                                                                                                                                               ..............@@@@@@@@@@@@@@@@@@@@@@@@@@@@@@@@@@@@@@@@@@@@@@@@@+++++++++++++++++++++++++++++++++++++++++++++++++++++++++++++++++++++++++++++++++++++++++++++++++++++++++++++++++++++++++++++++++++++++++++++++++++++++++++++++++++++++++++++++++++++++++++++++++++++++++++++++++++++++++++++++++..............                  ",
"                                                                                                                                                                                                                                                                               ..............@@@@@@@@@@@@@@@@@@@@@@@@@@@@@@@@@@@@@@@@@@@@@@@@@+++++++++++++++++++++++++++++++++++++++++++++++++++++++++++++++++++++++++++++++++++++++++++++++++++++++++++++++++++++++++++++++++++++++++++++++++++++++++++++++++++++++++++++++++++++++++++++++++++++++++++++++++++++++++++++++++..............                  ",
"                                                                                                                                                                                                                                                                               ..............@@@@@@@@@@@@@@@@@@@@@@@@@@@@@@@@@@@@@@@@@@@@@@@@@+++++++++++++++++++++++++++++++++++++++++++++++++++++++++++++++++++++++++++++++++++++++++++++++++++++++++++++++++++++++++++++++++++++++++++++++++++++++++++++++++++++++++++++++++++++++++++++++++++++++++++++++++++++++++++++++++..............                  ",
"                                                                                                                                                                                                                                                                               ..............@@@@@@@@@@@@@@@@@@@@@@@@@@@@@@@@@@@@@@@@@@@@@@@@@+++++++++++++++++++++++++++++++++++++++++++++++++++++++++++++++++++++++++++++++++++++++++++++++++++++++++++++++++++++++++++++++++++++++++++++++++++++++++++++++++++++++++++++++++++++++++++++++++++++++++++++++++++++++++++++++++..............                  ",
"                                                                                                                                                                                                                                                                                      .......@@@@@@@@@@@@@@@@@@@@@@@@@@@@@@@@@@@@@@@@@@@@@@@@@@@@@@@@++++++++++++++++++++++++++++++++++++++++++++++++++++++++++++++++++++++++++++++++++++++++++++++++++++++++++++++++++++++++++++++++++++++++++++++++++++++++++++++++++++++++++++++++++++++++++++++++++++++++++++++++++++++++++..............                  ",
"                                                                                                                                                                                                                                                                                      .......@@@@@@@@@@@@@@@@@@@@@@@@@@@@@@@@@@@@@@@@@@@@@@@@@@@@@@@@+++++++++++++++++++++++++++++++++++++++++++++++++++++++++++++++++++++++++++++++++++++++++++++++++++++++++++++++++++++++++++++++++++++++++++++++++++++++++++++++++++++++++++++++++++++++++++++++++++++++++++++++++++++++++++++++++..............           ",
"                                                                                                                                                                                                                                                                                      .......@@@@@@@@@@@@@@@@@@@@@@@@@@@@@@@@@@@@@@@@@@@@@@@@@@@@@@@@+++++++++++++++++++++++++++++++++++++++++++++++++++++++++++++++++++++++++++++++++++++++++++++++++++++++++++++++++++++++++++++++++++++++++++++++++++++++++++++++++++++++++++++++++++++++++++++++++++++++++++++++++++++++++++++++++..............           ",
"                                                                                                                                                                                                                                                                                      .......@@@@@@@@@@@@@@@@@@@@@@@@@@@@@@@@@@@@@@@@@@@@@@@@@@@@@@@@+++++++++++++++++++++++++++++++++++++++++++++++++++++++++++++++++++++++++++++++++++++++++++++++++++++++++++++++++++++++++++++++++++++++++++++++++++++++++++++++++++++++++++++++++++++++++++++++++++++++++++++++++++++++++++++++++..............           ",
"                                                                                                                                                                                                                                                                                      .......@@@@@@@@@@@@@@@@@@@@@@@@@@@@@@@@@@@@@@@@@@@@@@@@@@@@@@@@+++++++++++++++++++++++++++++++++++++++++++++++++++++++++++++++++++++++++++++++++++++++++++++++++++++++++++++++++++++++++++++++++++++++++++++++++++++++++++++++++++++++++++++++++++++++++++++++++++++++++++++++++++++++++++++++++..............           ",
"                                                                                                                                                                                                                                                                                      .......@@@@@@@@@@@@@@@@@@@@@@@@@@@@@@@@@@@@@@@@@@@@@@@@@@@@@@@@+++++++++++++++++++++++++++++++++++++++++++++++++++++++++++++++++++++++++++++++++++++++++++++++++++++++++++++++++++++++++++++++++++++++++++++++++++++++++++++++++++++++++++++++++++++++++++++++++++++++++++++++++++++++++++++++++..............           ",
"                                                                                                                                                                                                                                                                                      .......@@@@@@@@@@@@@@@@@@@@@@@@@@@@@@@@@@@@@@@@@@@@@@@@@@@@@@@@+++++++++++++++++++++++++++++++++++++++++++++++++++++++++++++++++++++++++++++++++++++++++++++++++++++++++++++++++++++++++++++++++++++++++++++++++++++++++++++++++++++++++++++++++++++++++++++++++++++++++++++++++++++++++++++++++..............           ",
"                                                                                                                                                                                                                                                                                      ..............@@@@@@@@@@@@@@@@@@@@@@@@@@@@@@@@@@@@@@@@@@@@@@@@@@@@@@@@++++++++++++++++++++++++++++++++++++++++++++++++++++++++++++++++++++++++++++++++++++++++++++++++++++++++++++++++++++++++++++++++++++++++++++++++++++++++++++++++++++++++++++++++++++++++++++++++++++++++++++++++++++++++++..............           ",
"                                                                                                                                                                                                                                                                                      ..............@@@@@@@@@@@@@@@@@@@@@@@@@@@@@@@@@@@@@@@@@@@@@@@@@@@@@@@@+++++++++++++++++++++++++++++++++++++++++++++++++++++++++++++++++++++++++++++++++++++++++++++++++++++++++++++++++++++++++++++++++++++++++++++++++++++++++++++++++++++++++++++++++++++++++++++++++++++++++++++++++++++++++++++++++..............    ",
"                                                                                                                                                                                                                                                                                      ..............@@@@@@@@@@@@@@@@@@@@@@@@@@@@@@@@@@@@@@@@@@@@@@@@@@@@@@@@+++++++++++++++++++++++++++++++++++++++++++++++++++++++++++++++++++++++++++++++++++++++++++++++++++++++++++++++++++++++++++++++++++++++++++++++++++++++++++++++++++++++++++++++++++++++++++++++++++++++++++++++++++++++++++++++++..............    ",
"                                                                                                                                                                                                                                                                                      ..............@@@@@@@@@@@@@@@@@@@@@@@@@@@@@@@@@@@@@@@@@@@@@@@@@@@@@@@@+++++++++++++++++++++++++++++++++++++++++++++++++++++++++++++++++++++++++++++++++++++++++++++++++++++++++++++++++++++++++++++++++++++++++++++++++++++++++++++++++++++++++++++++++++++++++++++++++++++++++++++++++++++++++++++++++..............    ",
"                                                                                                                                                                                                                                                                                      ..............@@@@@@@@@@@@@@@@@@@@@@@@@@@@@@@@@@@@@@@@@@@@@@@@@@@@@@@@+++++++++++++++++++++++++++++++++++++++++++++++++++++++++++++++++++++++++++++++++++++++++++++++++++++++++++++++++++++++++++++++++++++++++++++++++++++++++++++++++++++++++++++++++++++++++++++++++++++++++++++++++++++++++++++++++..............    ",
"                                                                                                                                                                                                                                                                                      ..............@@@@@@@@@@@@@@@@@@@@@@@@@@@@@@@@@@@@@@@@@@@@@@@@@@@@@@@@+++++++++++++++++++++++++++++++++++++++++++++++++++++++++++++++++++++++++++++++++++++++++++++++++++++++++++++++++++++++++++++++++++++++++++++++++++++++++++++++++++++++++++++++++++++++++++++++++++++++++++++++++++++++++++++++++..............    ",
"                                                                                                                                                                                                                                                                                      ..............@@@@@@@@@@@@@@@@@@@@@@@@@@@@@@@@@@@@@@@@@@@@@@@@@@@@@@@@+++++++++++++++++++++++++++++++++++++++++++++++++++++++++++++++++++++++++++++++++++++++++++++++++++++++++++++++++++++++++++++++++++++++++++++++++++++++++++++++++++++++++++++++++++++++++++++++++++++++++++++++++++++++++++++++++..............    ",
"                                                                                                                                                                                                                                                                                             .......@@@@@@@@@@@@@@@@@@@@@@@@@@@@@@@@@@@@@@@@@@@@@@@@@@@@@@@@@@@@@@@++++++++++++++++++++++++++++++++++++++++++++++++++++++++++++++++++++++++++++++++++++++++++++++++++++++++++++++++++++++++++++++++++++++++++++++++++++++++++++++++++++++++++++++++++++++++++++++++++++++++++++++++++++++++++..............    ",
"                                                                                                                                                                                                                                                                                             .......@@@@@@@@@@@@@@@@@@@@@@@@@@@@@@@@@@@@@@@@@@@@@@@@@@@@@@@@@@@@@@@+++++++++++++++++++++++++++++++++++++++++++++++++++++++++++++++++++++++++++++++++++++++++++++++++++++++++++++++++++++++++++++++++++++++++++++++++++++++++++++++++++++++++++++++++++++++++++++++++++++++++++++++++++++++++++++++++.......    ",
"                                                                                                                                                                                                                                                                                             .......@@@@@@@@@@@@@@@@@@@@@@@@@@@@@@@@@@@@@@@@@@@@@@@@@@@@@@@@@@@@@@@+++++++++++++++++++++++++++++++++++++++++++++++++++++++++++++++++++++++++++++++++++++++++++++++++++++++++++++++++++++++++++++++++++++++++++++++++++++++++++++++++++++++++++++++++++++++++++++++++++++++++++++++++++++++++++++++++.......    ",
"                                                                                                                                                                                                                                                                                             .......@@@@@@@@@@@@@@@@@@@@@@@@@@@@@@@@@@@@@@@@@@@@@@@@@@@@@@@@@@@@@@@+++++++++++++++++++++++++++++++++++++++++++++++++++++++++++++++++++++++++++++++++++++++++++++++++++++++++++++++++++++++++++++++++++++++++++++++++++++++++++++++++++++++++++++++++++++++++++++++++++++++++++++++++++++++++++++++++.......    ",
"                                                                                                                                                                                                                                                                                             .......@@@@@@@@@@@@@@@@@@@@@@@@@@@@@@@@@@@@@@@@@@@@@@@@@@@@@@@@@@@@@@@+++++++++++++++++++++++++++++++++++++++++++++++++++++++++++++++++++++++++++++++++++++++++++++++++++++++++++++++++++++++++++++++++++++++++++++++++++++++++++++++++++++++++++++++++++++++++++++++++++++++++++++++++++++++++++++++++.......    ",
"                                                                                                                                                                                                                                                                                             .......@@@@@@@@@@@@@@@@@@@@@@@@@@@@@@@@@@@@@@@@@@@@@@@@@@@@@@@@@@@@@@@+++++++++++++++++++++++++++++++++++++++++++++++++++++++++++++++++++++++++++++++++++++++++++++++++++++++++++++++++++++++++++++++++++++++++++++++++++++++++++++++++++++++++++++++++++++++++++++++++++++++++++++++++++++++++++++++++.......    ",
"                                                                                                                                                                                                                                                                                             .......@@@@@@@@@@@@@@@@@@@@@@@@@@@@@@@@@@@@@@@@@@@@@@@@@@@@@@@@@@@@@@@+++++++++++++++++++++++++++++++++++++++++++++++++++++++++++++++++++++++++++++++++++++++++++++++++++++++++++++++++++++++++++++++++++++++++++++++++++++++++++++++++++++++++++++++++++++++++++++++++++++++++++++++++++++++++++++++++.......    ",
"                                                                                                                                                                                                                                                                                                                                                                                                                                                                                                                                                                                                               "};
