/* XPM */
static char * pg_right_arm3_xpm[] = {
"591 476 16 1",
" 	c #FF00FF",
".	c #000000",
"+	c #CE9E7F",
"@	c #BD826A",
"#	c #74443B",
"$	c #95D73A",
"%	c #6E3F36",
"&	c #DCF791",
"*	c #EF0403",
"=	c #FB3C38",
"-	c #FF493B",
";	c #B10004",
">	c #FCD05A",
",	c #FF3B3B",
"'	c #FEE591",
")	c #B7E65C",
"                                                                                                                                                                                                                                                                                                                                                                                                                                                                                                                                                                                                               ",
"                                                                                                                                                                                                                                                                                                                                                                                                                                                                                                                                                                                                               ",
"                                                                                                                                                                                                                                                                                                                                                                                                                                                                                                                                                                                                               ",
"                                                                                                                                                                                                                                                                                                                                                                                                                                                                                                                                                                                                               ",
"                                                                                                                                                                                                                                                                                                                                                                                                                                                                                                                                                                                                               ",
"                                                                                                                                                                                                                                                                                                                                                                                                                                                                                                                                                                                                               ",
"                                                                                                                                                                                                                                                                                                                                                                                                                                                                                                                                                                                                               ",
"                                                                                                                             .....................                                                                                                         ............................                                                                                                                                                                                                                                                                                                                        ",
"                                                                                                                             .....................                                                                                                         ............................                                                                                                                                                                                                                                                                                                                        ",
"                                                                                                                             .....................                                                                                                         ............................                                                                                                                                                                                                                                                                                                                        ",
"                                                                                                                             .....................                                                                                                         ............................                                                                                                                                                                                                                                                                                                                        ",
"                                                                                                                             .....................                                                                                                         ............................                                                                                                                                                                                                                                                                                                                        ",
"                                                                                                                             .....................                                                                                                         ............................                                                                                                                                                                                                                                                                                                                        ",
"                                                             .....................                                           .....................                                                                                                         ............................                                                                                                                                                                                                                                                                                                                        ",
"                                                             .....................                                    ..............++++++++++++++.......                                                                                           .......@@@@@@@+++++++++++++++++++++.......                                                                                                                                                                                                                                                                                                                 ",
"                                                             .....................                                    ..............++++++++++++++.......                                                                                           .......@@@@@@@+++++++++++++++++++++.......                                                                                                                                                                                                                                                                                                                 ",
"                                                             .....................                                    ..............++++++++++++++.......                                                                                           .......@@@@@@@+++++++++++++++++++++.......                                                                                                                                                                                                                                                                                                                 ",
"                                                             .....................                                    ..............++++++++++++++.......                                                                                           .......@@@@@@@+++++++++++++++++++++.......                                                                                                                                                                                                                                                                                                                 ",
"                                                             .....................                                    ..............++++++++++++++.......                                                                                           .......@@@@@@@+++++++++++++++++++++.......                                                                                                                                                                                                                                                                                                                 ",
"                                                             .....................                                    ..............++++++++++++++.......                                                                                           .......@@@@@@@+++++++++++++++++++++.......                                                                                                                                                                                                                                                                                                                 ",
"                                               ..............@@@@@@@++++++++++++++.......                             ..............++++++++++++++.......                                                                                           .......@@@@@@@+++++++++++++++++++++.......                                                                                                                                                                                                                                                                                                                 ",
"                                               ..............@@@@@@@++++++++++++++.......                             .......@@@@@@@+++++++++++++++++++++.......                                                                             ..............@@@@@@@+++++++++++++++++++++.......                                                                                                                                                                                                                                                                                                                 ",
"                                               ..............@@@@@@@++++++++++++++.......                             .......@@@@@@@+++++++++++++++++++++.......                                                                             ..............@@@@@@@+++++++++++++++++++++.......                                                                                                                                                                                                                                                                                                                 ",
"                                               ..............@@@@@@@++++++++++++++.......                             .......@@@@@@@+++++++++++++++++++++.......                                                                             ..............@@@@@@@+++++++++++++++++++++.......                                                                                                                                                                                                                                                                                                                 ",
"                                               ..............@@@@@@@++++++++++++++.......                             .......@@@@@@@+++++++++++++++++++++.......                                                                             ..............@@@@@@@+++++++++++++++++++++.......                                                                                                                                                                                                                                                                                                                 ",
"                                               ..............@@@@@@@++++++++++++++.......                             .......@@@@@@@+++++++++++++++++++++.......                                                                             ..............@@@@@@@+++++++++++++++++++++.......                                                                                                                                                                                                                                                                                                                 ",
"                                               ..............@@@@@@@++++++++++++++.......                             .......@@@@@@@+++++++++++++++++++++.......                                                                             ..............@@@@@@@+++++++++++++++++++++.......                                                                                                                                                                                                                                                                                                                 ",
"                                               .......@@@@@@@++++++++++++++++++++++++++++.......                      .......@@@@@@@+++++++++++++++++++++.......                                                                             ..............@@@@@@@+++++++++++++++++++++.......                                                                                                                                                                                                                                                                                                                 ",
"                                               .......@@@@@@@++++++++++++++++++++++++++++.......                      .......@@@@@@@++++++++++++++++++++++++++++.......                                                                      .......@@@@@@@@@@@@@@+++++++++++++++++++++.......                                                                                                                                                                                                                                                                                                                 ",
"                                               .......@@@@@@@++++++++++++++++++++++++++++.......                      .......@@@@@@@++++++++++++++++++++++++++++.......                                                                      .......@@@@@@@@@@@@@@+++++++++++++++++++++.......                                                                                                                                                                                                                                                                                                                 ",
"                                               .......@@@@@@@++++++++++++++++++++++++++++.......                      .......@@@@@@@++++++++++++++++++++++++++++.......                                                                      .......@@@@@@@@@@@@@@+++++++++++++++++++++.......                                                                                                                                                                                                                                                                                                                 ",
"                                               .......@@@@@@@++++++++++++++++++++++++++++.......                      .......@@@@@@@++++++++++++++++++++++++++++.......                                                                      .......@@@@@@@@@@@@@@+++++++++++++++++++++.......                                                                                                                                                                                                                                                                                                                 ",
"                                               .......@@@@@@@++++++++++++++++++++++++++++.......                      .......@@@@@@@++++++++++++++++++++++++++++.......                                                                      .......@@@@@@@@@@@@@@+++++++++++++++++++++.......                                                                                                                                                                                                                                                                                                                 ",
"                                               .......@@@@@@@++++++++++++++++++++++++++++.......                      .......@@@@@@@++++++++++++++++++++++++++++.......                                                                      .......@@@@@@@@@@@@@@+++++++++++++++++++++.......                                                                                                                                                                                                                                                                                                                 ",
"                                               .......@@@@@@@+++++++++++++++++++++++++++++++++++.......               .......@@@@@@@++++++++++++++++++++++++++++.......                                                                      .......@@@@@@@@@@@@@@+++++++++++++++++++++.......                                                                                                                                                                                                                                                                                                                 ",
"                                               .......@@@@@@@+++++++++++++++++++++++++++++++++++.......               .......@@@@@@@@@@@@@@++++++++++++++++++++++++++++.......                                                               .......@@@@@@@++++++++++++++++++++++++++++..............                                                                                                                                                                                                                                                                                                          ",
"                                               .......@@@@@@@+++++++++++++++++++++++++++++++++++.......               .......@@@@@@@@@@@@@@++++++++++++++++++++++++++++.......                                                               .......@@@@@@@++++++++++++++++++++++++++++..............                                                                                                                                                                                                                                                                                                          ",
"                                               .......@@@@@@@+++++++++++++++++++++++++++++++++++.......               .......@@@@@@@@@@@@@@++++++++++++++++++++++++++++.......                                                               .......@@@@@@@++++++++++++++++++++++++++++..............                                                                                                                                                                                                                                                                                                          ",
"                                               .......@@@@@@@+++++++++++++++++++++++++++++++++++.......               .......@@@@@@@@@@@@@@++++++++++++++++++++++++++++.......                                                               .......@@@@@@@++++++++++++++++++++++++++++..............                                                                                                                                                                                                                                                                                                          ",
"                                               .......@@@@@@@+++++++++++++++++++++++++++++++++++.......               .......@@@@@@@@@@@@@@++++++++++++++++++++++++++++.......                                                               .......@@@@@@@++++++++++++++++++++++++++++..............                                                                                                                                                                                                                                                                                                          ",
"                                               .......@@@@@@@+++++++++++++++++++++++++++++++++++.......               .......@@@@@@@@@@@@@@++++++++++++++++++++++++++++.......                                                               .......@@@@@@@++++++++++++++++++++++++++++..............                                                                                                                                                                                                                                                                                                          ",
"                                                      .......@@@@@@@++++++++++++++++++++++++++++..............        .......@@@@@@@@@@@@@@++++++++++++++++++++++++++++.......                                                               .......@@@@@@@++++++++++++++++++++++++++++..............                                                                                                                                                                                                                                                                                                          ",
"                                                      .......@@@@@@@++++++++++++++++++++++++++++..............               .......@@@@@@@@@@@@@@+++++++@@@@@@@#######..............                                                        .......@@@@@@@+++++++++++++++++++++++++++++++++++..............                                                                                                                                                                                                                                                                                                   ",
"                                                      .......@@@@@@@++++++++++++++++++++++++++++..............               .......@@@@@@@@@@@@@@+++++++@@@@@@@#######..............                                                        .......@@@@@@@+++++++++++++++++++++++++++++++++++..............                                                                                                                                                                                                                                                                                                   ",
"                                                      .......@@@@@@@++++++++++++++++++++++++++++..............               .......@@@@@@@@@@@@@@+++++++@@@@@@@#######..............                                                        .......@@@@@@@+++++++++++++++++++++++++++++++++++..............                                                                                                                                                                                                                                                                                                   ",
"                                                      .......@@@@@@@++++++++++++++++++++++++++++..............               .......@@@@@@@@@@@@@@+++++++@@@@@@@#######..............                                                        .......@@@@@@@+++++++++++++++++++++++++++++++++++..............                                                                                                                                                                                                                                                                                                   ",
"                                                      .......@@@@@@@++++++++++++++++++++++++++++..............               .......@@@@@@@@@@@@@@+++++++@@@@@@@#######..............                                                        .......@@@@@@@+++++++++++++++++++++++++++++++++++..............                                                                                                                                                                                                                                                                                                   ",
"                                                      .......@@@@@@@++++++++++++++++++++++++++++..............               .......@@@@@@@@@@@@@@+++++++@@@@@@@#######..............                                                        .......@@@@@@@+++++++++++++++++++++++++++++++++++..............                                                                                                                                                                                                                                                                                                   ",
"                          ............................       .......@@@@@@@++++++++++++++++++++++++++++.......               .......@@@@@@@@@@@@@@+++++++@@@@@@@#######..............              ............................              .......@@@@@@@+++++++++++++++++++++++++++++++++++..............                                                                                                                                                                                                                                                                                                   ",
"                          ............................       .......@@@@@@@++++++++++++++++++++++++++++.......                      .......@@@@@@@@@@@@@@##############++++++++++++++.......       ............................              .......@@@@@@@@@@@@@@++++++++++++++++++++++++++++@@@@@@@.......                                                                                                                                                                                                                                                                                                   ",
"                          ............................       .......@@@@@@@++++++++++++++++++++++++++++.......                      .......@@@@@@@@@@@@@@##############++++++++++++++.......       ............................              .......@@@@@@@@@@@@@@++++++++++++++++++++++++++++@@@@@@@.......                                                                                                                                                                                                                                                                                                   ",
"                          ............................       .......@@@@@@@++++++++++++++++++++++++++++.......                      .......@@@@@@@@@@@@@@##############++++++++++++++.......       ............................              .......@@@@@@@@@@@@@@++++++++++++++++++++++++++++@@@@@@@.......                                                                                                                                                                                                                                                                                                   ",
"                          ............................       .......@@@@@@@++++++++++++++++++++++++++++.......                      .......@@@@@@@@@@@@@@##############++++++++++++++.......       ............................              .......@@@@@@@@@@@@@@++++++++++++++++++++++++++++@@@@@@@.......                                                                                                                                                                                                                                                                                                   ",
"                          ............................       .......@@@@@@@++++++++++++++++++++++++++++.......                      .......@@@@@@@@@@@@@@##############++++++++++++++.......       ............................              .......@@@@@@@@@@@@@@++++++++++++++++++++++++++++@@@@@@@.......                                                                                                                                                                                                                                                                                                   ",
"                          ............................       .......@@@@@@@++++++++++++++++++++++++++++.......                      .......@@@@@@@@@@@@@@##############++++++++++++++.......       ............................              .......@@@@@@@@@@@@@@++++++++++++++++++++++++++++@@@@@@@.......                                                                                                                                                                                                                                                                                                   ",
"                   .......@@@@@@@+++++++++++++++++++++..............@@@@@@@++++++++++++++@@@@@@@@@@@@@@#######.......               .......@@@@@@@@@@@@@@##############++++++++++++++..............$$$$$$$$$$$$$$$$$$$$$$$$$$$$.....................@@@@@@@@@@@@@@++++++++++++++++++++++++++++@@@@@@@.......                                                                                                                                                                                                                                                                                                   ",
"                   .......@@@@@@@+++++++++++++++++++++..............@@@@@@@++++++++++++++@@@@@@@@@@@@@@#######.......                      .......%%%%%%%@@@@@@@+++++++++++++++++++++..............$$$$$$$$$$$$$$$$$$$$$$$$$$$$............................@@@@@@@+++++++++++++++++++++++++++++++++++@@@@@@@.......                                                                                                                                                                                                                                                                                            ",
"                   .......@@@@@@@+++++++++++++++++++++..............@@@@@@@++++++++++++++@@@@@@@@@@@@@@#######.......                      .......%%%%%%%@@@@@@@+++++++++++++++++++++..............$$$$$$$$$$$$$$$$$$$$$$$$$$$$............................@@@@@@@+++++++++++++++++++++++++++++++++++@@@@@@@.......                                                                                                                                                                                                                                                                                            ",
"                   .......@@@@@@@+++++++++++++++++++++..............@@@@@@@++++++++++++++@@@@@@@@@@@@@@#######.......                      .......%%%%%%%@@@@@@@+++++++++++++++++++++..............$$$$$$$$$$$$$$$$$$$$$$$$$$$$............................@@@@@@@+++++++++++++++++++++++++++++++++++@@@@@@@.......                                                                                                                                                                                                                                                                                            ",
"                   .......@@@@@@@+++++++++++++++++++++..............@@@@@@@++++++++++++++@@@@@@@@@@@@@@#######.......                      .......%%%%%%%@@@@@@@+++++++++++++++++++++..............$$$$$$$$$$$$$$$$$$$$$$$$$$$$............................@@@@@@@+++++++++++++++++++++++++++++++++++@@@@@@@.......                                                                                                                                                                                                                                                                                            ",
"                   .......@@@@@@@+++++++++++++++++++++..............@@@@@@@++++++++++++++@@@@@@@@@@@@@@#######.......                      .......%%%%%%%@@@@@@@+++++++++++++++++++++..............$$$$$$$$$$$$$$$$$$$$$$$$$$$$............................@@@@@@@+++++++++++++++++++++++++++++++++++@@@@@@@.......                                                                                                                                                                                                                                                                                            ",
"                   .......@@@@@@@+++++++++++++++++++++..............@@@@@@@++++++++++++++@@@@@@@@@@@@@@#######.......                      .......%%%%%%%@@@@@@@+++++++++++++++++++++..............$$$$$$$$$$$$$$$$$$$$$$$$$$$$............................@@@@@@@+++++++++++++++++++++++++++++++++++@@@@@@@.......                                                                                                                                                                                                                                                                                            ",
"                   .......@@@@@@@++++++++++++++++++++++++++++..............@@@@@@@@@@@@@@##############++++++++++++++.......               .......%%%%%%%@@@@@@@+++++++++++++++++++++.......$$$$$$$$$$$$$$$$$$$$$$$$$$$$$$$$$$$$$$$$$$$$$$$$$.....................+++++++++++++++++++++++++++++++++++@@@@@@@.......                                                                                                                                                                                                                                                                                            ",
"                   .......@@@@@@@++++++++++++++++++++++++++++..............@@@@@@@@@@@@@@##############++++++++++++++.......               ..............@@@@@@@+++++++++++++++++++++.......$$$$$$$$$$$$$$$$$$$$$$$$$$$$$$$$$$$$$$$$$$$$$$$$$.....................@@@@@@@@@@@@@@#######++++++++++++++@@@@@@@.......                                                                                                                                                                                                                                                                                            ",
"                   .......@@@@@@@++++++++++++++++++++++++++++..............@@@@@@@@@@@@@@##############++++++++++++++.......               ..............@@@@@@@+++++++++++++++++++++.......$$$$$$$$$$$$$$$$$$$$$$$$$$$$$$$$$$$$$$$$$$$$$$$$$.....................@@@@@@@@@@@@@@#######++++++++++++++@@@@@@@.......                                                                                                                                                                                                                                                                                            ",
"                   .......@@@@@@@++++++++++++++++++++++++++++..............@@@@@@@@@@@@@@##############++++++++++++++.......               ..............@@@@@@@+++++++++++++++++++++.......$$$$$$$$$$$$$$$$$$$$$$$$$$$$$$$$$$$$$$$$$$$$$$$$$.....................@@@@@@@@@@@@@@#######++++++++++++++@@@@@@@.......                                                                                                                                                                                                                                                                                            ",
"                   .......@@@@@@@++++++++++++++++++++++++++++..............@@@@@@@@@@@@@@##############++++++++++++++.......               ..............@@@@@@@+++++++++++++++++++++.......$$$$$$$$$$$$$$$$$$$$$$$$$$$$$$$$$$$$$$$$$$$$$$$$$.....................@@@@@@@@@@@@@@#######++++++++++++++@@@@@@@.......                                                                                                                                                                                                                                                                                            ",
"                   .......@@@@@@@++++++++++++++++++++++++++++..............@@@@@@@@@@@@@@##############++++++++++++++.......               ..............@@@@@@@+++++++++++++++++++++.......$$$$$$$$$$$$$$$$$$$$$$$$$$$$$$$$$$$$$$$$$$$$$$$$$.....................@@@@@@@@@@@@@@#######++++++++++++++@@@@@@@.......                                                                                                                                                                                                                                                                                            ",
"                   .......@@@@@@@++++++++++++++++++++++++++++..............@@@@@@@@@@@@@@##############++++++++++++++.......               ..............@@@@@@@+++++++++++++++++++++.......$$$$$$$$$$$$$$$$$$$$$$$$$$$$$$$$$$$$$$$$$$$$$$$$$.....................@@@@@@@@@@@@@@#######++++++++++++++@@@@@@@.......                                                                                                                                                                                                                                                                                            ",
"                   .......@@@@@@@++++++++++++++++++++++++++++.......       .......##############++++++++++++++++++++++++++++.......        ..............@@@@@@@@@@@@@@+++++++.......$$$$$$$$$$$$$$$$$$$$$$$$$$$$&&&&&&&$$$$$$$$$$$$$$$$$$$$$$$$$$$$$$$$$$$$$$$$$$..............#######++++++++++++++@@@@@@@.......                                                                                                                                                                                                                                                                                            ",
"                   .......@@@@@@@++++++++++++++++++++++++++++.......       .......##############++++++++++++++++++++++++++++.......               .......@@@@@@@@@@@@@@+++++++.......$$$$$$$$$$$$$$$$$$$$$$$$$$$$&&&&&&&$$$$$$$$$$$$$$$$$$$$$$$$$$$$$$$$$$$$$$$$$$..............+++++++++++++++++++++@@@@@@@..............                                                                                                                                                                                                                                                                                     ",
"                   .......@@@@@@@++++++++++++++++++++++++++++.......       .......##############++++++++++++++++++++++++++++.......               .......@@@@@@@@@@@@@@+++++++.......$$$$$$$$$$$$$$$$$$$$$$$$$$$$&&&&&&&$$$$$$$$$$$$$$$$$$$$$$$$$$$$$$$$$$$$$$$$$$..............+++++++++++++++++++++@@@@@@@..............                                                                                                                                                                                                                                                                                     ",
"                   .......@@@@@@@++++++++++++++++++++++++++++.......       .......##############++++++++++++++++++++++++++++.......               .......@@@@@@@@@@@@@@+++++++.......$$$$$$$$$$$$$$$$$$$$$$$$$$$$&&&&&&&$$$$$$$$$$$$$$$$$$$$$$$$$$$$$$$$$$$$$$$$$$..............+++++++++++++++++++++@@@@@@@..............                                                                                                                                                                                                                                                                                     ",
"                   .......@@@@@@@++++++++++++++++++++++++++++.......       .......##############++++++++++++++++++++++++++++.......               .......@@@@@@@@@@@@@@+++++++.......$$$$$$$$$$$$$$$$$$$$$$$$$$$$&&&&&&&$$$$$$$$$$$$$$$$$$$$$$$$$$$$$$$$$$$$$$$$$$..............+++++++++++++++++++++@@@@@@@..............                                                                                                                                                                                                                                                                                     ",
"                   .......@@@@@@@++++++++++++++++++++++++++++.......       .......##############++++++++++++++++++++++++++++.......               .......@@@@@@@@@@@@@@+++++++.......$$$$$$$$$$$$$$$$$$$$$$$$$$$$&&&&&&&$$$$$$$$$$$$$$$$$$$$$$$$$$$$$$$$$$$$$$$$$$..............+++++++++++++++++++++@@@@@@@..............                                                                                                                                                                                                                                                                                     ",
"                   .......@@@@@@@++++++++++++++++++++++++++++.......       .......##############++++++++++++++++++++++++++++.......               .......@@@@@@@@@@@@@@+++++++.......$$$$$$$$$$$$$$$$$$$$$$$$$$$$&&&&&&&$$$$$$$$$$$$$$$$$$$$$$$$$$$$$$$$$$$$$$$$$$..............+++++++++++++++++++++@@@@@@@..............                                                                                                                                                                                                                                                                                     ",
"                   ..............@@@@@@@++++++++++++++@@@@@@@@@@@@@@.......       .......@@@@@@@++++++++++++++++++++++++++++..............        ..............@@@@@@@.......$$$$$$$$$$$$$$$$$$$$$$$$$$$$$$$$$$$$$$$$$$$$$$$$$$$$$$$$$$$$$$$$$$$$$$&&&&&&&$$$$$$$$$$$$$$$$$$$$$.......++++++++++++++@@@@@@@..............                                                                                                                                                                                                                                                                                     ",
"                   ..............@@@@@@@++++++++++++++@@@@@@@@@@@@@@.......       .......@@@@@@@++++++++++++++++++++++++++++..............               .......@@@@@@@.......$$$$$$$$$$$$$$$$$$$$$$$$$$$$$$$$$$$$$$$$$$$$$$$$$$$$$$$$$$$$$$$$$$$$$$&&&&&&&$$$$$$$$$$$$$$$$$$$$$.......+++++++++++++++++++++@@@@@@@.......                                                                                                                                                                                                                                                                                     ",
"                   ..............@@@@@@@++++++++++++++@@@@@@@@@@@@@@.......       .......@@@@@@@++++++++++++++++++++++++++++..............               .......@@@@@@@.......$$$$$$$$$$$$$$$$$$$$$$$$$$$$$$$$$$$$$$$$$$$$$$$$$$$$$$$$$$$$$$$$$$$$$$&&&&&&&$$$$$$$$$$$$$$$$$$$$$.......+++++++++++++++++++++@@@@@@@.......                                                                                                                                                                                                                                                                                     ",
"                   ..............@@@@@@@++++++++++++++@@@@@@@@@@@@@@.......       .......@@@@@@@++++++++++++++++++++++++++++..............               .......@@@@@@@.......$$$$$$$$$$$$$$$$$$$$$$$$$$$$$$$$$$$$$$$$$$$$$$$$$$$$$$$$$$$$$$$$$$$$$$&&&&&&&$$$$$$$$$$$$$$$$$$$$$.......+++++++++++++++++++++@@@@@@@.......                                                                                                                                                                                                                                                                                     ",
"                   ..............@@@@@@@++++++++++++++@@@@@@@@@@@@@@.......       .......@@@@@@@++++++++++++++++++++++++++++..............               .......@@@@@@@.......$$$$$$$$$$$$$$$$$$$$$$$$$$$$$$$$$$$$$$$$$$$$$$$$$$$$$$$$$$$$$$$$$$$$$$&&&&&&&$$$$$$$$$$$$$$$$$$$$$.......+++++++++++++++++++++@@@@@@@.......                                                                                                                                                                                                                                                                                     ",
"                   ..............@@@@@@@++++++++++++++@@@@@@@@@@@@@@.......       .......@@@@@@@++++++++++++++++++++++++++++..............               .......@@@@@@@.......$$$$$$$$$$$$$$$$$$$$$$$$$$$$$$$$$$$$$$$$$$$$$$$$$$$$$$$$$$$$$$$$$$$$$$&&&&&&&$$$$$$$$$$$$$$$$$$$$$.......+++++++++++++++++++++@@@@@@@.......                                                                                                                                                                                                                                                                                     ",
"                   ..............@@@@@@@++++++++++++++@@@@@@@@@@@@@@.......       .......@@@@@@@++++++++++++++++++++++++++++..............               .......@@@@@@@.......$$$$$$$$$$$$$$$$$$$$$$$$$$$$$$$$$$$$$$$$$$$$$$$$$$$$$$$$$$$$$$$$$$$$$$&&&&&&&$$$$$$$$$$$$$$$$$$$$$.......+++++++++++++++++++++@@@@@@@.......                                                                                                                                                                                                                                                                                     ",
"                          .......@@@@@@@+++++++@@@@@@@@@@@@@@#######.......       .......@@@@@@@++++++++++++++++++++++++++++@@@@@@@@.......              .....................$$$$$$$$$$$$$$&&&&&&&$$$$$$$&&&&&&&$$$$$$$$$$$$$$$$$$$$$$$$$$$$$$$$$$$$$$$$$$$$$$$$$$$$$$$$$$$$$$$.......+++++++++++++++++++++@@@@@@@.......                                                                                                                                                                                                                                                                                     ",
"                          .......@@@@@@@+++++++@@@@@@@@@@@@@@#######.......       .......@@@@@@@++++++++++++++++++++++++++++@@@@@@@@.......              .....................$$$$$$$$$$$$$$&&&&&&&$$$$$$$&&&&&&&$$$$$$$$$$$$$$$$$$$$$$$$$$$$$$$$$$$$$$$$$$$$$$$$$$$$$$$$$$$$$$$.......+++++++++++++++++++++@@@@@@@.......                                                                                                                                                                                                                                                                                     ",
"                          .......@@@@@@@+++++++@@@@@@@@@@@@@@#######.......       .......@@@@@@@++++++++++++++++++++++++++++@@@@@@@@.......              .....................$$$$$$$$$$$$$$&&&&&&&$$$$$$$&&&&&&&$$$$$$$$$$$$$$$$$$$$$$$$$$$$$$$$$$$$$$$$$$$$$$$$$$$$$$$$$$$$$$$.......+++++++++++++++++++++@@@@@@@.......                                                                                                                                                                                                                                                                                     ",
"                          .......@@@@@@@+++++++@@@@@@@@@@@@@@#######.......       .......@@@@@@@++++++++++++++++++++++++++++@@@@@@@@.......              .....................$$$$$$$$$$$$$$&&&&&&&$$$$$$$&&&&&&&$$$$$$$$$$$$$$$$$$$$$$$$$$$$$$$$$$$$$$$$$$$$$$$$$$$$$$$$$$$$$$$.......+++++++++++++++++++++@@@@@@@.......                                                                                                                                                                                                                                                                                     ",
"                          .......@@@@@@@+++++++@@@@@@@@@@@@@@#######.......       .......@@@@@@@++++++++++++++++++++++++++++@@@@@@@@.......              .....................$$$$$$$$$$$$$$&&&&&&&$$$$$$$&&&&&&&$$$$$$$$$$$$$$$$$$$$$$$$$$$$$$$$$$$$$$$$$$$$$$$$$$$$$$$$$$$$$$$.......+++++++++++++++++++++@@@@@@@.......                                                                                                                                                                                                                                                                                     ",
"                          .......@@@@@@@+++++++@@@@@@@@@@@@@@#######.......       .......@@@@@@@++++++++++++++++++++++++++++@@@@@@@@.......              .....................$$$$$$$$$$$$$$&&&&&&&$$$$$$$&&&&&&&$$$$$$$$$$$$$$$$$$$$$$$$$$$$$$$$$$$$$$$$$$$$$$$$$$$$$$$$$$$$$$$.......+++++++++++++++++++++@@@@@@@.......                                                                                                                                                                                                                                                                                     ",
"                          .......@@@@@@@+++++++@@@@@@@@@@@@@@#######.......       .......@@@@@@@++++++++++++++++++++++++++++@@@@@@@@.......              .....................$$$$$$$$$$$$$$&&&&&&&$$$$$$$&&&&&&&$$$$$$$$$$$$$$$$$$$$$$$$$$$$$$$$$$$$$$$$$$$$$$$$$$$$$$$$$$$$$$$.......+++++++++++++++++++++@@@@@@@.......                                                                                                                                                                                                                                                                                     ",
"                                 .......@@@@@@@@@@@@@@#######++++++++++++++.......       .......@@@@@@@++++++++++++++@@@@@@@@@@@@@@@#######.......              ..............$$$$$$$$$$$$$$$$$$$$$$$$$$$$&&&&&&&$$$$$$$$$$$$$$&&&&&&&$$$$$$$$$$$$$$$$$$$$$$$$$$$$&&&&&&&$$$$$$$$$$$$$$.......++++++++++++++@@@@@@@.......                                                                                                                                                                                                                                                                                     ",
"                                 .......@@@@@@@@@@@@@@#######++++++++++++++.......       .......@@@@@@@++++++++++++++@@@@@@@@@@@@@@@#######.......              ..............$$$$$$$$$$$$$$$$$$$$$$$$$$$$&&&&&&&$$$$$$$$$$$$$$&&&&&&&$$$$$$$$$$$$$$$$$$$$$$$$$$$$&&&&&&&$$$$$$$$$$$$$$.......+++++++++++++++++++++@@@@@@@.......                                                                                                                                                                                                                                                                              ",
"                                 .......@@@@@@@@@@@@@@#######++++++++++++++.......       .......@@@@@@@++++++++++++++@@@@@@@@@@@@@@@#######.......              ..............$$$$$$$$$$$$$$$$$$$$$$$$$$$$&&&&&&&$$$$$$$$$$$$$$&&&&&&&$$$$$$$$$$$$$$$$$$$$$$$$$$$$&&&&&&&$$$$$$$$$$$$$$.......+++++++++++++++++++++@@@@@@@.......                                                                                                                                                                                                                                                                              ",
"                                 .......@@@@@@@@@@@@@@#######++++++++++++++.......       .......@@@@@@@++++++++++++++@@@@@@@@@@@@@@@#######.......              ..............$$$$$$$$$$$$$$$$$$$$$$$$$$$$&&&&&&&$$$$$$$$$$$$$$&&&&&&&$$$$$$$$$$$$$$$$$$$$$$$$$$$$&&&&&&&$$$$$$$$$$$$$$.......+++++++++++++++++++++@@@@@@@.......                                                                                                                                                                                                                                                                              ",
"                                 .......@@@@@@@@@@@@@@#######++++++++++++++.......       .......@@@@@@@++++++++++++++@@@@@@@@@@@@@@@#######.......              ..............$$$$$$$$$$$$$$$$$$$$$$$$$$$$&&&&&&&$$$$$$$$$$$$$$&&&&&&&$$$$$$$$$$$$$$$$$$$$$$$$$$$$&&&&&&&$$$$$$$$$$$$$$.......+++++++++++++++++++++@@@@@@@.......                                                                                                                                                                                                                                                                              ",
"                                 .......@@@@@@@@@@@@@@#######++++++++++++++.......       .......@@@@@@@++++++++++++++@@@@@@@@@@@@@@@#######.......              ..............$$$$$$$$$$$$$$$$$$$$$$$$$$$$&&&&&&&$$$$$$$$$$$$$$&&&&&&&$$$$$$$$$$$$$$$$$$$$$$$$$$$$&&&&&&&$$$$$$$$$$$$$$.......+++++++++++++++++++++@@@@@@@.......                                                                                                                                                                                                                                                                              ",
"                                 .......@@@@@@@@@@@@@@#######++++++++++++++.......       .......@@@@@@@++++++++++++++@@@@@@@@@@@@@@@#######.......              ..............$$$$$$$$$$$$$$$$$$$$$$$$$$$$&&&&&&&$$$$$$$$$$$$$$&&&&&&&$$$$$$$$$$$$$$$$$$$$$$$$$$$$&&&&&&&$$$$$$$$$$$$$$.......+++++++++++++++++++++@@@@@@@.......                                                                                                                                                                                                                                                                              ",
"            ............................##############@@@@@@@+++++++++++++++++++++.......       .......@@@@@@@@@@@@@@###############++++++++++++++..............$$$$$$$$$$$$$$$$$$$$$$$$$$$$$$$$$$$$$$$$$$$$$$$$$&&&&&&&$$$$$$$&&&&&&&$$$$$$$&&&&&&&$$$$$$$&&&&&&&$$$$$$$$$$$$$$$$$$$$$.......+++++++++++++++++++++@@@@@@@.......                                                                                                                                                                                                                                                                              ",
"            ............................##############@@@@@@@+++++++++++++++++++++.......       .......@@@@@@@@@@@@@@###############++++++++++++++..............$$$$$$$$$$$$$$$$$$$$$$$$$$$$$$$$$$$$$$$$$$$$$$$$$&&&&&&&$$$$$$$&&&&&&&$$$$$$$&&&&&&&$$$$$$$&&&&&&&$$$$$$$$$$$$$$$$$$$$$.......+++++++++++++++++++++@@@@@@@..............                                                                                                                                                                                                                                                                       ",
"            ............................##############@@@@@@@+++++++++++++++++++++.......       .......@@@@@@@@@@@@@@###############++++++++++++++..............$$$$$$$$$$$$$$$$$$$$$$$$$$$$$$$$$$$$$$$$$$$$$$$$$&&&&&&&$$$$$$$&&&&&&&$$$$$$$&&&&&&&$$$$$$$&&&&&&&$$$$$$$$$$$$$$$$$$$$$.......+++++++++++++++++++++@@@@@@@..............                                                                                                                                                                                                                                                                       ",
"            ............................##############@@@@@@@+++++++++++++++++++++.......       .......@@@@@@@@@@@@@@###############++++++++++++++..............$$$$$$$$$$$$$$$$$$$$$$$$$$$$$$$$$$$$$$$$$$$$$$$$$&&&&&&&$$$$$$$&&&&&&&$$$$$$$&&&&&&&$$$$$$$&&&&&&&$$$$$$$$$$$$$$$$$$$$$.......+++++++++++++++++++++@@@@@@@..............                                                                                                                                                                                                                                                                       ",
"            ............................##############@@@@@@@+++++++++++++++++++++.......       .......@@@@@@@@@@@@@@###############++++++++++++++..............$$$$$$$$$$$$$$$$$$$$$$$$$$$$$$$$$$$$$$$$$$$$$$$$$&&&&&&&$$$$$$$&&&&&&&$$$$$$$&&&&&&&$$$$$$$&&&&&&&$$$$$$$$$$$$$$$$$$$$$.......+++++++++++++++++++++@@@@@@@..............                                                                                                                                                                                                                                                                       ",
"            ............................##############@@@@@@@+++++++++++++++++++++.......       .......@@@@@@@@@@@@@@###############++++++++++++++..............$$$$$$$$$$$$$$$$$$$$$$$$$$$$$$$$$$$$$$$$$$$$$$$$$&&&&&&&$$$$$$$&&&&&&&$$$$$$$&&&&&&&$$$$$$$&&&&&&&$$$$$$$$$$$$$$$$$$$$$.......+++++++++++++++++++++@@@@@@@..............                                                                                                                                                                                                                                                                       ",
"            ............................##############@@@@@@@+++++++++++++++++++++.......       .......@@@@@@@@@@@@@@###############++++++++++++++..............$$$$$$$$$$$$$$$$$$$$$$$$$$$$$$$$$$$$$$$$$$$$$$$$$&&&&&&&$$$$$$$&&&&&&&$$$$$$$&&&&&&&$$$$$$$&&&&&&&$$$$$$$$$$$$$$$$$$$$$.......+++++++++++++++++++++@@@@@@@..............                                                                                                                                                                                                                                                                       ",
"     .......@@@@@@@+++++++++++++++++++++.......@@@@@@@+++++++++++++++++++++++++++++++++++.....................##############@@@@@@@++++++++++++++++++++++.......$$$$$$$&&&&&&&$$$$$$$$$$$$$$$$$$$$$$$$$$$$$$$$$$$$$$$$$$&&&&&&&$$$$$$$$$$$$$$$$$$$$$$$$$$$$&&&&&&&$$$$$$$$$$$$$$$$$$$$$.......+++++++++++++++++++++@@@@@@@..............                                                                                                                                                                                                                                                                       ",
"     .......@@@@@@@+++++++++++++++++++++.......@@@@@@@+++++++++++++++++++++++++++++++++++.....................##############@@@@@@@++++++++++++++++++++++.......$$$$$$$&&&&&&&$$$$$$$$$$$$$$$$$$$$$$$$$$$$$$$$$$$$$$$$$$&&&&&&&$$$$$$$$$$$$$$$$$$$$$$$$$$$$&&&&&&&$$$$$$$$$$$$$$$$$$$$$.......++++++++++++++++++++++++++++@@@@@@@..............                                                                                                                                                                                                                                                                ",
"     .......@@@@@@@+++++++++++++++++++++.......@@@@@@@+++++++++++++++++++++++++++++++++++.....................##############@@@@@@@++++++++++++++++++++++.......$$$$$$$&&&&&&&$$$$$$$$$$$$$$$$$$$$$$$$$$$$$$$$$$$$$$$$$$&&&&&&&$$$$$$$$$$$$$$$$$$$$$$$$$$$$&&&&&&&$$$$$$$$$$$$$$$$$$$$$.......++++++++++++++++++++++++++++@@@@@@@..............                                                                                                                                                                                                                                                                ",
"     .......@@@@@@@+++++++++++++++++++++.......@@@@@@@+++++++++++++++++++++++++++++++++++.....................##############@@@@@@@++++++++++++++++++++++.......$$$$$$$&&&&&&&$$$$$$$$$$$$$$$$$$$$$$$$$$$$$$$$$$$$$$$$$$&&&&&&&$$$$$$$$$$$$$$$$$$$$$$$$$$$$&&&&&&&$$$$$$$$$$$$$$$$$$$$$.......++++++++++++++++++++++++++++@@@@@@@..............                                                                                                                                                                                                                                                                ",
"     .......@@@@@@@+++++++++++++++++++++.......@@@@@@@+++++++++++++++++++++++++++++++++++.....................##############@@@@@@@++++++++++++++++++++++.......$$$$$$$&&&&&&&$$$$$$$$$$$$$$$$$$$$$$$$$$$$$$$$$$$$$$$$$$&&&&&&&$$$$$$$$$$$$$$$$$$$$$$$$$$$$&&&&&&&$$$$$$$$$$$$$$$$$$$$$.......++++++++++++++++++++++++++++@@@@@@@..............                                                                                                                                                                                                                                                                ",
"     .......@@@@@@@+++++++++++++++++++++.......@@@@@@@+++++++++++++++++++++++++++++++++++.....................##############@@@@@@@++++++++++++++++++++++.......$$$$$$$&&&&&&&$$$$$$$$$$$$$$$$$$$$$$$$$$$$$$$$$$$$$$$$$$&&&&&&&$$$$$$$$$$$$$$$$$$$$$$$$$$$$&&&&&&&$$$$$$$$$$$$$$$$$$$$$.......++++++++++++++++++++++++++++@@@@@@@..............                                                                                                                                                                                                                                                                ",
"     .......@@@@@@@+++++++++++++++++++++.......@@@@@@@+++++++++++++++++++++++++++++++++++.....................##############@@@@@@@++++++++++++++++++++++.......$$$$$$$&&&&&&&$$$$$$$$$$$$$$$$$$$$$$$$$$$$$$$$$$$$$$$$$$&&&&&&&$$$$$$$$$$$$$$$$$$$$$$$$$$$$&&&&&&&$$$$$$$$$$$$$$$$$$$$$.......++++++++++++++++++++++++++++@@@@@@@..............                                                                                                                                                                                                                                                                ",
"     .......@@@@@@@++++++++++++++++++++++++++++.......@@@@@@@++++++++++++++++++++++++++++.......       ..............@@@@@@@++++++++++++++++++++++.......$$$$$$$$$$$$$$$$$$$$$$$$$$$$$$$$$$$$$$$$$$&&&&&&&$$$$$$$&&&&&&&$$$$$$$$$$$$$$$$$$$$$$$$$$$$&&&&&&&$$$$$$$$$$$$$$$$$$$$$$$$$$$$$$$$$$$.......+++++++++++++++++++++@@@@@@@..............                                                                                                                                                                                                                                                                ",
"     .......@@@@@@@++++++++++++++++++++++++++++.......@@@@@@@++++++++++++++++++++++++++++.......       ..............@@@@@@@++++++++++++++++++++++.......$$$$$$$$$$$$$$$$$$$$$$$$$$$$$$$$$$$$$$$$$$&&&&&&&$$$$$$$&&&&&&&$$$$$$$$$$$$$$$$$$$$$$$$$$$$&&&&&&&$$$$$$$$$$$$$$$$$$$$$$$$$$$$$$$$$$$.......++++++++++++++++++++++++++++@@@@@@@.......                                                                                                                                                                                                                                                                ",
"     .......@@@@@@@++++++++++++++++++++++++++++.......@@@@@@@++++++++++++++++++++++++++++.......       ..............@@@@@@@++++++++++++++++++++++.......$$$$$$$$$$$$$$$$$$$$$$$$$$$$$$$$$$$$$$$$$$&&&&&&&$$$$$$$&&&&&&&$$$$$$$$$$$$$$$$$$$$$$$$$$$$&&&&&&&$$$$$$$$$$$$$$$$$$$$$$$$$$$$$$$$$$$.......++++++++++++++++++++++++++++@@@@@@@.......                                                                                                                                                                                                                                                                ",
"     .......@@@@@@@++++++++++++++++++++++++++++.......@@@@@@@++++++++++++++++++++++++++++.......       ..............@@@@@@@++++++++++++++++++++++.......$$$$$$$$$$$$$$$$$$$$$$$$$$$$$$$$$$$$$$$$$$&&&&&&&$$$$$$$&&&&&&&$$$$$$$$$$$$$$$$$$$$$$$$$$$$&&&&&&&$$$$$$$$$$$$$$$$$$$$$$$$$$$$$$$$$$$.......++++++++++++++++++++++++++++@@@@@@@.......                                                                                                                                                                                                                                                                ",
"     .......@@@@@@@++++++++++++++++++++++++++++.......@@@@@@@++++++++++++++++++++++++++++.......       ..............@@@@@@@++++++++++++++++++++++.......$$$$$$$$$$$$$$$$$$$$$$$$$$$$$$$$$$$$$$$$$$&&&&&&&$$$$$$$&&&&&&&$$$$$$$$$$$$$$$$$$$$$$$$$$$$&&&&&&&$$$$$$$$$$$$$$$$$$$$$$$$$$$$$$$$$$$.......++++++++++++++++++++++++++++@@@@@@@.......                                                                                                                                                                                                                                                                ",
"     .......@@@@@@@++++++++++++++++++++++++++++.......@@@@@@@++++++++++++++++++++++++++++.......       ..............@@@@@@@++++++++++++++++++++++.......$$$$$$$$$$$$$$$$$$$$$$$$$$$$$$$$$$$$$$$$$$&&&&&&&$$$$$$$&&&&&&&$$$$$$$$$$$$$$$$$$$$$$$$$$$$&&&&&&&$$$$$$$$$$$$$$$$$$$$$$$$$$$$$$$$$$$.......++++++++++++++++++++++++++++@@@@@@@.......                                                                                                                                                                                                                                                                ",
"     .......@@@@@@@++++++++++++++++++++++++++++.......@@@@@@@++++++++++++++++++++++++++++.......       ..............@@@@@@@++++++++++++++++++++++.......$$$$$$$$$$$$$$$$$$$$$$$$$$$$$$$$$$$$$$$$$$&&&&&&&$$$$$$$&&&&&&&$$$$$$$$$$$$$$$$$$$$$$$$$$$$&&&&&&&$$$$$$$$$$$$$$$$$$$$$$$$$$$$$$$$$$$.......++++++++++++++++++++++++++++@@@@@@@.......                                                                                                                                                                                                                                                                ",
"     .......@@@@@@@++++++++++++++++++++++++++++..............@@@@@@@+++++++++++++++++++++@@@@@@@.......       .......@@@@@@@++++++++++++++++++++++.......$$$$$$$$$$$$$$$$$$$$$&&&&&&&$$$$$$$$$$$$$$$$$$$$$$$$$$$$&&&&&&&&&&&&&&$$$$$$$$$$$$$$$$$$$$$&&&&&&&$$$$$$$$$$$$$$&&&&&&&$$$$$$$$$$$$$$$$$$$$$.......+++++++++++++++++++++@@@@@@@.......                                                                                                                                                                                                                                                                ",
"     .......@@@@@@@++++++++++++++++++++++++++++..............@@@@@@@+++++++++++++++++++++@@@@@@@.......       .......@@@@@@@++++++++++++++++++++++.......$$$$$$$$$$$$$$$$$$$$$&&&&&&&$$$$$$$$$$$$$$$$$$$$$$$$$$$$&&&&&&&&&&&&&&$$$$$$$$$$$$$$$$$$$$$&&&&&&&$$$$$$$$$$$$$$&&&&&&&$$$$$$$$$$$$$$$$$$$$$.......+++++++++++++++++++++@@@@@@@.......                                                                                                                                                                                                                                                                ",
"     .......@@@@@@@++++++++++++++++++++++++++++..............@@@@@@@+++++++++++++++++++++@@@@@@@.......       .......@@@@@@@++++++++++++++++++++++.......$$$$$$$$$$$$$$$$$$$$$&&&&&&&$$$$$$$$$$$$$$$$$$$$$$$$$$$$&&&&&&&&&&&&&&$$$$$$$$$$$$$$$$$$$$$&&&&&&&$$$$$$$$$$$$$$&&&&&&&$$$$$$$$$$$$$$$$$$$$$.......+++++++++++++++++++++@@@@@@@.......                                                                                                                                                                                                                                                                ",
"     .......@@@@@@@++++++++++++++++++++++++++++..............@@@@@@@+++++++++++++++++++++@@@@@@@.......       .......@@@@@@@++++++++++++++++++++++.......$$$$$$$$$$$$$$$$$$$$$&&&&&&&$$$$$$$$$$$$$$$$$$$$$$$$$$$$&&&&&&&&&&&&&&$$$$$$$$$$$$$$$$$$$$$&&&&&&&$$$$$$$$$$$$$$&&&&&&&$$$$$$$$$$$$$$$$$$$$$.......+++++++++++++++++++++@@@@@@@.......                                                                                                                                                                                                                                                                ",
"     .......@@@@@@@++++++++++++++++++++++++++++..............@@@@@@@+++++++++++++++++++++@@@@@@@.......       .......@@@@@@@++++++++++++++++++++++.......$$$$$$$$$$$$$$$$$$$$$&&&&&&&$$$$$$$$$$$$$$$$$$$$$$$$$$$$&&&&&&&&&&&&&&$$$$$$$$$$$$$$$$$$$$$&&&&&&&$$$$$$$$$$$$$$&&&&&&&$$$$$$$$$$$$$$$$$$$$$.......+++++++++++++++++++++@@@@@@@.......                                                                                                                                                                                                                                                                ",
"     .......@@@@@@@++++++++++++++++++++++++++++..............@@@@@@@+++++++++++++++++++++@@@@@@@.......       .......@@@@@@@++++++++++++++++++++++.......$$$$$$$$$$$$$$$$$$$$$&&&&&&&$$$$$$$$$$$$$$$$$$$$$$$$$$$$&&&&&&&&&&&&&&$$$$$$$$$$$$$$$$$$$$$&&&&&&&$$$$$$$$$$$$$$&&&&&&&$$$$$$$$$$$$$$$$$$$$$.......+++++++++++++++++++++@@@@@@@.......                                                                                                                                                                                                                                                                ",
"     .......@@@@@@@++++++++++++++++++++++++++++..............@@@@@@@+++++++++++++++++++++@@@@@@@.......       .......@@@@@@@++++++++++++++++++++++.......$$$$$$$$$$$$$$$$$$$$$&&&&&&&$$$$$$$$$$$$$$$$$$$$$$$$$$$$&&&&&&&&&&&&&&$$$$$$$$$$$$$$$$$$$$$&&&&&&&$$$$$$$$$$$$$$&&&&&&&$$$$$$$$$$$$$$$$$$$$$.......+++++++++++++++++++++@@@@@@@.......                                                                                                                                                                                                                                                                ",
"     ..............@@@@@@@+++++++++++++++++++++@@@@@@@.......@@@@@@@@@@@@@@+++++++@@@@@@@#######+++++++.......       .......@@@@@@@+++++++++++++++.......$$$$$$$$$$$$$$$$$$$$$$$$$$$$&&&&&&&&&&&&&&$$$$$$$$$$$$$$$$$$$$$&&&&&&&$$$$$$$$$$$$$$&&&&&&&$$$$$$$$$$$$$$&&&&&&&$$$$$$$$$$$$$$$$$$$$$.......++++++++++++++++++++++++++++@@@@@@@.......                                                                                                                                                                                                                                                                ",
"     ..............@@@@@@@+++++++++++++++++++++@@@@@@@.......@@@@@@@@@@@@@@+++++++@@@@@@@#######+++++++.......       .......@@@@@@@+++++++++++++++.......$$$$$$$$$$$$$$$$$$$$$$$$$$$$&&&&&&&&&&&&&&$$$$$$$$$$$$$$$$$$$$$&&&&&&&$$$$$$$$$$$$$$&&&&&&&$$$$$$$$$$$$$$&&&&&&&$$$$$$$$$$$$$$$$$$$$$.......++++++++++++++++++++++++++++@@@@@@@.......                                                                                                                                                                                                                                                                ",
"     ..............@@@@@@@+++++++++++++++++++++@@@@@@@.......@@@@@@@@@@@@@@+++++++@@@@@@@#######+++++++.......       .......@@@@@@@+++++++++++++++.......$$$$$$$$$$$$$$$$$$$$$$$$$$$$&&&&&&&&&&&&&&$$$$$$$$$$$$$$$$$$$$$&&&&&&&$$$$$$$$$$$$$$&&&&&&&$$$$$$$$$$$$$$&&&&&&&$$$$$$$$$$$$$$$$$$$$$.......++++++++++++++++++++++++++++@@@@@@@.......                                                                                                                                                                                                                                                                ",
"     ..............@@@@@@@+++++++++++++++++++++@@@@@@@.......@@@@@@@@@@@@@@+++++++@@@@@@@#######+++++++.......       .......@@@@@@@+++++++++++++++.......$$$$$$$$$$$$$$$$$$$$$$$$$$$$&&&&&&&&&&&&&&$$$$$$$$$$$$$$$$$$$$$&&&&&&&$$$$$$$$$$$$$$&&&&&&&$$$$$$$$$$$$$$&&&&&&&$$$$$$$$$$$$$$$$$$$$$.......++++++++++++++++++++++++++++@@@@@@@.......                                                                                                                                                                                                                                                                ",
"     ..............@@@@@@@+++++++++++++++++++++@@@@@@@.......@@@@@@@@@@@@@@+++++++@@@@@@@#######+++++++.......       .......@@@@@@@+++++++++++++++.......$$$$$$$$$$$$$$$$$$$$$$$$$$$$&&&&&&&&&&&&&&$$$$$$$$$$$$$$$$$$$$$&&&&&&&$$$$$$$$$$$$$$&&&&&&&$$$$$$$$$$$$$$&&&&&&&$$$$$$$$$$$$$$$$$$$$$.......++++++++++++++++++++++++++++@@@@@@@.......                                                                                                                                                                                                                                                                ",
"     ..............@@@@@@@+++++++++++++++++++++@@@@@@@.......@@@@@@@@@@@@@@+++++++@@@@@@@#######+++++++.......       .......@@@@@@@+++++++++++++++.......$$$$$$$$$$$$$$$$$$$$$$$$$$$$&&&&&&&&&&&&&&$$$$$$$$$$$$$$$$$$$$$&&&&&&&$$$$$$$$$$$$$$&&&&&&&$$$$$$$$$$$$$$&&&&&&&$$$$$$$$$$$$$$$$$$$$$.......++++++++++++++++++++++++++++@@@@@@@.......                                                                                                                                                                                                                                                                ",
"     ..............@@@@@@@+++++++++++++++++++++@@@@@@@.......@@@@@@@@@@@@@@+++++++@@@@@@@#######+++++++.......       .......@@@@@@@+++++++++++++++.......$$$$$$$$$$$$$$$$$$$$$$$$$$$$&&&&&&&&&&&&&&$$$$$$$$$$$$$$$$$$$$$&&&&&&&$$$$$$$$$$$$$$&&&&&&&$$$$$$$$$$$$$$&&&&&&&$$$$$$$$$$$$$$$$$$$$$.......++++++++++++++++++++++++++++@@@@@@@.......                                                                                                                                                                                                                                                                ",
"            .......@@@@@@@++++++++++++++@@@@@@@@@@@@@@..............@@@@@@@##############@@@@@@@++++++++++++++..............@@@@@@@@@@@@@@+++++++@@@@@@@@.......$$$$$$$$$$$$$$$$$$$$$$$$$$$$&&&&&&&&&&&&&&$$$$$$$$$$$$$$&&&&&&&&&&&&&&&&&&&&&&&&&&&&$$$$$$$$$$$$$$&&&&&&&$$$$$$$$$$$$$$$$$$$$$$$$$$$$.......+++++++++++++++++++++@@@@@@@.......                                                                                                                                                                                                                                                                ",
"            .......@@@@@@@++++++++++++++@@@@@@@@@@@@@@..............@@@@@@@##############@@@@@@@++++++++++++++..............@@@@@@@@@@@@@@+++++++@@@@@@@@.......$$$$$$$$$$$$$$$$$$$$$$$$$$$$&&&&&&&&&&&&&&$$$$$$$$$$$$$$&&&&&&&&&&&&&&&&&&&&&&&&&&&&$$$$$$$$$$$$$$&&&&&&&$$$$$$$$$$$$$$$$$$$$$$$$$$$$.......+++++++++++++++++++++@@@@@@@.......                                                                                                                                                                                                                                                                ",
"            .......@@@@@@@++++++++++++++@@@@@@@@@@@@@@..............@@@@@@@##############@@@@@@@++++++++++++++..............@@@@@@@@@@@@@@+++++++@@@@@@@@.......$$$$$$$$$$$$$$$$$$$$$$$$$$$$&&&&&&&&&&&&&&$$$$$$$$$$$$$$&&&&&&&&&&&&&&&&&&&&&&&&&&&&$$$$$$$$$$$$$$&&&&&&&$$$$$$$$$$$$$$$$$$$$$$$$$$$$.......+++++++++++++++++++++@@@@@@@.......                                                                                                                                                                                                                                                                ",
"            .......@@@@@@@++++++++++++++@@@@@@@@@@@@@@..............@@@@@@@##############@@@@@@@++++++++++++++..............@@@@@@@@@@@@@@+++++++@@@@@@@@.......$$$$$$$$$$$$$$$$$$$$$$$$$$$$&&&&&&&&&&&&&&$$$$$$$$$$$$$$&&&&&&&&&&&&&&&&&&&&&&&&&&&&$$$$$$$$$$$$$$&&&&&&&$$$$$$$$$$$$$$$$$$$$$$$$$$$$.......+++++++++++++++++++++@@@@@@@.......                                                                                                                                                                                                                                                                ",
"            .......@@@@@@@++++++++++++++@@@@@@@@@@@@@@..............@@@@@@@##############@@@@@@@++++++++++++++..............@@@@@@@@@@@@@@+++++++@@@@@@@@.......$$$$$$$$$$$$$$$$$$$$$$$$$$$$&&&&&&&&&&&&&&$$$$$$$$$$$$$$&&&&&&&&&&&&&&&&&&&&&&&&&&&&$$$$$$$$$$$$$$&&&&&&&$$$$$$$$$$$$$$$$$$$$$$$$$$$$.......+++++++++++++++++++++@@@@@@@.......                                                                                                                                                                                                                                                                ",
"            .......@@@@@@@++++++++++++++@@@@@@@@@@@@@@..............@@@@@@@##############@@@@@@@++++++++++++++..............@@@@@@@@@@@@@@+++++++@@@@@@@@.......$$$$$$$$$$$$$$$$$$$$$$$$$$$$&&&&&&&&&&&&&&$$$$$$$$$$$$$$&&&&&&&&&&&&&&&&&&&&&&&&&&&&$$$$$$$$$$$$$$&&&&&&&$$$$$$$$$$$$$$$$$$$$$$$$$$$$.......+++++++++++++++++++++@@@@@@@.......                                                                                                                                                                                                                                                                ",
"            .......@@@@@@@++++++++++++++@@@@@@@@@@@@@@..............@@@@@@@##############@@@@@@@++++++++++++++..............@@@@@@@@@@@@@@+++++++@@@@@@@@.......$$$$$$$$$$$$$$$$$$$$$$$$$$$$&&&&&&&&&&&&&&$$$$$$$$$$$$$$&&&&&&&&&&&&&&&&&&&&&&&&&&&&$$$$$$$$$$$$$$&&&&&&&$$$$$$$$$$$$$$$$$$$$$$$$$$$$.......+++++++++++++++++++++@@@@@@@.......                                                                                                                                                                                                                                                                ",
"            ..............@@@@@@@@@@@@@@@@@@@@@#######.......       .......@@@@@@@@@@@@@@+++++++++++++++++++++++++++++++++++.......@@@@@@@@@@@@@@########.......$$$$$$$$$$$$$$&&&&&&&$$$$$$$$$$$$$$&&&&&&&&&&&&&&$$$$$$$&&&&&&&&&&&&&&&&&&&&&$$$$$$$$$$$$$$$$$$$$$$$$$$$$$$$$$$$$$$$$$$&&&&&&&$$$$$$$$$$$$$$.......++++++++++++++@@@@@@@.......                                                                                                                                                                                                                                                                ",
"            ..............@@@@@@@@@@@@@@@@@@@@@#######.......       .......@@@@@@@@@@@@@@+++++++++++++++++++++++++++++++++++.......@@@@@@@@@@@@@@########.......$$$$$$$$$$$$$$&&&&&&&$$$$$$$$$$$$$$&&&&&&&&&&&&&&$$$$$$$&&&&&&&&&&&&&&&&&&&&&$$$$$$$$$$$$$$$$$$$$$$$$$$$$$$$$$$$$$$$$$$&&&&&&&$$$$$$$$$$$$$$.......++++++++++++++@@@@@@@.......                                                                                                                                                                                                                                                                ",
"            ..............@@@@@@@@@@@@@@@@@@@@@#######.......       .......@@@@@@@@@@@@@@+++++++++++++++++++++++++++++++++++.......@@@@@@@@@@@@@@########.......$$$$$$$$$$$$$$&&&&&&&$$$$$$$$$$$$$$&&&&&&&&&&&&&&$$$$$$$&&&&&&&&&&&&&&&&&&&&&$$$$$$$$$$$$$$$$$$$$$$$$$$$$$$$$$$$$$$$$$$&&&&&&&$$$$$$$$$$$$$$.......++++++++++++++@@@@@@@.......                                                                                                                                                                                                                                                                ",
"            ..............@@@@@@@@@@@@@@@@@@@@@#######.......       .......@@@@@@@@@@@@@@+++++++++++++++++++++++++++++++++++.......@@@@@@@@@@@@@@########.......$$$$$$$$$$$$$$&&&&&&&$$$$$$$$$$$$$$&&&&&&&&&&&&&&$$$$$$$&&&&&&&&&&&&&&&&&&&&&$$$$$$$$$$$$$$$$$$$$$$$$$$$$$$$$$$$$$$$$$$&&&&&&&$$$$$$$$$$$$$$.......++++++++++++++@@@@@@@.......                                                                                                                                                                                                                                                                ",
"            ..............@@@@@@@@@@@@@@@@@@@@@#######.......       .......@@@@@@@@@@@@@@+++++++++++++++++++++++++++++++++++.......@@@@@@@@@@@@@@########.......$$$$$$$$$$$$$$&&&&&&&$$$$$$$$$$$$$$&&&&&&&&&&&&&&$$$$$$$&&&&&&&&&&&&&&&&&&&&&$$$$$$$$$$$$$$$$$$$$$$$$$$$$$$$$$$$$$$$$$$&&&&&&&$$$$$$$$$$$$$$.......++++++++++++++@@@@@@@.......                                                                                                                                                                                                                                                                ",
"            ..............@@@@@@@@@@@@@@@@@@@@@#######.......       .......@@@@@@@@@@@@@@+++++++++++++++++++++++++++++++++++.......@@@@@@@@@@@@@@########.......$$$$$$$$$$$$$$&&&&&&&$$$$$$$$$$$$$$&&&&&&&&&&&&&&$$$$$$$&&&&&&&&&&&&&&&&&&&&&$$$$$$$$$$$$$$$$$$$$$$$$$$$$$$$$$$$$$$$$$$&&&&&&&$$$$$$$$$$$$$$.......++++++++++++++@@@@@@@.......                                                                                                                                                                                                                                                                ",
"            ..............@@@@@@@@@@@@@@@@@@@@@#######.......       .......@@@@@@@@@@@@@@+++++++++++++++++++++++++++++++++++.......@@@@@@@@@@@@@@########.......$$$$$$$$$$$$$$&&&&&&&$$$$$$$$$$$$$$&&&&&&&&&&&&&&$$$$$$$&&&&&&&&&&&&&&&&&&&&&$$$$$$$$$$$$$$$$$$$$$$$$$$$$$$$$$$$$$$$$$$&&&&&&&$$$$$$$$$$$$$$.......++++++++++++++@@@@@@@.......                                                                                                                                                                                                                                                                ",
"                   .......@@@@@@@##############@@@@@@@+++++++..............@@@@@@@++++++++++++++++++++++++++++++++++++++++++.....................#######++++++++.......$$$$$$$$$$$$$$$$$$$$$$$$$$$$$$$$$$$$$$$$$$&&&&&&&&&&&&&&&&&&&&&&&&&&&&$$$$$$$$$$$$$$$$$$$$$$$$$$$$&&&&&&&$$$$$$$$$$$$$$$$$$$$$$$$$$$$.......++++++++++++++@@@@@@@.......                                                                                                                                                                                                                                                                ",
"                   .......@@@@@@@##############@@@@@@@+++++++..............@@@@@@@++++++++++++++++++++++++++++++++++++++++++.....................#######++++++++.......$$$$$$$$$$$$$$$$$$$$$$$$$$$$$$$$$$$$$$$$$$&&&&&&&&&&&&&&&&&&&&&&&&&&&&$$$$$$$$$$$$$$$$$$$$$$$$$$$$&&&&&&&$$$$$$$$$$$$$$$$$$$$$$$$$$$$.......++++++++++++++@@@@@@@.......                                                                                                                                                                                                                                                                ",
"                   .......@@@@@@@##############@@@@@@@+++++++..............@@@@@@@++++++++++++++++++++++++++++++++++++++++++.....................#######++++++++.......$$$$$$$$$$$$$$$$$$$$$$$$$$$$$$$$$$$$$$$$$$&&&&&&&&&&&&&&&&&&&&&&&&&&&&$$$$$$$$$$$$$$$$$$$$$$$$$$$$&&&&&&&$$$$$$$$$$$$$$$$$$$$$$$$$$$$.......++++++++++++++@@@@@@@.......                                                                                                                                                                                                                                                                ",
"                   .......@@@@@@@##############@@@@@@@+++++++..............@@@@@@@++++++++++++++++++++++++++++++++++++++++++.....................#######++++++++.......$$$$$$$$$$$$$$$$$$$$$$$$$$$$$$$$$$$$$$$$$$&&&&&&&&&&&&&&&&&&&&&&&&&&&&$$$$$$$$$$$$$$$$$$$$$$$$$$$$&&&&&&&$$$$$$$$$$$$$$$$$$$$$$$$$$$$.......++++++++++++++@@@@@@@.......                                                                                                                                                                                                                                                                ",
"                   .......@@@@@@@##############@@@@@@@+++++++..............@@@@@@@++++++++++++++++++++++++++++++++++++++++++.....................#######++++++++.......$$$$$$$$$$$$$$$$$$$$$$$$$$$$$$$$$$$$$$$$$$&&&&&&&&&&&&&&&&&&&&&&&&&&&&$$$$$$$$$$$$$$$$$$$$$$$$$$$$&&&&&&&$$$$$$$$$$$$$$$$$$$$$$$$$$$$.......++++++++++++++@@@@@@@.......                                                                                                                                                                                                                                                                ",
"                   .......@@@@@@@##############@@@@@@@+++++++..............@@@@@@@++++++++++++++++++++++++++++++++++++++++++.....................#######++++++++.......$$$$$$$$$$$$$$$$$$$$$$$$$$$$$$$$$$$$$$$$$$&&&&&&&&&&&&&&&&&&&&&&&&&&&&$$$$$$$$$$$$$$$$$$$$$$$$$$$$&&&&&&&$$$$$$$$$$$$$$$$$$$$$$$$$$$$.......++++++++++++++@@@@@@@.......                                                                                                                                                                                                                                                                ",
"                   .......@@@@@@@##############@@@@@@@+++++++..............@@@@@@@++++++++++++++++++++++++++++++++++++++++++.....................#######++++++++.......$$$$$$$$$$$$$$$$$$$$$$$$$$$$$$$$$$$$$$$$$$&&&&&&&&&&&&&&&&&&&&&&&&&&&&$$$$$$$$$$$$$$$$$$$$$$$$$$$$&&&&&&&$$$$$$$$$$$$$$$$$$$$$$$$$$$$.......++++++++++++++@@@@@@@.......                                                                                                                                                                                                                                                                ",
"                   ..............@@@@@@@@@@@@@@+++++++++++++++++++++..............@@@@@@@+++++++++++++++++++++++++++++++++++@@@@@@@.......++++++++++++++++++++++.......$$$$$$$$$$$$$$$$$$$$$$$$$$$$$$$$$$$$$$$$$$$$$$$$$$$$$$$$&&&&&&&&&&&&&&&&&&&&&$$$$$$$$$$$$$$$$$$$$$&&&&&&&$$$$$$$$$$$$$$$$$$$$$$$$$$$$.......++++++++++++++@@@@@@@.......                                                                                                                                                                                                                                                                ",
"                   ..............@@@@@@@@@@@@@@+++++++++++++++++++++..............@@@@@@@+++++++++++++++++++++++++++++++++++@@@@@@@.......++++++++++++++++++++++.......$$$$$$$$$$$$$$$$$$$$$$$$$$$$$$$$$$$$$$$$$$$$$$$$$$$$$$$$&&&&&&&&&&&&&&&&&&&&&$$$$$$$$$$$$$$$$$$$$$&&&&&&&$$$$$$$$$$$$$$$$$$$$$$$$$$$$.......++++++++++++++@@@@@@@..............                                                                                                                                                                                                                                                         ",
"                   ..............@@@@@@@@@@@@@@+++++++++++++++++++++..............@@@@@@@+++++++++++++++++++++++++++++++++++@@@@@@@.......++++++++++++++++++++++.......$$$$$$$$$$$$$$$$$$$$$$$$$$$$$$$$$$$$$$$$$$$$$$$$$$$$$$$$&&&&&&&&&&&&&&&&&&&&&$$$$$$$$$$$$$$$$$$$$$&&&&&&&$$$$$$$$$$$$$$$$$$$$$$$$$$$$.......++++++++++++++@@@@@@@..............                                                                                                                                                                                                                                                         ",
"                   ..............@@@@@@@@@@@@@@+++++++++++++++++++++..............@@@@@@@+++++++++++++++++++++++++++++++++++@@@@@@@.......++++++++++++++++++++++.......$$$$$$$$$$$$$$$$$$$$$$$$$$$$$$$$$$$$$$$$$$$$$$$$$$$$$$$$&&&&&&&&&&&&&&&&&&&&&$$$$$$$$$$$$$$$$$$$$$&&&&&&&$$$$$$$$$$$$$$$$$$$$$$$$$$$$.......++++++++++++++@@@@@@@..............                                                                                                                                                                                                                                                         ",
"                   ..............@@@@@@@@@@@@@@+++++++++++++++++++++..............@@@@@@@+++++++++++++++++++++++++++++++++++@@@@@@@.......++++++++++++++++++++++.......$$$$$$$$$$$$$$$$$$$$$$$$$$$$$$$$$$$$$$$$$$$$$$$$$$$$$$$$&&&&&&&&&&&&&&&&&&&&&$$$$$$$$$$$$$$$$$$$$$&&&&&&&$$$$$$$$$$$$$$$$$$$$$$$$$$$$.......++++++++++++++@@@@@@@..............                                                                                                                                                                                                                                                         ",
"                   ..............@@@@@@@@@@@@@@+++++++++++++++++++++..............@@@@@@@+++++++++++++++++++++++++++++++++++@@@@@@@.......++++++++++++++++++++++.......$$$$$$$$$$$$$$$$$$$$$$$$$$$$$$$$$$$$$$$$$$$$$$$$$$$$$$$$&&&&&&&&&&&&&&&&&&&&&$$$$$$$$$$$$$$$$$$$$$&&&&&&&$$$$$$$$$$$$$$$$$$$$$$$$$$$$.......++++++++++++++@@@@@@@..............                                                                                                                                                                                                                                                         ",
"                   ..............@@@@@@@@@@@@@@+++++++++++++++++++++..............@@@@@@@+++++++++++++++++++++++++++++++++++@@@@@@@.......++++++++++++++++++++++.......$$$$$$$$$$$$$$$$$$$$$$$$$$$$$$$$$$$$$$$$$$$$$$$$$$$$$$$$&&&&&&&&&&&&&&&&&&&&&$$$$$$$$$$$$$$$$$$$$$&&&&&&&$$$$$$$$$$$$$$$$$$$$$$$$$$$$.......++++++++++++++@@@@@@@..............                                                                                                                                                                                                                                                         ",
"                          .......@@@@@@@+++++++++++++++++++++@@@@@@@#######..............@@@@@@@@@@@@@@++++++++++++++@@@@@@@#######+++++++++++++++++++++++++++++.......$$$$$$$$$$$$$$&&&&&&&$$$$$$$$$$$$$$$$$$$$$$$$$$$$$$$$$$$&&&&&&&&&&&&&&$$$$$$$$$$$$$$$$$$$$$&&&&&&&$$$$$$$$$$$$$$$$$$$$$&&&&&&&$$$$$$$.......++++++++++++++@@@@@@@..............                                                                                                                                                                                                                                                         ",
"                          .......@@@@@@@+++++++++++++++++++++@@@@@@@#######..............@@@@@@@@@@@@@@++++++++++++++@@@@@@@#######+++++++++++++++++++++++++++++.......$$$$$$$$$$$$$$&&&&&&&$$$$$$$$$$$$$$$$$$$$$$$$$$$$$$$$$$$&&&&&&&&&&&&&&$$$$$$$$$$$$$$$$$$$$$&&&&&&&$$$$$$$$$$$$$$$$$$$$$&&&&&&&$$$$$$$.......++++++++++++++@@@@@@@@@@@@@@.......                                                                                                                                                                                                                                                         ",
"                          .......@@@@@@@+++++++++++++++++++++@@@@@@@#######..............@@@@@@@@@@@@@@++++++++++++++@@@@@@@#######+++++++++++++++++++++++++++++.......$$$$$$$$$$$$$$&&&&&&&$$$$$$$$$$$$$$$$$$$$$$$$$$$$$$$$$$$&&&&&&&&&&&&&&$$$$$$$$$$$$$$$$$$$$$&&&&&&&$$$$$$$$$$$$$$$$$$$$$&&&&&&&$$$$$$$.......++++++++++++++@@@@@@@@@@@@@@.......                                                                                                                                                                                                                                                         ",
"                          .......@@@@@@@+++++++++++++++++++++@@@@@@@#######..............@@@@@@@@@@@@@@++++++++++++++@@@@@@@#######+++++++++++++++++++++++++++++.......$$$$$$$$$$$$$$&&&&&&&$$$$$$$$$$$$$$$$$$$$$$$$$$$$$$$$$$$&&&&&&&&&&&&&&$$$$$$$$$$$$$$$$$$$$$&&&&&&&$$$$$$$$$$$$$$$$$$$$$&&&&&&&$$$$$$$.......++++++++++++++@@@@@@@@@@@@@@.......                                                                                                                                                                                                                                                         ",
"                          .......@@@@@@@+++++++++++++++++++++@@@@@@@#######..............@@@@@@@@@@@@@@++++++++++++++@@@@@@@#######+++++++++++++++++++++++++++++.......$$$$$$$$$$$$$$&&&&&&&$$$$$$$$$$$$$$$$$$$$$$$$$$$$$$$$$$$&&&&&&&&&&&&&&$$$$$$$$$$$$$$$$$$$$$&&&&&&&$$$$$$$$$$$$$$$$$$$$$&&&&&&&$$$$$$$.......++++++++++++++@@@@@@@@@@@@@@.......                                                                                                                                                                                                                                                         ",
"                          .......@@@@@@@+++++++++++++++++++++@@@@@@@#######..............@@@@@@@@@@@@@@++++++++++++++@@@@@@@#######+++++++++++++++++++++++++++++.......$$$$$$$$$$$$$$&&&&&&&$$$$$$$$$$$$$$$$$$$$$$$$$$$$$$$$$$$&&&&&&&&&&&&&&$$$$$$$$$$$$$$$$$$$$$&&&&&&&$$$$$$$$$$$$$$$$$$$$$&&&&&&&$$$$$$$.......++++++++++++++@@@@@@@@@@@@@@.......                                                                                                                                                                                                                                                         ",
"                          .......@@@@@@@+++++++++++++++++++++@@@@@@@#######..............@@@@@@@@@@@@@@++++++++++++++@@@@@@@#######+++++++++++++++++++++++++++++.......$$$$$$$$$$$$$$&&&&&&&$$$$$$$$$$$$$$$$$$$$$$$$$$$$$$$$$$$&&&&&&&&&&&&&&$$$$$$$$$$$$$$$$$$$$$&&&&&&&$$$$$$$$$$$$$$$$$$$$$&&&&&&&$$$$$$$.......++++++++++++++@@@@@@@@@@@@@@.......                                                                                                                                                                                                                                                         ",
"                          ..............@@@@@@@+++++++@@@@@@@##############+++++++..............@@@@@@@@@@@@@@@@@@@@@#######@@@@@@@@@@@@@@@@@@@@@@@@@@@@@@@@@@@@.......$$$$$$$$$$$$$$$$$$$$$&&&&&&&&&&&&&&$$$$$$$$$$$$$$$$$$$$$&&&&&&&&&&&&&&&&&&&&&$$$$$$$$$$$$$$&&&&&&&$$$$$$$$$$$$$$$$$$$$$$$$$$$$$$$$$$$$$$$$$$.......+++++++@@@@@@@@@@@@@@.......                                                                                                                                                                                                                                                         ",
"                          ..............@@@@@@@+++++++@@@@@@@##############+++++++..............@@@@@@@@@@@@@@@@@@@@@#######@@@@@@@@@@@@@@@@@@@@@@@@@@@@@@@@@@@@.......$$$$$$$$$$$$$$$$$$$$$&&&&&&&&&&&&&&$$$$$$$$$$$$$$$$$$$$$&&&&&&&&&&&&&&&&&&&&&$$$$$$$$$$$$$$&&&&&&&$$$$$$$$$$$$$$$$$$$$$$$$$$$$$$$$$$$$$$$$$$.......+++++++@@@@@@@@@@@@@@.......                                                                                                                                                                                                                                                         ",
"                          ..............@@@@@@@+++++++@@@@@@@##############+++++++..............@@@@@@@@@@@@@@@@@@@@@#######@@@@@@@@@@@@@@@@@@@@@@@@@@@@@@@@@@@@.......$$$$$$$$$$$$$$$$$$$$$&&&&&&&&&&&&&&$$$$$$$$$$$$$$$$$$$$$&&&&&&&&&&&&&&&&&&&&&$$$$$$$$$$$$$$&&&&&&&$$$$$$$$$$$$$$$$$$$$$$$$$$$$$$$$$$$$$$$$$$.......+++++++@@@@@@@@@@@@@@.......                                                                                                                                                                                                                                                         ",
"                          ..............@@@@@@@+++++++@@@@@@@##############+++++++..............@@@@@@@@@@@@@@@@@@@@@#######@@@@@@@@@@@@@@@@@@@@@@@@@@@@@@@@@@@@.......$$$$$$$$$$$$$$$$$$$$$&&&&&&&&&&&&&&$$$$$$$$$$$$$$$$$$$$$&&&&&&&&&&&&&&&&&&&&&$$$$$$$$$$$$$$&&&&&&&$$$$$$$$$$$$$$$$$$$$$$$$$$$$$$$$$$$$$$$$$$.......+++++++@@@@@@@@@@@@@@.......                                                                                                                                                                                                                                                         ",
"                          ..............@@@@@@@+++++++@@@@@@@##############+++++++..............@@@@@@@@@@@@@@@@@@@@@#######@@@@@@@@@@@@@@@@@@@@@@@@@@@@@@@@@@@@.......$$$$$$$$$$$$$$$$$$$$$&&&&&&&&&&&&&&$$$$$$$$$$$$$$$$$$$$$&&&&&&&&&&&&&&&&&&&&&$$$$$$$$$$$$$$&&&&&&&$$$$$$$$$$$$$$$$$$$$$$$$$$$$$$$$$$$$$$$$$$.......+++++++@@@@@@@@@@@@@@.......                                                                                                                                                                                                                                                         ",
"                          ..............@@@@@@@+++++++@@@@@@@##############+++++++..............@@@@@@@@@@@@@@@@@@@@@#######@@@@@@@@@@@@@@@@@@@@@@@@@@@@@@@@@@@@.......$$$$$$$$$$$$$$$$$$$$$&&&&&&&&&&&&&&$$$$$$$$$$$$$$$$$$$$$&&&&&&&&&&&&&&&&&&&&&$$$$$$$$$$$$$$&&&&&&&$$$$$$$$$$$$$$$$$$$$$$$$$$$$$$$$$$$$$$$$$$.......+++++++@@@@@@@@@@@@@@.......                                                                                                                                                                                                                                                         ",
"                          ..............@@@@@@@+++++++@@@@@@@##############+++++++..............@@@@@@@@@@@@@@@@@@@@@#######@@@@@@@@@@@@@@@@@@@@@@@@@@@@@@@@@@@@.......$$$$$$$$$$$$$$$$$$$$$&&&&&&&&&&&&&&$$$$$$$$$$$$$$$$$$$$$&&&&&&&&&&&&&&&&&&&&&$$$$$$$$$$$$$$&&&&&&&$$$$$$$$$$$$$$$$$$$$$$$$$$$$$$$$$$$$$$$$$$.......+++++++@@@@@@@@@@@@@@.......                                                                                                                                                                                                                                                         ",
"                                 ..............@@@@@@@#######++++++++++++++++++++++++++++.......@@@@@@@@@@@@@@.......@@@@@@@@@@@@@@@@@@@@@@@@@@@@@@@@@@@@@@@@@@@@@@@@@#.......$$$$$$............................&&&&&&&&$$$$$$$&&&&&&&&&&&&&&&&&&&&&$$$$$$$&&&&&&&$$$$$$$$$$$$$$$$$$$$$&&&&&&&$$$$$$$$$$$$$$$$$$$$$.......+++++++@@@@@@@@@@@@@@.......                                                                                                                                                                                                                                                         ",
"                                 ..............@@@@@@@#######++++++++++++++++++++++++++++.......@@@@@@@@@@@@@@.......@@@@@@@@@@@@@@@@@@@@@@@@@@@@@@@@@@@@@@@@@@@@@@@@@#.......$$$$$$............................&&&&&&&&$$$$$$$&&&&&&&&&&&&&&&&&&&&&$$$$$$$&&&&&&&$$$$$$$$$$$$$$$$$$$$$&&&&&&&$$$$$$$$$$$$$$$$$$$$$.......@@@@@@@@@@@@@@@@@@@@@.......                                                                                                                                                                                                                                                         ",
"                                 ..............@@@@@@@#######++++++++++++++++++++++++++++.......@@@@@@@@@@@@@@.......@@@@@@@@@@@@@@@@@@@@@@@@@@@@@@@@@@@@@@@@@@@@@@@@@#.......$$$$$$............................&&&&&&&&$$$$$$$&&&&&&&&&&&&&&&&&&&&&$$$$$$$&&&&&&&$$$$$$$$$$$$$$$$$$$$$&&&&&&&$$$$$$$$$$$$$$$$$$$$$.......@@@@@@@@@@@@@@@@@@@@@.......                                                                                                                                                                                                                                                         ",
"                                 ..............@@@@@@@#######++++++++++++++++++++++++++++.......@@@@@@@@@@@@@@.......@@@@@@@@@@@@@@@@@@@@@@@@@@@@@@@@@@@@@@@@@@@@@@@@@#.......$$$$$$............................&&&&&&&&$$$$$$$&&&&&&&&&&&&&&&&&&&&&$$$$$$$&&&&&&&$$$$$$$$$$$$$$$$$$$$$&&&&&&&$$$$$$$$$$$$$$$$$$$$$.......@@@@@@@@@@@@@@@@@@@@@.......                                                                                                                                                                                                                                                         ",
"                                 ..............@@@@@@@#######++++++++++++++++++++++++++++.......@@@@@@@@@@@@@@.......@@@@@@@@@@@@@@@@@@@@@@@@@@@@@@@@@@@@@@@@@@@@@@@@@#.......$$$$$$............................&&&&&&&&$$$$$$$&&&&&&&&&&&&&&&&&&&&&$$$$$$$&&&&&&&$$$$$$$$$$$$$$$$$$$$$&&&&&&&$$$$$$$$$$$$$$$$$$$$$.......@@@@@@@@@@@@@@@@@@@@@.......                                                                                                                                                                                                                                                         ",
"                                 ..............@@@@@@@#######++++++++++++++++++++++++++++.......@@@@@@@@@@@@@@.......@@@@@@@@@@@@@@@@@@@@@@@@@@@@@@@@@@@@@@@@@@@@@@@@@#.......$$$$$$............................&&&&&&&&$$$$$$$&&&&&&&&&&&&&&&&&&&&&$$$$$$$&&&&&&&$$$$$$$$$$$$$$$$$$$$$&&&&&&&$$$$$$$$$$$$$$$$$$$$$.......@@@@@@@@@@@@@@@@@@@@@.......                                                                                                                                                                                                                                                         ",
"                                 ..............@@@@@@@#######++++++++++++++++++++++++++++.......@@@@@@@@@@@@@@.......@@@@@@@@@@@@@@@@@@@@@@@@@@@@@@@@@@@@@@@@@@@@@@@@@#.......$$$$$$............................&&&&&&&&$$$$$$$&&&&&&&&&&&&&&&&&&&&&$$$$$$$&&&&&&&$$$$$$$$$$$$$$$$$$$$$&&&&&&&$$$$$$$$$$$$$$$$$$$$$.......@@@@@@@@@@@@@@@@@@@@@.......                                                                                                                                                                                                                                                         ",
"                                        ..............@@@@@@@+++++++++++++++++++++++++++++++++++..............@@@@@@@++++++++++++++++++++++++++++@@@@@@@##############..............****************************..............&&&&&&&&&&&&&&&&&&&&&&&&&&&&&&&&&&&&$$$$$$$$$$$$$$&&&&&&&$$$$$$$$$$$$$$$$$$$$$$$$$$$$.......@@@@@@@@@@@@@@@@@@@@@.......                                                                                                                                                                                                                                                         ",
"                                        ..............@@@@@@@+++++++++++++++++++++++++++++++++++..............@@@@@@@++++++++++++++++++++++++++++@@@@@@@##############..............****************************..............&&&&&&&&&&&&&&&&&&&&&&&&&&&&&&&&&&&&$$$$$$$$$$$$$$&&&&&&&$$$$$$$$$$$$$$$$$$$$$$$$$$$$.......@@@@@@@@@@@@@@@@@@@@@.......                                                                                                                                                                                                                                                         ",
"                                        ..............@@@@@@@+++++++++++++++++++++++++++++++++++..............@@@@@@@++++++++++++++++++++++++++++@@@@@@@##############..............****************************..............&&&&&&&&&&&&&&&&&&&&&&&&&&&&&&&&&&&&$$$$$$$$$$$$$$&&&&&&&$$$$$$$$$$$$$$$$$$$$$$$$$$$$.......@@@@@@@@@@@@@@@@@@@@@.......                                                                                                                                                                                                                                                         ",
"                                        ..............@@@@@@@+++++++++++++++++++++++++++++++++++..............@@@@@@@++++++++++++++++++++++++++++@@@@@@@##############..............****************************..............&&&&&&&&&&&&&&&&&&&&&&&&&&&&&&&&&&&&$$$$$$$$$$$$$$&&&&&&&$$$$$$$$$$$$$$$$$$$$$$$$$$$$.......@@@@@@@@@@@@@@@@@@@@@.......                                                                                                                                                                                                                                                         ",
"                                        ..............@@@@@@@+++++++++++++++++++++++++++++++++++..............@@@@@@@++++++++++++++++++++++++++++@@@@@@@##############..............****************************..............&&&&&&&&&&&&&&&&&&&&&&&&&&&&&&&&&&&&$$$$$$$$$$$$$$&&&&&&&$$$$$$$$$$$$$$$$$$$$$$$$$$$$.......@@@@@@@@@@@@@@@@@@@@@.......                                                                                                                                                                                                                                                         ",
"                                        ..............@@@@@@@+++++++++++++++++++++++++++++++++++..............@@@@@@@++++++++++++++++++++++++++++@@@@@@@##############..............****************************..............&&&&&&&&&&&&&&&&&&&&&&&&&&&&&&&&&&&&$$$$$$$$$$$$$$&&&&&&&$$$$$$$$$$$$$$$$$$$$$$$$$$$$.......@@@@@@@@@@@@@@@@@@@@@.......                                                                                                                                                                                                                                                         ",
"                                        ..............@@@@@@@+++++++++++++++++++++++++++++++++++..............@@@@@@@++++++++++++++++++++++++++++@@@@@@@##############..............****************************..............&&&&&&&&&&&&&&&&&&&&&&&&&&&&&&&&&&&&$$$$$$$$$$$$$$&&&&&&&$$$$$$$$$$$$$$$$$$$$$$$$$$$$.......@@@@@@@@@@@@@@@@@@@@@.......                                                                                                                                                                                                                                                         ",
"                                               .......@@@@@@@@@@@@@@+++++++++++++++++++++@@@@@@@@@@@@@@@@@@@@@++++++++++++++++++++++++++++++++++++++++++#######.......**************============================**************.......$&&&&&&&&&&&&&&&&&&&&&$$$$$$$$$$$$$$$$$$$$$&&&&&&&$$$$$$$$$$$$$$$$$$$$$.......+++++++@@@@@@@@@@@@@@@@@@@@@.......                                                                                                                                                                                                                                                         ",
"                                               .......@@@@@@@@@@@@@@+++++++++++++++++++++@@@@@@@@@@@@@@@@@@@@@++++++++++++++++++++++++++++++++++++++++++#######.......**************============================**************.......$&&&&&&&&&&&&&&&&&&&&&$$$$$$$$$$$$$$$$$$$$$&&&&&&&$$$$$$$$$$$$$$$$$$$$$.......+++++++@@@@@@@@@@@@@@@@@@@@@..............                                                                                                                                                                                                                                                  ",
"                                               .......@@@@@@@@@@@@@@+++++++++++++++++++++@@@@@@@@@@@@@@@@@@@@@++++++++++++++++++++++++++++++++++++++++++#######.......**************============================**************.......$&&&&&&&&&&&&&&&&&&&&&$$$$$$$$$$$$$$$$$$$$$&&&&&&&$$$$$$$$$$$$$$$$$$$$$.......+++++++@@@@@@@@@@@@@@@@@@@@@..............                                                                                                                                                                                                                                                  ",
"                                               .......@@@@@@@@@@@@@@+++++++++++++++++++++@@@@@@@@@@@@@@@@@@@@@++++++++++++++++++++++++++++++++++++++++++#######.......**************============================**************.......$&&&&&&&&&&&&&&&&&&&&&$$$$$$$$$$$$$$$$$$$$$&&&&&&&$$$$$$$$$$$$$$$$$$$$$.......+++++++@@@@@@@@@@@@@@@@@@@@@..............                                                                                                                                                                                                                                                  ",
"                                               .......@@@@@@@@@@@@@@+++++++++++++++++++++@@@@@@@@@@@@@@@@@@@@@++++++++++++++++++++++++++++++++++++++++++#######.......**************============================**************.......$&&&&&&&&&&&&&&&&&&&&&$$$$$$$$$$$$$$$$$$$$$&&&&&&&$$$$$$$$$$$$$$$$$$$$$.......+++++++@@@@@@@@@@@@@@@@@@@@@..............                                                                                                                                                                                                                                                  ",
"                                               .......@@@@@@@@@@@@@@+++++++++++++++++++++@@@@@@@@@@@@@@@@@@@@@++++++++++++++++++++++++++++++++++++++++++#######.......**************============================**************.......$&&&&&&&&&&&&&&&&&&&&&$$$$$$$$$$$$$$$$$$$$$&&&&&&&$$$$$$$$$$$$$$$$$$$$$.......+++++++@@@@@@@@@@@@@@@@@@@@@..............                                                                                                                                                                                                                                                  ",
"                                               .......@@@@@@@@@@@@@@+++++++++++++++++++++@@@@@@@@@@@@@@@@@@@@@++++++++++++++++++++++++++++++++++++++++++#######.......**************============================**************.......$&&&&&&&&&&&&&&&&&&&&&$$$$$$$$$$$$$$$$$$$$$&&&&&&&$$$$$$$$$$$$$$$$$$$$$.......+++++++@@@@@@@@@@@@@@@@@@@@@..............                                                                                                                                                                                                                                                  ",
"                                               ..............@@@@@@@@@@@@@@++++++++++++++@@@@@@@++++++++++++++++++++++++++++++++++++++++++#######..............*******==============---------------------=====================*******.......&&&&&&&&&&&&&&&$$$$$$$$$$$$$$&&&&&&&$$$$$$$$$$$$$$$$$$$$$$$$$$$$.......+++++++@@@@@@@@@@@@@@@@@@@@@..............                                                                                                                                                                                                                                                  ",
"                                               ..............@@@@@@@@@@@@@@++++++++++++++@@@@@@@++++++++++++++++++++++++++++++++++++++++++#######..............*******==============---------------------=====================*******.......&&&&&&&&&&&&&&&$$$$$$$$$$$$$$&&&&&&&$$$$$$$$$$$$$$$$$$$$$$$$$$$$.......@@@@@@@@@@@@@@@@@@@@@@@@@@@@@@@@@@@.......                                                                                                                                                                                                                                                  ",
"                                               ..............@@@@@@@@@@@@@@++++++++++++++@@@@@@@++++++++++++++++++++++++++++++++++++++++++#######..............*******==============---------------------=====================*******.......&&&&&&&&&&&&&&&$$$$$$$$$$$$$$&&&&&&&$$$$$$$$$$$$$$$$$$$$$$$$$$$$.......@@@@@@@@@@@@@@@@@@@@@@@@@@@@@@@@@@@.......                                                                                                                                                                                                                                                  ",
"                                               ..............@@@@@@@@@@@@@@++++++++++++++@@@@@@@++++++++++++++++++++++++++++++++++++++++++#######..............*******==============---------------------=====================*******.......&&&&&&&&&&&&&&&$$$$$$$$$$$$$$&&&&&&&$$$$$$$$$$$$$$$$$$$$$$$$$$$$.......@@@@@@@@@@@@@@@@@@@@@@@@@@@@@@@@@@@.......                                                                                                                                                                                                                                                  ",
"                                               ..............@@@@@@@@@@@@@@++++++++++++++@@@@@@@++++++++++++++++++++++++++++++++++++++++++#######..............*******==============---------------------=====================*******.......&&&&&&&&&&&&&&&$$$$$$$$$$$$$$&&&&&&&$$$$$$$$$$$$$$$$$$$$$$$$$$$$.......@@@@@@@@@@@@@@@@@@@@@@@@@@@@@@@@@@@.......                                                                                                                                                                                                                                                  ",
"                                               ..............@@@@@@@@@@@@@@++++++++++++++@@@@@@@++++++++++++++++++++++++++++++++++++++++++#######..............*******==============---------------------=====================*******.......&&&&&&&&&&&&&&&$$$$$$$$$$$$$$&&&&&&&$$$$$$$$$$$$$$$$$$$$$$$$$$$$.......@@@@@@@@@@@@@@@@@@@@@@@@@@@@@@@@@@@.......                                                                                                                                                                                                                                                  ",
"                                               ..............@@@@@@@@@@@@@@++++++++++++++@@@@@@@++++++++++++++++++++++++++++++++++++++++++#######..............*******==============---------------------=====================*******.......&&&&&&&&&&&&&&&$$$$$$$$$$$$$$&&&&&&&$$$$$$$$$$$$$$$$$$$$$$$$$$$$.......@@@@@@@@@@@@@@@@@@@@@@@@@@@@@@@@@@@.......                                                                                                                                                                                                                                                  ",
"                                                      ..............@@@@@@@@@@@@@@@@@@@@@++++++++++++++++++++++++++++++++++++++++++#######.......**************=======-------;;;;;;;;;;;;;;--------------;;;;;;;--------------=======*******.......&&&&&&&&&&&&&&&$$$$$$$&&&&&&&$$$$$$$$$$$$$$$$$$$$$$$$$$$$.......@@@@@@@@@@@@@@@@@@@@@@@@@@@@@@@@@@@.......                                                                                                                                                                                                                                                  ",
"                                                      ..............@@@@@@@@@@@@@@@@@@@@@++++++++++++++++++++++++++++++++++++++++++#######.......**************=======-------;;;;;;;;;;;;;;--------------;;;;;;;--------------=======*******.......&&&&&&&&&&&&&&&$$$$$$$&&&&&&&$$$$$$$$$$$$$$$$$$$$$$$$$$$$.......@@@@@@@@@@@@@@@@@@@@@@@@@@@@@@@@@@@.......                                                                                                                                                                                                                                                  ",
"                                                      ..............@@@@@@@@@@@@@@@@@@@@@++++++++++++++++++++++++++++++++++++++++++#######.......**************=======-------;;;;;;;;;;;;;;--------------;;;;;;;--------------=======*******.......&&&&&&&&&&&&&&&$$$$$$$&&&&&&&$$$$$$$$$$$$$$$$$$$$$$$$$$$$.......@@@@@@@@@@@@@@@@@@@@@@@@@@@@@@@@@@@.......                                                                                                                                                                                                                                                  ",
"                                                      ..............@@@@@@@@@@@@@@@@@@@@@++++++++++++++++++++++++++++++++++++++++++#######.......**************=======-------;;;;;;;;;;;;;;--------------;;;;;;;--------------=======*******.......&&&&&&&&&&&&&&&$$$$$$$&&&&&&&$$$$$$$$$$$$$$$$$$$$$$$$$$$$.......@@@@@@@@@@@@@@@@@@@@@@@@@@@@@@@@@@@.......                                                                                                                                                                                                                                                  ",
"                                                      ..............@@@@@@@@@@@@@@@@@@@@@++++++++++++++++++++++++++++++++++++++++++#######.......**************=======-------;;;;;;;;;;;;;;--------------;;;;;;;--------------=======*******.......&&&&&&&&&&&&&&&$$$$$$$&&&&&&&$$$$$$$$$$$$$$$$$$$$$$$$$$$$.......@@@@@@@@@@@@@@@@@@@@@@@@@@@@@@@@@@@.......                                                                                                                                                                                                                                                  ",
"                                                      ..............@@@@@@@@@@@@@@@@@@@@@++++++++++++++++++++++++++++++++++++++++++#######.......**************=======-------;;;;;;;;;;;;;;--------------;;;;;;;--------------=======*******.......&&&&&&&&&&&&&&&$$$$$$$&&&&&&&$$$$$$$$$$$$$$$$$$$$$$$$$$$$.......@@@@@@@@@@@@@@@@@@@@@@@@@@@@@@@@@@@.......                                                                                                                                                                                                                                                  ",
"                                                      ..............@@@@@@@@@@@@@@@@@@@@@++++++++++++++++++++++++++++++++++++++++++#######.......**************=======-------;;;;;;;;;;;;;;--------------;;;;;;;--------------=======*******.......&&&&&&&&&&&&&&&$$$$$$$&&&&&&&$$$$$$$$$$$$$$$$$$$$$$$$$$$$.......@@@@@@@@@@@@@@@@@@@@@@@@@@@@@@@@@@@.......                                                                                                                                                                                                                                                  ",
"                                                             ..............@@@@@@@@@@@@@@+++++++++++++++++++++++++++++++++++#######@@@@@@@.......*******=======;;;;;;;;;;;;;;>>>>>>>,,,,,,,''''''';;;;;;;;;;;;;;;;;;;;;;;;;;;;=======*******.......&&&&&&&&&&&&&&&&&&&&&&$$$$$$$$$$$$$$$$$$$$$$$$$$$$$$$$$$$.......@@@@@@@@@@@@@@@@@@@@@@@@@@@@@@@@@@@.......                                                                                                                                                                                                                                                  ",
"                                                             ..............@@@@@@@@@@@@@@+++++++++++++++++++++++++++++++++++#######@@@@@@@.......*******=======;;;;;;;;;;;;;;>>>>>>>,,,,,,,''''''';;;;;;;;;;;;;;;;;;;;;;;;;;;;=======*******.......&&&&&&&&&&&&&&&&&&&&&&$$$$$$$$$$$$$$$$$$$$$$$$$$$$$$$$$$$.......@@@@@@@@@@@@@@@@@@@@@@@@@@@@@@@@@@@.......                                                                                                                                                                                                                                                  ",
"                                                             ..............@@@@@@@@@@@@@@+++++++++++++++++++++++++++++++++++#######@@@@@@@.......*******=======;;;;;;;;;;;;;;>>>>>>>,,,,,,,''''''';;;;;;;;;;;;;;;;;;;;;;;;;;;;=======*******.......&&&&&&&&&&&&&&&&&&&&&&$$$$$$$$$$$$$$$$$$$$$$$$$$$$$$$$$$$.......@@@@@@@@@@@@@@@@@@@@@@@@@@@@@@@@@@@.......                                                                                                                                                                                                                                                  ",
"                                                             ..............@@@@@@@@@@@@@@+++++++++++++++++++++++++++++++++++#######@@@@@@@.......*******=======;;;;;;;;;;;;;;>>>>>>>,,,,,,,''''''';;;;;;;;;;;;;;;;;;;;;;;;;;;;=======*******.......&&&&&&&&&&&&&&&&&&&&&&$$$$$$$$$$$$$$$$$$$$$$$$$$$$$$$$$$$.......@@@@@@@@@@@@@@@@@@@@@@@@@@@@@@@@@@@.......                                                                                                                                                                                                                                                  ",
"                                                             ..............@@@@@@@@@@@@@@+++++++++++++++++++++++++++++++++++#######@@@@@@@.......*******=======;;;;;;;;;;;;;;>>>>>>>,,,,,,,''''''';;;;;;;;;;;;;;;;;;;;;;;;;;;;=======*******.......&&&&&&&&&&&&&&&&&&&&&&$$$$$$$$$$$$$$$$$$$$$$$$$$$$$$$$$$$.......@@@@@@@@@@@@@@@@@@@@@@@@@@@@@@@@@@@.......                                                                                                                                                                                                                                                  ",
"                                                             ..............@@@@@@@@@@@@@@+++++++++++++++++++++++++++++++++++#######@@@@@@@.......*******=======;;;;;;;;;;;;;;>>>>>>>,,,,,,,''''''';;;;;;;;;;;;;;;;;;;;;;;;;;;;=======*******.......&&&&&&&&&&&&&&&&&&&&&&$$$$$$$$$$$$$$$$$$$$$$$$$$$$$$$$$$$.......@@@@@@@@@@@@@@@@@@@@@@@@@@@@@@@@@@@.......                                                                                                                                                                                                                                                  ",
"                                                             ..............@@@@@@@@@@@@@@+++++++++++++++++++++++++++++++++++#######@@@@@@@.......*******=======;;;;;;;;;;;;;;>>>>>>>,,,,,,,''''''';;;;;;;;;;;;;;;;;;;;;;;;;;;;=======*******.......&&&&&&&&&&&&&&&&&&&&&&$$$$$$$$$$$$$$$$$$$$$$$$$$$$$$$$$$$.......@@@@@@@@@@@@@@@@@@@@@@@@@@@@@@@@@@@.......                                                                                                                                                                                                                                                  ",
"                                                                    ..............@@@@@@@++++++++++++++++++++++++++++#######@@@@@@@.......*******=======;;;;;;;>>>>>>>------->>>>>>>,,,,,,,-------,,,,,,,>>>>>>>------->>>>>>>-------=======*******.......&&&&&&&&&&&&&&&$$$$$$$$$$$$$$$$$$$$$$$$$$$$.......@@@@@@@@@@@@@@@@@@@@@@@@@@@@@@@@@@@@@@@@@@.......                                                                                                                                                                                                                                                  ",
"                                                                    ..............@@@@@@@++++++++++++++++++++++++++++#######@@@@@@@.......*******=======;;;;;;;>>>>>>>------->>>>>>>,,,,,,,-------,,,,,,,>>>>>>>------->>>>>>>-------=======*******.......&&&&&&&&&&&&&&&$$$$$$$$$$$$$$$$$$$$$$$$$$$$.......@@@@@@@@@@@@@@@@@@@@@@@@@@@@@@@@@@@+++++++.......                                                                                                                                                                                                                                                  ",
"                                                                    ..............@@@@@@@++++++++++++++++++++++++++++#######@@@@@@@.......*******=======;;;;;;;>>>>>>>------->>>>>>>,,,,,,,-------,,,,,,,>>>>>>>------->>>>>>>-------=======*******.......&&&&&&&&&&&&&&&$$$$$$$$$$$$$$$$$$$$$$$$$$$$.......@@@@@@@@@@@@@@@@@@@@@@@@@@@@@@@@@@@+++++++.......                                                                                                                                                                                                                                                  ",
"                                                                    ..............@@@@@@@++++++++++++++++++++++++++++#######@@@@@@@.......*******=======;;;;;;;>>>>>>>------->>>>>>>,,,,,,,-------,,,,,,,>>>>>>>------->>>>>>>-------=======*******.......&&&&&&&&&&&&&&&$$$$$$$$$$$$$$$$$$$$$$$$$$$$.......@@@@@@@@@@@@@@@@@@@@@@@@@@@@@@@@@@@+++++++.......                                                                                                                                                                                                                                                  ",
"                                                                    ..............@@@@@@@++++++++++++++++++++++++++++#######@@@@@@@.......*******=======;;;;;;;>>>>>>>------->>>>>>>,,,,,,,-------,,,,,,,>>>>>>>------->>>>>>>-------=======*******.......&&&&&&&&&&&&&&&$$$$$$$$$$$$$$$$$$$$$$$$$$$$.......@@@@@@@@@@@@@@@@@@@@@@@@@@@@@@@@@@@+++++++.......                                                                                                                                                                                                                                                  ",
"                                                                    ..............@@@@@@@++++++++++++++++++++++++++++#######@@@@@@@.......*******=======;;;;;;;>>>>>>>------->>>>>>>,,,,,,,-------,,,,,,,>>>>>>>------->>>>>>>-------=======*******.......&&&&&&&&&&&&&&&$$$$$$$$$$$$$$$$$$$$$$$$$$$$.......@@@@@@@@@@@@@@@@@@@@@@@@@@@@@@@@@@@+++++++.......                                                                                                                                                                                                                                                  ",
"                                                                    ..............@@@@@@@++++++++++++++++++++++++++++#######@@@@@@@.......*******=======;;;;;;;>>>>>>>------->>>>>>>,,,,,,,-------,,,,,,,>>>>>>>------->>>>>>>-------=======*******.......&&&&&&&&&&&&&&&$$$$$$$$$$$$$$$$$$$$$$$$$$$$.......@@@@@@@@@@@@@@@@@@@@@@@@@@@@@@@@@@@+++++++.......                                                                                                                                                                                                                                                  ",
"                                                                           ..............@@@@@@@++++++++++++++#######@@@@@@@@@@@@@@.......*******-------;;;;;;;--------------''''''',,,,,,,-------,,,,,,,-------'''''''---------------------,,,,,,,*******.......&&&&&&&&$$$$$$$$$$$$$$$$$$$$$$$$$$$$.......@@@@@@@@@@@@@@@@@@@@@@@@@@@@@@@@@@@+++++++.......                                                                                                                                                                                                                                                  ",
"                                                                           ..............@@@@@@@++++++++++++++#######@@@@@@@@@@@@@@.......*******-------;;;;;;;--------------''''''',,,,,,,-------,,,,,,,-------'''''''---------------------,,,,,,,*******.......&&&&&&&&$$$$$$$$$$$$$$$$$$$$$$$$$$$$.......@@@@@@@@@@@@@@@@@@@@@@@@@@@@++++++++++++++.......                                                                                                                                                                                                                                                  ",
"                                                                           ..............@@@@@@@++++++++++++++#######@@@@@@@@@@@@@@.......*******-------;;;;;;;--------------''''''',,,,,,,-------,,,,,,,-------'''''''---------------------,,,,,,,*******.......&&&&&&&&$$$$$$$$$$$$$$$$$$$$$$$$$$$$.......@@@@@@@@@@@@@@@@@@@@@@@@@@@@++++++++++++++.......                                                                                                                                                                                                                                                  ",
"                                                                           ..............@@@@@@@++++++++++++++#######@@@@@@@@@@@@@@.......*******-------;;;;;;;--------------''''''',,,,,,,-------,,,,,,,-------'''''''---------------------,,,,,,,*******.......&&&&&&&&$$$$$$$$$$$$$$$$$$$$$$$$$$$$.......@@@@@@@@@@@@@@@@@@@@@@@@@@@@++++++++++++++.......                                                                                                                                                                                                                                                  ",
"                                                                           ..............@@@@@@@++++++++++++++#######@@@@@@@@@@@@@@.......*******-------;;;;;;;--------------''''''',,,,,,,-------,,,,,,,-------'''''''---------------------,,,,,,,*******.......&&&&&&&&$$$$$$$$$$$$$$$$$$$$$$$$$$$$.......@@@@@@@@@@@@@@@@@@@@@@@@@@@@++++++++++++++.......                                                                                                                                                                                                                                                  ",
"                                                                           ..............@@@@@@@++++++++++++++#######@@@@@@@@@@@@@@.......*******-------;;;;;;;--------------''''''',,,,,,,-------,,,,,,,-------'''''''---------------------,,,,,,,*******.......&&&&&&&&$$$$$$$$$$$$$$$$$$$$$$$$$$$$.......@@@@@@@@@@@@@@@@@@@@@@@@@@@@++++++++++++++.......                                                                                                                                                                                                                                                  ",
"                                                                           ..............@@@@@@@++++++++++++++#######@@@@@@@@@@@@@@.......*******-------;;;;;;;--------------''''''',,,,,,,-------,,,,,,,-------'''''''---------------------,,,,,,,*******.......&&&&&&&&$$$$$$$$$$$$$$$$$$$$$$$$$$$$.......@@@@@@@@@@@@@@@@@@@@@@@@@@@@++++++++++++++.......                                                                                                                                                                                                                                                  ",
"                                                                                  .......@@@@@@@@@@@@@@+++++++#######@@@@@@@.......*******-------;;;;;;;;;;;;;;--------------,,,,,,,''''''',,,,,,,'''''''-------------->>>>>>>;;;;;;;-------,,,,,,,*******.......&)))))))))))))))))))))$$$$$$$.......@@@@@@@@@@@@@@@@@@@@@@@@@@@@@@@@@@@++++++++++++++.......                                                                                                                                                                                                                                                  ",
"                                                                                  .......@@@@@@@@@@@@@@+++++++#######@@@@@@@.......*******-------;;;;;;;;;;;;;;--------------,,,,,,,''''''',,,,,,,'''''''-------------->>>>>>>;;;;;;;-------,,,,,,,*******.......&)))))))))))))))))))))$$$$$$$.......#####################@@@@@@@+++++++++++++++++++++..............                                                                                                                                                                                                                                           ",
"                                                                                  .......@@@@@@@@@@@@@@+++++++#######@@@@@@@.......*******-------;;;;;;;;;;;;;;--------------,,,,,,,''''''',,,,,,,'''''''-------------->>>>>>>;;;;;;;-------,,,,,,,*******.......&)))))))))))))))))))))$$$$$$$.......#####################@@@@@@@+++++++++++++++++++++..............                                                                                                                                                                                                                                           ",
"                                                                                  .......@@@@@@@@@@@@@@+++++++#######@@@@@@@.......*******-------;;;;;;;;;;;;;;--------------,,,,,,,''''''',,,,,,,'''''''-------------->>>>>>>;;;;;;;-------,,,,,,,*******.......&)))))))))))))))))))))$$$$$$$.......#####################@@@@@@@+++++++++++++++++++++..............                                                                                                                                                                                                                                           ",
"                                                                                  .......@@@@@@@@@@@@@@+++++++#######@@@@@@@.......*******-------;;;;;;;;;;;;;;--------------,,,,,,,''''''',,,,,,,'''''''-------------->>>>>>>;;;;;;;-------,,,,,,,*******.......&)))))))))))))))))))))$$$$$$$.......#####################@@@@@@@+++++++++++++++++++++..............                                                                                                                                                                                                                                           ",
"                                                                                  .......@@@@@@@@@@@@@@+++++++#######@@@@@@@.......*******-------;;;;;;;;;;;;;;--------------,,,,,,,''''''',,,,,,,'''''''-------------->>>>>>>;;;;;;;-------,,,,,,,*******.......&)))))))))))))))))))))$$$$$$$.......#####################@@@@@@@+++++++++++++++++++++..............                                                                                                                                                                                                                                           ",
"                                                                                  .......@@@@@@@@@@@@@@+++++++#######@@@@@@@.......*******-------;;;;;;;;;;;;;;--------------,,,,,,,''''''',,,,,,,'''''''-------------->>>>>>>;;;;;;;-------,,,,,,,*******.......&)))))))))))))))))))))$$$$$$$.......#####################@@@@@@@+++++++++++++++++++++..............                                                                                                                                                                                                                                           ",
"                                                                                  ..............@@@@@@@@@@@@@@@@@@@@@@@@@@@@.......*******=======-------''''''';;;;;;;,,,,,,,,,,,,,,,,,,,,,''''''',,,,,,,,,,,,,,''''''';;;;;;;;;;;;;;-------,,,,,,,*******.......)))))))))))))))))))))).......@@@@@@@#####################@@@@@@@+++++++++++++++++++++..............                                                                                                                                                                                                                                           ",
"                                                                                  ..............@@@@@@@@@@@@@@@@@@@@@@@@@@@@.......*******=======-------''''''';;;;;;;,,,,,,,,,,,,,,,,,,,,,''''''',,,,,,,,,,,,,,''''''';;;;;;;;;;;;;;-------,,,,,,,*******.......)))))))))))))))))))))).......#######++++++++++++++++++++++++++++++++++++++++++++++++++++++++.......                                                                                                                                                                                                                                           ",
"                                                                                  ..............@@@@@@@@@@@@@@@@@@@@@@@@@@@@.......*******=======-------''''''';;;;;;;,,,,,,,,,,,,,,,,,,,,,''''''',,,,,,,,,,,,,,''''''';;;;;;;;;;;;;;-------,,,,,,,*******.......)))))))))))))))))))))).......#######++++++++++++++++++++++++++++++++++++++++++++++++++++++++.......                                                                                                                                                                                                                                           ",
"                                                                                  ..............@@@@@@@@@@@@@@@@@@@@@@@@@@@@.......*******=======-------''''''';;;;;;;,,,,,,,,,,,,,,,,,,,,,''''''',,,,,,,,,,,,,,''''''';;;;;;;;;;;;;;-------,,,,,,,*******.......)))))))))))))))))))))).......#######++++++++++++++++++++++++++++++++++++++++++++++++++++++++.......                                                                                                                                                                                                                                           ",
"                                                                                  ..............@@@@@@@@@@@@@@@@@@@@@@@@@@@@.......*******=======-------''''''';;;;;;;,,,,,,,,,,,,,,,,,,,,,''''''',,,,,,,,,,,,,,''''''';;;;;;;;;;;;;;-------,,,,,,,*******.......)))))))))))))))))))))).......#######++++++++++++++++++++++++++++++++++++++++++++++++++++++++.......                                                                                                                                                                                                                                           ",
"                                                                                  ..............@@@@@@@@@@@@@@@@@@@@@@@@@@@@.......*******=======-------''''''';;;;;;;,,,,,,,,,,,,,,,,,,,,,''''''',,,,,,,,,,,,,,''''''';;;;;;;;;;;;;;-------,,,,,,,*******.......)))))))))))))))))))))).......#######++++++++++++++++++++++++++++++++++++++++++++++++++++++++.......                                                                                                                                                                                                                                           ",
"                                                                                  ..............@@@@@@@@@@@@@@@@@@@@@@@@@@@@.......*******=======-------''''''';;;;;;;,,,,,,,,,,,,,,,,,,,,,''''''',,,,,,,,,,,,,,''''''';;;;;;;;;;;;;;-------,,,,,,,*******.......)))))))))))))))))))))).......#######++++++++++++++++++++++++++++++++++++++++++++++++++++++++.......                                                                                                                                                                                                                                           ",
"                                                                                         ..............@@@@@@@@@@@@@@@@@@@@@.......*******=======-------;;;;;;;,,,,,,,-------''''''',,,,,,,-------,,,,,,,;;;;;;;;;;;;;;'''''''--------------,,,,,,,*******.......))))))))))))))).......##############++++++++++++++++++++++++++++++++++++++++++++++++++++++++.......                                                                                                                                                                                                                                           ",
"                                                                                         ..............@@@@@@@@@@@@@@@@@@@@@.......*******=======-------;;;;;;;,,,,,,,-------''''''',,,,,,,-------,,,,,,,;;;;;;;;;;;;;;'''''''--------------,,,,,,,*******.......))))))))))))))).......+++++++++++++++++++++++++++++++++++++++++++++++++++++++++++++++++++++++++++++.......                                                                                                                                                                                                                                    ",
"                                                                                         ..............@@@@@@@@@@@@@@@@@@@@@.......*******=======-------;;;;;;;,,,,,,,-------''''''',,,,,,,-------,,,,,,,;;;;;;;;;;;;;;'''''''--------------,,,,,,,*******.......))))))))))))))).......+++++++++++++++++++++++++++++++++++++++++++++++++++++++++++++++++++++++++++++.......                                                                                                                                                                                                                                    ",
"                                                                                         ..............@@@@@@@@@@@@@@@@@@@@@.......*******=======-------;;;;;;;,,,,,,,-------''''''',,,,,,,-------,,,,,,,;;;;;;;;;;;;;;'''''''--------------,,,,,,,*******.......))))))))))))))).......+++++++++++++++++++++++++++++++++++++++++++++++++++++++++++++++++++++++++++++.......                                                                                                                                                                                                                                    ",
"                                                                                         ..............@@@@@@@@@@@@@@@@@@@@@.......*******=======-------;;;;;;;,,,,,,,-------''''''',,,,,,,-------,,,,,,,;;;;;;;;;;;;;;'''''''--------------,,,,,,,*******.......))))))))))))))).......+++++++++++++++++++++++++++++++++++++++++++++++++++++++++++++++++++++++++++++.......                                                                                                                                                                                                                                    ",
"                                                                                         ..............@@@@@@@@@@@@@@@@@@@@@.......*******=======-------;;;;;;;,,,,,,,-------''''''',,,,,,,-------,,,,,,,;;;;;;;;;;;;;;'''''''--------------,,,,,,,*******.......))))))))))))))).......+++++++++++++++++++++++++++++++++++++++++++++++++++++++++++++++++++++++++++++.......                                                                                                                                                                                                                                    ",
"                                                                                         ..............@@@@@@@@@@@@@@@@@@@@@.......*******=======-------;;;;;;;,,,,,,,-------''''''',,,,,,,-------,,,,,,,;;;;;;;;;;;;;;'''''''--------------,,,,,,,*******.......))))))))))))))).......+++++++++++++++++++++++++++++++++++++++++++++++++++++++++++++++++++++++++++++.......                                                                                                                                                                                                                                    ",
"                                                                                                ..............@@@@@@@@@@@@@@.......*******==============-------;;;;;;;''''''';;;;;;;,,,,,,,''''''',,,,,,,;;;;;;;,,,,,,,,,,,,,,--------------,,,,,,,*******......................++++++++++++++++++++++++++++++++++++++++++++++++++++++++++++++++++++++++++++++++++++.......                                                                                                                                                                                                                                    ",
"                                                                                                ..............@@@@@@@@@@@@@@.......*******==============-------;;;;;;;''''''';;;;;;;,,,,,,,''''''',,,,,,,;;;;;;;,,,,,,,,,,,,,,--------------,,,,,,,*******......................++++++++++++++++++++++++++++++++++++++++++++++++++++++++++++++++++++++++++++++++++++.......                                                                                                                                                                                                                                    ",
"                                                                                                ..............@@@@@@@@@@@@@@.......*******==============-------;;;;;;;''''''';;;;;;;,,,,,,,''''''',,,,,,,;;;;;;;,,,,,,,,,,,,,,--------------,,,,,,,*******......................++++++++++++++++++++++++++++++++++++++++++++++++++++++++++++++++++++++++++++++++++++.......                                                                                                                                                                                                                                    ",
"                                                                                                ..............@@@@@@@@@@@@@@.......*******==============-------;;;;;;;''''''';;;;;;;,,,,,,,''''''',,,,,,,;;;;;;;,,,,,,,,,,,,,,--------------,,,,,,,*******......................++++++++++++++++++++++++++++++++++++++++++++++++++++++++++++++++++++++++++++++++++++.......                                                                                                                                                                                                                                    ",
"                                                                                                ..............@@@@@@@@@@@@@@.......*******==============-------;;;;;;;''''''';;;;;;;,,,,,,,''''''',,,,,,,;;;;;;;,,,,,,,,,,,,,,--------------,,,,,,,*******......................++++++++++++++++++++++++++++++++++++++++++++++++++++++++++++++++++++++++++++++++++++.......                                                                                                                                                                                                                                    ",
"                                                                                                ..............@@@@@@@@@@@@@@.......*******==============-------;;;;;;;''''''';;;;;;;,,,,,,,''''''',,,,,,,;;;;;;;,,,,,,,,,,,,,,--------------,,,,,,,*******......................++++++++++++++++++++++++++++++++++++++++++++++++++++++++++++++++++++++++++++++++++++.......                                                                                                                                                                                                                                    ",
"                                                                                                ..............@@@@@@@@@@@@@@.......*******==============-------;;;;;;;''''''';;;;;;;,,,,,,,''''''',,,,,,,;;;;;;;,,,,,,,,,,,,,,--------------,,,,,,,*******......................++++++++++++++++++++++++++++++++++++++++++++++++++++++++++++++++++++++++++++++++++++.......                                                                                                                                                                                                                                    ",
"                                                                                                       ..............@@@@@@@.......**************==============-------,,,,,,,'''''''>>>>>>>,,,,,,,'''''''>>>>>>>-------,,,,,,,-------,,,,,,,*******.......@@@@@@@@++++++++++++++++++++++++++++++++++++++++++++++++++++++++++++++++++++++++++++++++++++++++++++++++++.......                                                                                                                                                                                                                                    ",
"                                                                                                       ..............@@@@@@@.......**************==============-------,,,,,,,'''''''>>>>>>>,,,,,,,'''''''>>>>>>>-------,,,,,,,-------,,,,,,,*******.......@@@@@@@@+++++++++++++++++++++++++++++++++++++++++++++++++++++++++++++++++++++++++++++++++++++++++++++++++++++++++..............                                                                                                                                                                                                                      ",
"                                                                                                       ..............@@@@@@@.......**************==============-------,,,,,,,'''''''>>>>>>>,,,,,,,'''''''>>>>>>>-------,,,,,,,-------,,,,,,,*******.......@@@@@@@@+++++++++++++++++++++++++++++++++++++++++++++++++++++++++++++++++++++++++++++++++++++++++++++++++++++++++..............                                                                                                                                                                                                                      ",
"                                                                                                       ..............@@@@@@@.......**************==============-------,,,,,,,'''''''>>>>>>>,,,,,,,'''''''>>>>>>>-------,,,,,,,-------,,,,,,,*******.......@@@@@@@@+++++++++++++++++++++++++++++++++++++++++++++++++++++++++++++++++++++++++++++++++++++++++++++++++++++++++..............                                                                                                                                                                                                                      ",
"                                                                                                       ..............@@@@@@@.......**************==============-------,,,,,,,'''''''>>>>>>>,,,,,,,'''''''>>>>>>>-------,,,,,,,-------,,,,,,,*******.......@@@@@@@@+++++++++++++++++++++++++++++++++++++++++++++++++++++++++++++++++++++++++++++++++++++++++++++++++++++++++..............                                                                                                                                                                                                                      ",
"                                                                                                       ..............@@@@@@@.......**************==============-------,,,,,,,'''''''>>>>>>>,,,,,,,'''''''>>>>>>>-------,,,,,,,-------,,,,,,,*******.......@@@@@@@@+++++++++++++++++++++++++++++++++++++++++++++++++++++++++++++++++++++++++++++++++++++++++++++++++++++++++..............                                                                                                                                                                                                                      ",
"                                                                                                       ..............@@@@@@@.......**************==============-------,,,,,,,'''''''>>>>>>>,,,,,,,'''''''>>>>>>>-------,,,,,,,-------,,,,,,,*******.......@@@@@@@@+++++++++++++++++++++++++++++++++++++++++++++++++++++++++++++++++++++++++++++++++++++++++++++++++++++++++..............                                                                                                                                                                                                                      ",
"                                                                                                              ..............@@@@@@@.......**************=======-------;;;;;;;;;;;;;;;;;;;;;>>>>>>>>>>>>>>;;;;;;;;;;;;;;--------------,,,,,,,*******.......+++++++++++++++++++++++++++++++++++++++++++++++++++++++++++++++++++++++++++++++++++++++++++++++++++++++++++++++++..............                                                                                                                                                                                                                      ",
"                                                                                                              ..............@@@@@@@.......**************=======-------;;;;;;;;;;;;;;;;;;;;;>>>>>>>>>>>>>>;;;;;;;;;;;;;;--------------,,,,,,,*******.......++++++++++++++++++++++++++++++++++++++++++++++++++++++++++++++++++++++++++++++++++++++++++++++++++++++++++++++++++++++++..............                                                                                                                                                                                                               ",
"                                                                                                              ..............@@@@@@@.......**************=======-------;;;;;;;;;;;;;;;;;;;;;>>>>>>>>>>>>>>;;;;;;;;;;;;;;--------------,,,,,,,*******.......++++++++++++++++++++++++++++++++++++++++++++++++++++++++++++++++++++++++++++++++++++++++++++++++++++++++++++++++++++++++..............                                                                                                                                                                                                               ",
"                                                                                                              ..............@@@@@@@.......**************=======-------;;;;;;;;;;;;;;;;;;;;;>>>>>>>>>>>>>>;;;;;;;;;;;;;;--------------,,,,,,,*******.......++++++++++++++++++++++++++++++++++++++++++++++++++++++++++++++++++++++++++++++++++++++++++++++++++++++++++++++++++++++++..............                                                                                                                                                                                                               ",
"                                                                                                              ..............@@@@@@@.......**************=======-------;;;;;;;;;;;;;;;;;;;;;>>>>>>>>>>>>>>;;;;;;;;;;;;;;--------------,,,,,,,*******.......++++++++++++++++++++++++++++++++++++++++++++++++++++++++++++++++++++++++++++++++++++++++++++++++++++++++++++++++++++++++..............                                                                                                                                                                                                               ",
"                                                                                                              ..............@@@@@@@.......**************=======-------;;;;;;;;;;;;;;;;;;;;;>>>>>>>>>>>>>>;;;;;;;;;;;;;;--------------,,,,,,,*******.......++++++++++++++++++++++++++++++++++++++++++++++++++++++++++++++++++++++++++++++++++++++++++++++++++++++++++++++++++++++++..............                                                                                                                                                                                                               ",
"                                                                                                              ..............@@@@@@@.......**************=======-------;;;;;;;;;;;;;;;;;;;;;>>>>>>>>>>>>>>;;;;;;;;;;;;;;--------------,,,,,,,*******.......++++++++++++++++++++++++++++++++++++++++++++++++++++++++++++++++++++++++++++++++++++++++++++++++++++++++++++++++++++++++..............                                                                                                                                                                                                               ",
"                                                                                                                     ..............@@@@@@@.......*******==============--------------;;;;;;;;;;;;;;;;;;;;;;;;;;;;--------------,,,,,,,*******.......+++++++++++++++++++++++++++++++++++++++++++++++++++++++++++++++++++++++++++++++++++++++++++++++++++++++++++++++++++++++++++++++..............                                                                                                                                                                                                               ",
"                                                                                                                     ..............@@@@@@@.......*******==============--------------;;;;;;;;;;;;;;;;;;;;;;;;;;;;--------------,,,,,,,*******.......++++++++++++++++++++++++++++++++++++++++++++++++++++++++++++++++++++++++++++++++++++++++++++++++++++++++++++++++++++++++++++++++++++++..............                                                                                                                                                                                                        ",
"                                                                                                                     ..............@@@@@@@.......*******==============--------------;;;;;;;;;;;;;;;;;;;;;;;;;;;;--------------,,,,,,,*******.......++++++++++++++++++++++++++++++++++++++++++++++++++++++++++++++++++++++++++++++++++++++++++++++++++++++++++++++++++++++++++++++++++++++..............                                                                                                                                                                                                        ",
"                                                                                                                     ..............@@@@@@@.......*******==============--------------;;;;;;;;;;;;;;;;;;;;;;;;;;;;--------------,,,,,,,*******.......++++++++++++++++++++++++++++++++++++++++++++++++++++++++++++++++++++++++++++++++++++++++++++++++++++++++++++++++++++++++++++++++++++++..............                                                                                                                                                                                                        ",
"                                                                                                                     ..............@@@@@@@.......*******==============--------------;;;;;;;;;;;;;;;;;;;;;;;;;;;;--------------,,,,,,,*******.......++++++++++++++++++++++++++++++++++++++++++++++++++++++++++++++++++++++++++++++++++++++++++++++++++++++++++++++++++++++++++++++++++++++..............                                                                                                                                                                                                        ",
"                                                                                                                     ..............@@@@@@@.......*******==============--------------;;;;;;;;;;;;;;;;;;;;;;;;;;;;--------------,,,,,,,*******.......++++++++++++++++++++++++++++++++++++++++++++++++++++++++++++++++++++++++++++++++++++++++++++++++++++++++++++++++++++++++++++++++++++++..............                                                                                                                                                                                                        ",
"                                                                                                                     ..............@@@@@@@.......*******==============--------------;;;;;;;;;;;;;;;;;;;;;;;;;;;;--------------,,,,,,,*******.......++++++++++++++++++++++++++++++++++++++++++++++++++++++++++++++++++++++++++++++++++++++++++++++++++++++++++++++++++++++++++++++++++++++..............                                                                                                                                                                                                        ",
"                                                                                                                            ..............@@@@@@@.......*******=======,,,,,,,----------------------------,,,,,,,,,,,,,,,,,,,,,*******.......++++++++++++++##############+++++++++++++++++++++++++++++++++++++++++++++++++++++++++++++++++++++++++++++++++++++++++++++++++++++++++++++++++..............                                                                                                                                                                                                        ",
"                                                                                                                            ..............@@@@@@@.......*******=======,,,,,,,----------------------------,,,,,,,,,,,,,,,,,,,,,*******.......++++++++++++++##############++++++++++++++++++++++++++++++++++++++++++++++++++++++++++++++++++++++++++++++++++++++++++++++++++++++++++++++++++++++++..............                                                                                                                                                                                                 ",
"                                                                                                                            ..............@@@@@@@.......*******=======,,,,,,,----------------------------,,,,,,,,,,,,,,,,,,,,,*******.......++++++++++++++##############++++++++++++++++++++++++++++++++++++++++++++++++++++++++++++++++++++++++++++++++++++++++++++++++++++++++++++++++++++++++..............                                                                                                                                                                                                 ",
"                                                                                                                            ..............@@@@@@@.......*******=======,,,,,,,----------------------------,,,,,,,,,,,,,,,,,,,,,*******.......++++++++++++++##############++++++++++++++++++++++++++++++++++++++++++++++++++++++++++++++++++++++++++++++++++++++++++++++++++++++++++++++++++++++++..............                                                                                                                                                                                                 ",
"                                                                                                                            ..............@@@@@@@.......*******=======,,,,,,,----------------------------,,,,,,,,,,,,,,,,,,,,,*******.......++++++++++++++##############++++++++++++++++++++++++++++++++++++++++++++++++++++++++++++++++++++++++++++++++++++++++++++++++++++++++++++++++++++++++..............                                                                                                                                                                                                 ",
"                                                                                                                            ..............@@@@@@@.......*******=======,,,,,,,----------------------------,,,,,,,,,,,,,,,,,,,,,*******.......++++++++++++++##############++++++++++++++++++++++++++++++++++++++++++++++++++++++++++++++++++++++++++++++++++++++++++++++++++++++++++++++++++++++++..............                                                                                                                                                                                                 ",
"                                                                                                                            ..............@@@@@@@.......*******=======,,,,,,,----------------------------,,,,,,,,,,,,,,,,,,,,,*******.......++++++++++++++##############++++++++++++++++++++++++++++++++++++++++++++++++++++++++++++++++++++++++++++++++++++++++++++++++++++++++++++++++++++++++..............                                                                                                                                                                                                 ",
"                                                                                                                                   ..............@@@@@@@.......*******,,,,,,,,,,,,,,,,,,,,,,,,,,,,,,,,,,,,,,,,,,**************..............++++++++++++++#######+++++++#######+++++++++++++++++++++++++++++++++++++++++++++++++++++++++++++++++++++++++++++++++++++++++++++++++++++++++++++++++..............                                                                                                                                                                                                 ",
"                                                                                                                                   ..............@@@@@@@.......*******,,,,,,,,,,,,,,,,,,,,,,,,,,,,,,,,,,,,,,,,,,**************..............+++++++##############+++++++#######++++++++++++++++++++++++++++++++++++++++++++++++++++++++++++++++++++++++++++++++++++++++++++++++++++++++++++++++++++++++.......                                                                                                                                                                                                 ",
"                                                                                                                                   ..............@@@@@@@.......*******,,,,,,,,,,,,,,,,,,,,,,,,,,,,,,,,,,,,,,,,,,**************..............+++++++##############+++++++#######++++++++++++++++++++++++++++++++++++++++++++++++++++++++++++++++++++++++++++++++++++++++++++++++++++++++++++++++++++++++.......                                                                                                                                                                                                 ",
"                                                                                                                                   ..............@@@@@@@.......*******,,,,,,,,,,,,,,,,,,,,,,,,,,,,,,,,,,,,,,,,,,**************..............+++++++##############+++++++#######++++++++++++++++++++++++++++++++++++++++++++++++++++++++++++++++++++++++++++++++++++++++++++++++++++++++++++++++++++++++.......                                                                                                                                                                                                 ",
"                                                                                                                                   ..............@@@@@@@.......*******,,,,,,,,,,,,,,,,,,,,,,,,,,,,,,,,,,,,,,,,,,**************..............+++++++##############+++++++#######++++++++++++++++++++++++++++++++++++++++++++++++++++++++++++++++++++++++++++++++++++++++++++++++++++++++++++++++++++++++.......                                                                                                                                                                                                 ",
"                                                                                                                                   ..............@@@@@@@.......*******,,,,,,,,,,,,,,,,,,,,,,,,,,,,,,,,,,,,,,,,,,**************..............+++++++##############+++++++#######++++++++++++++++++++++++++++++++++++++++++++++++++++++++++++++++++++++++++++++++++++++++++++++++++++++++++++++++++++++++.......                                                                                                                                                                                                 ",
"                                                                                                                                   ..............@@@@@@@.......*******,,,,,,,,,,,,,,,,,,,,,,,,,,,,,,,,,,,,,,,,,,**************..............+++++++##############+++++++#######++++++++++++++++++++++++++++++++++++++++++++++++++++++++++++++++++++++++++++++++++++++++++++++++++++++++++++++++++++++++.......                                                                                                                                                                                                 ",
"                                                                                                                                          ............................******************************************.....................@@@@@@@+++++++#######++++++++++++++##############+++++++++++++++++++++++++++++++++++++++++++++++++++++++++++++++++++++++++++++++++++++++++++++++++++++++++++++++++.......                                                                                                                                                                                                 ",
"                                                                                                                                          ............................******************************************.....................@@@@@@@+++++++#######++++++++++++++##############++++++++++++++++++++++++++++++++++++++++++++++++++++++++++++++++++++++++++++++++++++++++++++++++++++++++++++++++++++++++.......                                                                                                                                                                                          ",
"                                                                                                                                          ............................******************************************.....................@@@@@@@+++++++#######++++++++++++++##############++++++++++++++++++++++++++++++++++++++++++++++++++++++++++++++++++++++++++++++++++++++++++++++++++++++++++++++++++++++++.......                                                                                                                                                                                          ",
"                                                                                                                                          ............................******************************************.....................@@@@@@@+++++++#######++++++++++++++##############++++++++++++++++++++++++++++++++++++++++++++++++++++++++++++++++++++++++++++++++++++++++++++++++++++++++++++++++++++++++.......                                                                                                                                                                                          ",
"                                                                                                                                          ............................******************************************.....................@@@@@@@+++++++#######++++++++++++++##############++++++++++++++++++++++++++++++++++++++++++++++++++++++++++++++++++++++++++++++++++++++++++++++++++++++++++++++++++++++++.......                                                                                                                                                                                          ",
"                                                                                                                                          ............................******************************************.....................@@@@@@@+++++++#######++++++++++++++##############++++++++++++++++++++++++++++++++++++++++++++++++++++++++++++++++++++++++++++++++++++++++++++++++++++++++++++++++++++++++.......                                                                                                                                                                                          ",
"                                                                                                                                          ............................******************************************.....................@@@@@@@+++++++#######++++++++++++++##############++++++++++++++++++++++++++++++++++++++++++++++++++++++++++++++++++++++++++++++++++++++++++++++++++++++++++++++++++++++++.......                                                                                                                                                                                          ",
"                                                                                                                                                        ........................................................@@@@@@@.......@@@@@@@@@@@@@@+++++++++++++++++++++++++++++++++++##############+++++++++++++++++++++++++++++++++++++++++++++++++++++++++++++++++++++++++++++++++++++++++++++++++++++++++++++++++.......                                                                                                                                                                                          ",
"                                                                                                                                                        ........................................................@@@@@@@.......@@@@@@@@@@@@@@+++++++++++++++++++++++++++++++++++##############+++++++++++++++++++++++++++++++++++++++++++++++++++++++++++++++++++++++++++++++++++++++++++++++++++++++++++++++++..............                                                                                                                                                                                   ",
"                                                                                                                                                        ........................................................@@@@@@@.......@@@@@@@@@@@@@@+++++++++++++++++++++++++++++++++++##############+++++++++++++++++++++++++++++++++++++++++++++++++++++++++++++++++++++++++++++++++++++++++++++++++++++++++++++++++..............                                                                                                                                                                                   ",
"                                                                                                                                                        ........................................................@@@@@@@.......@@@@@@@@@@@@@@+++++++++++++++++++++++++++++++++++##############+++++++++++++++++++++++++++++++++++++++++++++++++++++++++++++++++++++++++++++++++++++++++++++++++++++++++++++++++..............                                                                                                                                                                                   ",
"                                                                                                                                                        ........................................................@@@@@@@.......@@@@@@@@@@@@@@+++++++++++++++++++++++++++++++++++##############+++++++++++++++++++++++++++++++++++++++++++++++++++++++++++++++++++++++++++++++++++++++++++++++++++++++++++++++++..............                                                                                                                                                                                   ",
"                                                                                                                                                        ........................................................@@@@@@@.......@@@@@@@@@@@@@@+++++++++++++++++++++++++++++++++++##############+++++++++++++++++++++++++++++++++++++++++++++++++++++++++++++++++++++++++++++++++++++++++++++++++++++++++++++++++..............                                                                                                                                                                                   ",
"                                                                                                                                                        ........................................................@@@@@@@.......@@@@@@@@@@@@@@+++++++++++++++++++++++++++++++++++##############+++++++++++++++++++++++++++++++++++++++++++++++++++++++++++++++++++++++++++++++++++++++++++++++++++++++++++++++++..............                                                                                                                                                                                   ",
"                                                                                                                                                               ..............@@@@@@@@@@@@@@@@@@@@@@@@@@@@@@@@@@@@@@@@@@@@@@@@@@@@@@@@++++++++++++++++++++++++++++++++++++++++++@@@@@@@##############++++++++++++++++++++++++++++++++++++++++++++++++++++++++++++++++++++++++++++++++++++++++++++++++++++++++++..............                                                                                                                                                                                   ",
"                                                                                                                                                               ..............@@@@@@@@@@@@@@@@@@@@@@@@@@@@@@@@@@@@@@@@@@@@@@@@@@@@@@@@++++++++++++++++++++++++++++++++++++++++++@@@@@@@##############+++++++++++++++++++++++++++++++++++++++++++++++++++++++++++++++++++++++++++++++++++++++++++++++++++++++++++++++++..............                                                                                                                                                                            ",
"                                                                                                                                                               ..............@@@@@@@@@@@@@@@@@@@@@@@@@@@@@@@@@@@@@@@@@@@@@@@@@@@@@@@@++++++++++++++++++++++++++++++++++++++++++@@@@@@@##############+++++++++++++++++++++++++++++++++++++++++++++++++++++++++++++++++++++++++++++++++++++++++++++++++++++++++++++++++..............                                                                                                                                                                            ",
"                                                                                                                                                               ..............@@@@@@@@@@@@@@@@@@@@@@@@@@@@@@@@@@@@@@@@@@@@@@@@@@@@@@@@++++++++++++++++++++++++++++++++++++++++++@@@@@@@##############+++++++++++++++++++++++++++++++++++++++++++++++++++++++++++++++++++++++++++++++++++++++++++++++++++++++++++++++++..............                                                                                                                                                                            ",
"                                                                                                                                                               ..............@@@@@@@@@@@@@@@@@@@@@@@@@@@@@@@@@@@@@@@@@@@@@@@@@@@@@@@@++++++++++++++++++++++++++++++++++++++++++@@@@@@@##############+++++++++++++++++++++++++++++++++++++++++++++++++++++++++++++++++++++++++++++++++++++++++++++++++++++++++++++++++..............                                                                                                                                                                            ",
"                                                                                                                                                               ..............@@@@@@@@@@@@@@@@@@@@@@@@@@@@@@@@@@@@@@@@@@@@@@@@@@@@@@@@++++++++++++++++++++++++++++++++++++++++++@@@@@@@##############+++++++++++++++++++++++++++++++++++++++++++++++++++++++++++++++++++++++++++++++++++++++++++++++++++++++++++++++++..............                                                                                                                                                                            ",
"                                                                                                                                                               ..............@@@@@@@@@@@@@@@@@@@@@@@@@@@@@@@@@@@@@@@@@@@@@@@@@@@@@@@@++++++++++++++++++++++++++++++++++++++++++@@@@@@@##############+++++++++++++++++++++++++++++++++++++++++++++++++++++++++++++++++++++++++++++++++++++++++++++++++++++++++++++++++..............                                                                                                                                                                            ",
"                                                                                                                                                                      ............................@@@@@@@@@@@@@@@@@@@@@@@@@@@@@@@@@@@+++++++++++++++++++++++++++++++++++++++++++++++++@@@@@@@##############++++++++++++++++++++++++++++++++++++++++++++++++++++++++++++++++++++++++++++++++++++++++++++++++++++++++++..............                                                                                                                                                                            ",
"                                                                                                                                                                      ............................@@@@@@@@@@@@@@@@@@@@@@@@@@@@@@@@@@@+++++++++++++++++++++++++++++++++++++++++++++++++@@@@@@@##############+++++++++++++++++++++++++++++++++++++++++++++++++++++++++++++++++++++++++++++++++++++++++++++++++++++++++++++++++..............                                                                                                                                                                     ",
"                                                                                                                                                                      ............................@@@@@@@@@@@@@@@@@@@@@@@@@@@@@@@@@@@+++++++++++++++++++++++++++++++++++++++++++++++++@@@@@@@##############+++++++++++++++++++++++++++++++++++++++++++++++++++++++++++++++++++++++++++++++++++++++++++++++++++++++++++++++++..............                                                                                                                                                                     ",
"                                                                                                                                                                      ............................@@@@@@@@@@@@@@@@@@@@@@@@@@@@@@@@@@@+++++++++++++++++++++++++++++++++++++++++++++++++@@@@@@@##############+++++++++++++++++++++++++++++++++++++++++++++++++++++++++++++++++++++++++++++++++++++++++++++++++++++++++++++++++..............                                                                                                                                                                     ",
"                                                                                                                                                                      ............................@@@@@@@@@@@@@@@@@@@@@@@@@@@@@@@@@@@+++++++++++++++++++++++++++++++++++++++++++++++++@@@@@@@##############+++++++++++++++++++++++++++++++++++++++++++++++++++++++++++++++++++++++++++++++++++++++++++++++++++++++++++++++++..............                                                                                                                                                                     ",
"                                                                                                                                                                      ............................@@@@@@@@@@@@@@@@@@@@@@@@@@@@@@@@@@@+++++++++++++++++++++++++++++++++++++++++++++++++@@@@@@@##############+++++++++++++++++++++++++++++++++++++++++++++++++++++++++++++++++++++++++++++++++++++++++++++++++++++++++++++++++..............                                                                                                                                                                     ",
"                                                                                                                                                                      ............................@@@@@@@@@@@@@@@@@@@@@@@@@@@@@@@@@@@+++++++++++++++++++++++++++++++++++++++++++++++++@@@@@@@##############+++++++++++++++++++++++++++++++++++++++++++++++++++++++++++++++++++++++++++++++++++++++++++++++++++++++++++++++++..............                                                                                                                                                                     ",
"                                                                                                                                                                                           .....................@@@@@@@@@@@@@@@@@@@@@++++++++++++++++++++++++++++++++++++++++++++++++++++++++@@@@@@@#######+++++++++++++++++++++++++++++++++++++++++++++++++++++++++++++++++++++++++++++++++++++++++++++++++++++++++++++++++..............                                                                                                                                                                     ",
"                                                                                                                                                                                           .....................@@@@@@@@@@@@@@@@@@@@@++++++++++++++++++++++++++++++++++++++++++++++++++++++++@@@@@@@#######++++++++++++++++++++++++++++++++++++++++++++++++++++++++++++++++++++++++++++++++++++++++++++++++++++++++++++++++++++++++..............                                                                                                                                                              ",
"                                                                                                                                                                                           .....................@@@@@@@@@@@@@@@@@@@@@++++++++++++++++++++++++++++++++++++++++++++++++++++++++@@@@@@@#######++++++++++++++++++++++++++++++++++++++++++++++++++++++++++++++++++++++++++++++++++++++++++++++++++++++++++++++++++++++++..............                                                                                                                                                              ",
"                                                                                                                                                                                           .....................@@@@@@@@@@@@@@@@@@@@@++++++++++++++++++++++++++++++++++++++++++++++++++++++++@@@@@@@#######++++++++++++++++++++++++++++++++++++++++++++++++++++++++++++++++++++++++++++++++++++++++++++++++++++++++++++++++++++++++..............                                                                                                                                                              ",
"                                                                                                                                                                                           .....................@@@@@@@@@@@@@@@@@@@@@++++++++++++++++++++++++++++++++++++++++++++++++++++++++@@@@@@@#######++++++++++++++++++++++++++++++++++++++++++++++++++++++++++++++++++++++++++++++++++++++++++++++++++++++++++++++++++++++++..............                                                                                                                                                              ",
"                                                                                                                                                                                           .....................@@@@@@@@@@@@@@@@@@@@@++++++++++++++++++++++++++++++++++++++++++++++++++++++++@@@@@@@#######++++++++++++++++++++++++++++++++++++++++++++++++++++++++++++++++++++++++++++++++++++++++++++++++++++++++++++++++++++++++..............                                                                                                                                                              ",
"                                                                                                                                                                                           .....................@@@@@@@@@@@@@@@@@@@@@++++++++++++++++++++++++++++++++++++++++++++++++++++++++@@@@@@@#######++++++++++++++++++++++++++++++++++++++++++++++++++++++++++++++++++++++++++++++++++++++++++++++++++++++++++++++++++++++++..............                                                                                                                                                              ",
"                                                                                                                                                                                                         .......@@@@@@@@@@@@@@+++++++++++++++++++++++++++++++++++++++++++++++++++++++++++++++@@@@@@@##############+++++++++++++++++++++++++++++++++++++++++++++++++++++++++++++++++++++++++++++++++++++++++++++++++++++++++++++++++..............                                                                                                                                                              ",
"                                                                                                                                                                                                         .......@@@@@@@@@@@@@@+++++++++++++++++++++++++++++++++++++++++++++++++++++++++++++++@@@@@@@##############++++++++++++++++++++++++++++++++++++++++++++++++++++++++++++++++++++++++++++++++++++++++++++++++++++++++++++++++++++++++..............                                                                                                                                                       ",
"                                                                                                                                                                                                         .......@@@@@@@@@@@@@@+++++++++++++++++++++++++++++++++++++++++++++++++++++++++++++++@@@@@@@##############++++++++++++++++++++++++++++++++++++++++++++++++++++++++++++++++++++++++++++++++++++++++++++++++++++++++++++++++++++++++..............                                                                                                                                                       ",
"                                                                                                                                                                                                         .......@@@@@@@@@@@@@@+++++++++++++++++++++++++++++++++++++++++++++++++++++++++++++++@@@@@@@##############++++++++++++++++++++++++++++++++++++++++++++++++++++++++++++++++++++++++++++++++++++++++++++++++++++++++++++++++++++++++..............                                                                                                                                                       ",
"                                                                                                                                                                                                         .......@@@@@@@@@@@@@@+++++++++++++++++++++++++++++++++++++++++++++++++++++++++++++++@@@@@@@##############++++++++++++++++++++++++++++++++++++++++++++++++++++++++++++++++++++++++++++++++++++++++++++++++++++++++++++++++++++++++..............                                                                                                                                                       ",
"                                                                                                                                                                                                         .......@@@@@@@@@@@@@@+++++++++++++++++++++++++++++++++++++++++++++++++++++++++++++++@@@@@@@##############++++++++++++++++++++++++++++++++++++++++++++++++++++++++++++++++++++++++++++++++++++++++++++++++++++++++++++++++++++++++..............                                                                                                                                                       ",
"                                                                                                                                                                                                         .......@@@@@@@@@@@@@@+++++++++++++++++++++++++++++++++++++++++++++++++++++++++++++++@@@@@@@##############++++++++++++++++++++++++++++++++++++++++++++++++++++++++++++++++++++++++++++++++++++++++++++++++++++++++++++++++++++++++..............                                                                                                                                                       ",
"                                                                                                                                                                                                         ..............@@@@@@@@@@@@@@@@@@@@@++++++++++++++++++++++++++++++++++++++++++++++++++++++++@@@@@@@#######++++++++++++++++++++++++++++++++++++++++++++++++++++++++++++++++++++++++++++++++++++++++++++++++++++++++++++++++++++++++..............                                                                                                                                                       ",
"                                                                                                                                                                                                         ..............@@@@@@@@@@@@@@@@@@@@@++++++++++++++++++++++++++++++++++++++++++++++++++++++++@@@@@@@#######+++++++++++++++++++++++++++++++++++++++++++++++++++++++++++++++++++++++++++++++++++++++++++++++++++++++++++++++++++++++++++++++..............                                                                                                                                                ",
"                                                                                                                                                                                                         ..............@@@@@@@@@@@@@@@@@@@@@++++++++++++++++++++++++++++++++++++++++++++++++++++++++@@@@@@@#######+++++++++++++++++++++++++++++++++++++++++++++++++++++++++++++++++++++++++++++++++++++++++++++++++++++++++++++++++++++++++++++++..............                                                                                                                                                ",
"                                                                                                                                                                                                         ..............@@@@@@@@@@@@@@@@@@@@@++++++++++++++++++++++++++++++++++++++++++++++++++++++++@@@@@@@#######+++++++++++++++++++++++++++++++++++++++++++++++++++++++++++++++++++++++++++++++++++++++++++++++++++++++++++++++++++++++++++++++..............                                                                                                                                                ",
"                                                                                                                                                                                                         ..............@@@@@@@@@@@@@@@@@@@@@++++++++++++++++++++++++++++++++++++++++++++++++++++++++@@@@@@@#######+++++++++++++++++++++++++++++++++++++++++++++++++++++++++++++++++++++++++++++++++++++++++++++++++++++++++++++++++++++++++++++++..............                                                                                                                                                ",
"                                                                                                                                                                                                         ..............@@@@@@@@@@@@@@@@@@@@@++++++++++++++++++++++++++++++++++++++++++++++++++++++++@@@@@@@#######+++++++++++++++++++++++++++++++++++++++++++++++++++++++++++++++++++++++++++++++++++++++++++++++++++++++++++++++++++++++++++++++..............                                                                                                                                                ",
"                                                                                                                                                                                                         ..............@@@@@@@@@@@@@@@@@@@@@++++++++++++++++++++++++++++++++++++++++++++++++++++++++@@@@@@@#######+++++++++++++++++++++++++++++++++++++++++++++++++++++++++++++++++++++++++++++++++++++++++++++++++++++++++++++++++++++++++++++++..............                                                                                                                                                ",
"                                                                                                                                                                                                                .......@@@@@@@@@@@@@@@@@@@@@@@@@@@@++++++++++++++++++++++++++++++++++++++++++++++++++++++++@@@@@@@+++++++++++++++++++++++++++++++++++++++++++++++++++++++++++++++++++++++++++++++++++++++++++++++++++++++++++++++++++++++++++++++..............                                                                                                                                                ",
"                                                                                                                                                                                                                .......@@@@@@@@@@@@@@@@@@@@@@@@@@@@++++++++++++++++++++++++++++++++++++++++++++++++++++++++@@@@@@@++++++++++++++++++++++++++++++++++++++++++++++++++++++++++++++++++++++++++++++++++++++++++++++++++++++++++++++++++++++++++++++++++++++..............                                                                                                                                         ",
"                                                                                                                                                                                                                .......@@@@@@@@@@@@@@@@@@@@@@@@@@@@++++++++++++++++++++++++++++++++++++++++++++++++++++++++@@@@@@@++++++++++++++++++++++++++++++++++++++++++++++++++++++++++++++++++++++++++++++++++++++++++++++++++++++++++++++++++++++++++++++++++++++..............                                                                                                                                         ",
"                                                                                                                                                                                                                .......@@@@@@@@@@@@@@@@@@@@@@@@@@@@++++++++++++++++++++++++++++++++++++++++++++++++++++++++@@@@@@@++++++++++++++++++++++++++++++++++++++++++++++++++++++++++++++++++++++++++++++++++++++++++++++++++++++++++++++++++++++++++++++++++++++..............                                                                                                                                         ",
"                                                                                                                                                                                                                .......@@@@@@@@@@@@@@@@@@@@@@@@@@@@++++++++++++++++++++++++++++++++++++++++++++++++++++++++@@@@@@@++++++++++++++++++++++++++++++++++++++++++++++++++++++++++++++++++++++++++++++++++++++++++++++++++++++++++++++++++++++++++++++++++++++..............                                                                                                                                         ",
"                                                                                                                                                                                                                .......@@@@@@@@@@@@@@@@@@@@@@@@@@@@++++++++++++++++++++++++++++++++++++++++++++++++++++++++@@@@@@@++++++++++++++++++++++++++++++++++++++++++++++++++++++++++++++++++++++++++++++++++++++++++++++++++++++++++++++++++++++++++++++++++++++..............                                                                                                                                         ",
"                                                                                                                                                                                                                .......@@@@@@@@@@@@@@@@@@@@@@@@@@@@++++++++++++++++++++++++++++++++++++++++++++++++++++++++@@@@@@@++++++++++++++++++++++++++++++++++++++++++++++++++++++++++++++++++++++++++++++++++++++++++++++++++++++++++++++++++++++++++++++++++++++..............                                                                                                                                         ",
"                                                                                                                                                                                                                .....................@@@@@@@@@@@@@@@@@@@@@++++++++++++++++++++++++++++++++++++++++++++++++++++++++++++++++++++++++++++++++++++++++++++++++++++++++++++++++++++++++++++++++++++++++++++++++++++++++++++++++++++++++++++++++++++++++++++++..............                                                                                                                                         ",
"                                                                                                                                                                                                                .....................@@@@@@@@@@@@@@@@@@@@@+++++++++++++++++++++++++++++++++++++++++++++++++++++++++++++++++++++++++++++++++++++++++++++++++++++++++++++++++++++++++++++++++++++++++++++++++++++++++++++++++++++++++++++++++++++++++++++++++++++.....................                                                                                                                           ",
"                                                                                                                                                                                                                .....................@@@@@@@@@@@@@@@@@@@@@+++++++++++++++++++++++++++++++++++++++++++++++++++++++++++++++++++++++++++++++++++++++++++++++++++++++++++++++++++++++++++++++++++++++++++++++++++++++++++++++++++++++++++++++++++++++++++++++++++++.....................                                                                                                                           ",
"                                                                                                                                                                                                                .....................@@@@@@@@@@@@@@@@@@@@@+++++++++++++++++++++++++++++++++++++++++++++++++++++++++++++++++++++++++++++++++++++++++++++++++++++++++++++++++++++++++++++++++++++++++++++++++++++++++++++++++++++++++++++++++++++++++++++++++++++.....................                                                                                                                           ",
"                                                                                                                                                                                                                .....................@@@@@@@@@@@@@@@@@@@@@+++++++++++++++++++++++++++++++++++++++++++++++++++++++++++++++++++++++++++++++++++++++++++++++++++++++++++++++++++++++++++++++++++++++++++++++++++++++++++++++++++++++++++++++++++++++++++++++++++++.....................                                                                                                                           ",
"                                                                                                                                                                                                                .....................@@@@@@@@@@@@@@@@@@@@@+++++++++++++++++++++++++++++++++++++++++++++++++++++++++++++++++++++++++++++++++++++++++++++++++++++++++++++++++++++++++++++++++++++++++++++++++++++++++++++++++++++++++++++++++++++++++++++++++++++.....................                                                                                                                           ",
"                                                                                                                                                                                                                .....................@@@@@@@@@@@@@@@@@@@@@+++++++++++++++++++++++++++++++++++++++++++++++++++++++++++++++++++++++++++++++++++++++++++++++++++++++++++++++++++++++++++++++++++++++++++++++++++++++++++++++++++++++++++++++++++++++++++++++++++++.....................                                                                                                                           ",
"                                                                                                                                                                                                                              .......@@@@@@@@@@@@@@@@@@@@@@@@@@@@++++++++++++++++++++++++++++++++++++++++++++++++++++++++++++++++++++++++++++++++++++++++++++++++++++++++++++++++++++++++++++++++++++++++++++++++++++++++++++++++++++++++++++++++++++++++++++++.....................                                                                                                                           ",
"                                                                                                                                                                                                                              .......@@@@@@@@@@@@@@@@@@@@@@@@@@@@++++++++++++++++++++++++++++++++++++++++++++++++++++++++++++++++++++++++++++++++++++++++++++++++++++++++++++++++++++++++++++++++++++++++++++++++++++++++++++++++++++++++++++++++++++++++++++++++++++++++++++..............                                                                                                                    ",
"                                                                                                                                                                                                                              .......@@@@@@@@@@@@@@@@@@@@@@@@@@@@++++++++++++++++++++++++++++++++++++++++++++++++++++++++++++++++++++++++++++++++++++++++++++++++++++++++++++++++++++++++++++++++++++++++++++++++++++++++++++++++++++++++++++++++++++++++++++++++++++++++++++..............                                                                                                                    ",
"                                                                                                                                                                                                                              .......@@@@@@@@@@@@@@@@@@@@@@@@@@@@++++++++++++++++++++++++++++++++++++++++++++++++++++++++++++++++++++++++++++++++++++++++++++++++++++++++++++++++++++++++++++++++++++++++++++++++++++++++++++++++++++++++++++++++++++++++++++++++++++++++++++..............                                                                                                                    ",
"                                                                                                                                                                                                                              .......@@@@@@@@@@@@@@@@@@@@@@@@@@@@++++++++++++++++++++++++++++++++++++++++++++++++++++++++++++++++++++++++++++++++++++++++++++++++++++++++++++++++++++++++++++++++++++++++++++++++++++++++++++++++++++++++++++++++++++++++++++++++++++++++++++..............                                                                                                                    ",
"                                                                                                                                                                                                                              .......@@@@@@@@@@@@@@@@@@@@@@@@@@@@++++++++++++++++++++++++++++++++++++++++++++++++++++++++++++++++++++++++++++++++++++++++++++++++++++++++++++++++++++++++++++++++++++++++++++++++++++++++++++++++++++++++++++++++++++++++++++++++++++++++++++..............                                                                                                                    ",
"                                                                                                                                                                                                                              .......@@@@@@@@@@@@@@@@@@@@@@@@@@@@++++++++++++++++++++++++++++++++++++++++++++++++++++++++++++++++++++++++++++++++++++++++++++++++++++++++++++++++++++++++++++++++++++++++++++++++++++++++++++++++++++++++++++++++++++++++++++++++++++++++++++..............                                                                                                                    ",
"                                                                                                                                                                                                                              ..............@@@@@@@@@@@@@@@@@@@@@@@@@@@@+++++++++++++++++++++++++++++++++++++++++++++++++++++++++++++++++++++++++++++++++++++++++++++++++++++++++++++++++++++++++++++++++++++++++++++++++++++++++++++++++++++++++++++++++++++++++++++++++++++..............                                                                                                                    ",
"                                                                                                                                                                                                                              ..............@@@@@@@@@@@@@@@@@@@@@@@@@@@@++++++++++++++++++++++++++++++++++++++++++++++++++++++++++++++++++++++++++++++++++++++++++++++++++++++++++++++++++++++++++++++++++++++++++++++++++++++++++++++++++++++++++++++++++++++++++++++++++++++++++++..............                                                                                                             ",
"                                                                                                                                                                                                                              ..............@@@@@@@@@@@@@@@@@@@@@@@@@@@@++++++++++++++++++++++++++++++++++++++++++++++++++++++++++++++++++++++++++++++++++++++++++++++++++++++++++++++++++++++++++++++++++++++++++++++++++++++++++++++++++++++++++++++++++++++++++++++++++++++++++++..............                                                                                                             ",
"                                                                                                                                                                                                                              ..............@@@@@@@@@@@@@@@@@@@@@@@@@@@@++++++++++++++++++++++++++++++++++++++++++++++++++++++++++++++++++++++++++++++++++++++++++++++++++++++++++++++++++++++++++++++++++++++++++++++++++++++++++++++++++++++++++++++++++++++++++++++++++++++++++++..............                                                                                                             ",
"                                                                                                                                                                                                                              ..............@@@@@@@@@@@@@@@@@@@@@@@@@@@@++++++++++++++++++++++++++++++++++++++++++++++++++++++++++++++++++++++++++++++++++++++++++++++++++++++++++++++++++++++++++++++++++++++++++++++++++++++++++++++++++++++++++++++++++++++++++++++++++++++++++++..............                                                                                                             ",
"                                                                                                                                                                                                                              ..............@@@@@@@@@@@@@@@@@@@@@@@@@@@@++++++++++++++++++++++++++++++++++++++++++++++++++++++++++++++++++++++++++++++++++++++++++++++++++++++++++++++++++++++++++++++++++++++++++++++++++++++++++++++++++++++++++++++++++++++++++++++++++++++++++++..............                                                                                                             ",
"                                                                                                                                                                                                                              ..............@@@@@@@@@@@@@@@@@@@@@@@@@@@@++++++++++++++++++++++++++++++++++++++++++++++++++++++++++++++++++++++++++++++++++++++++++++++++++++++++++++++++++++++++++++++++++++++++++++++++++++++++++++++++++++++++++++++++++++++++++++++++++++++++++++..............                                                                                                             ",
"                                                                                                                                                                                                                                     ..............@@@@@@@@@@@@@@@@@@@@@++++++++++++++++++++++++++++++++++++++++++++++++++++++++++++++++++++++++++++++++++++++++++++++++++++++++++++++++++++++++++++++++++++++++++++++++++++++++++++++++++++++++++++++++++++++++++++++++++++++++++++..............                                                                                                             ",
"                                                                                                                                                                                                                                     ..............@@@@@@@@@@@@@@@@@@@@@+++++++++++++++++++++++++++++++++++++++++++++++++++++++++++++++++++++++++++++++++++++++++++++++++++++++++++++++++++++++++++++++++++++++++++++++++++++++++++++++++++++++++++++++++++++++++++++++++++++++++++++++++++..............                                                                                                      ",
"                                                                                                                                                                                                                                     ..............@@@@@@@@@@@@@@@@@@@@@+++++++++++++++++++++++++++++++++++++++++++++++++++++++++++++++++++++++++++++++++++++++++++++++++++++++++++++++++++++++++++++++++++++++++++++++++++++++++++++++++++++++++++++++++++++++++++++++++++++++++++++++++++..............                                                                                                      ",
"                                                                                                                                                                                                                                     ..............@@@@@@@@@@@@@@@@@@@@@+++++++++++++++++++++++++++++++++++++++++++++++++++++++++++++++++++++++++++++++++++++++++++++++++++++++++++++++++++++++++++++++++++++++++++++++++++++++++++++++++++++++++++++++++++++++++++++++++++++++++++++++++++..............                                                                                                      ",
"                                                                                                                                                                                                                                     ..............@@@@@@@@@@@@@@@@@@@@@+++++++++++++++++++++++++++++++++++++++++++++++++++++++++++++++++++++++++++++++++++++++++++++++++++++++++++++++++++++++++++++++++++++++++++++++++++++++++++++++++++++++++++++++++++++++++++++++++++++++++++++++++++..............                                                                                                      ",
"                                                                                                                                                                                                                                     ..............@@@@@@@@@@@@@@@@@@@@@+++++++++++++++++++++++++++++++++++++++++++++++++++++++++++++++++++++++++++++++++++++++++++++++++++++++++++++++++++++++++++++++++++++++++++++++++++++++++++++++++++++++++++++++++++++++++++++++++++++++++++++++++++..............                                                                                                      ",
"                                                                                                                                                                                                                                     ..............@@@@@@@@@@@@@@@@@@@@@+++++++++++++++++++++++++++++++++++++++++++++++++++++++++++++++++++++++++++++++++++++++++++++++++++++++++++++++++++++++++++++++++++++++++++++++++++++++++++++++++++++++++++++++++++++++++++++++++++++++++++++++++++..............                                                                                                      ",
"                                                                                                                                                                                                                                            .......@@@@@@@@@@@@@@@@@@@@@@@@@@@@++++++++++++++++++++++++++++++++++++++++++++++++++++++++++++++++++++++++++++++++++++++++++++++++++++++++++++++++++++++++++++++++++++++++++++++++++++++++++++++++++++++++++++++++++++++++++++++++++++++++++++..............                                                                                                      ",
"                                                                                                                                                                                                                                            .......@@@@@@@@@@@@@@@@@@@@@@@@@@@@+++++++++++++++++++++++++++++++++++++++++++++++++++++++++++++++++++++++++++++++++++++++++++++++++++++++++++++++++++++++++++++++++++++++++++++++++++++++++++++++++++++++++++++++++++++++++++++++++++++++++++++++++++..............                                                                                               ",
"                                                                                                                                                                                                                                            .......@@@@@@@@@@@@@@@@@@@@@@@@@@@@+++++++++++++++++++++++++++++++++++++++++++++++++++++++++++++++++++++++++++++++++++++++++++++++++++++++++++++++++++++++++++++++++++++++++++++++++++++++++++++++++++++++++++++++++++++++++++++++++++++++++++++++++++..............                                                                                               ",
"                                                                                                                                                                                                                                            .......@@@@@@@@@@@@@@@@@@@@@@@@@@@@+++++++++++++++++++++++++++++++++++++++++++++++++++++++++++++++++++++++++++++++++++++++++++++++++++++++++++++++++++++++++++++++++++++++++++++++++++++++++++++++++++++++++++++++++++++++++++++++++++++++++++++++++++..............                                                                                               ",
"                                                                                                                                                                                                                                            .......@@@@@@@@@@@@@@@@@@@@@@@@@@@@+++++++++++++++++++++++++++++++++++++++++++++++++++++++++++++++++++++++++++++++++++++++++++++++++++++++++++++++++++++++++++++++++++++++++++++++++++++++++++++++++++++++++++++++++++++++++++++++++++++++++++++++++++..............                                                                                               ",
"                                                                                                                                                                                                                                            .......@@@@@@@@@@@@@@@@@@@@@@@@@@@@+++++++++++++++++++++++++++++++++++++++++++++++++++++++++++++++++++++++++++++++++++++++++++++++++++++++++++++++++++++++++++++++++++++++++++++++++++++++++++++++++++++++++++++++++++++++++++++++++++++++++++++++++++..............                                                                                               ",
"                                                                                                                                                                                                                                            .......@@@@@@@@@@@@@@@@@@@@@@@@@@@@+++++++++++++++++++++++++++++++++++++++++++++++++++++++++++++++++++++++++++++++++++++++++++++++++++++++++++++++++++++++++++++++++++++++++++++++++++++++++++++++++++++++++++++++++++++++++++++++++++++++++++++++++++..............                                                                                               ",
"                                                                                                                                                                                                                                            ..............@@@@@@@@@@@@@@@@@@@@@@@@@@@@++++++++++++++++++++++++++++++++++++++++++++++++++++++++++++++++++++++++++++++++++++++++++++++++++++++++++++++++++++++++++++++++++++++++++++++++++++++++++++++++++++++++++++++++++++++++++++++++++++++++++++..............                                                                                               ",
"                                                                                                                                                                                                                                            ..............@@@@@@@@@@@@@@@@@@@@@@@@@@@@+++++++++++++++++++++++++++++++++++++++++++++++++++++++++++++++++++++++++++++++++++++++++++++++++++++++++++++++++++++++++++++++++++++++++++++++++++++++++++++++++++++++++++++++++++++++++++++++++++++++++++++++++++..............                                                                                        ",
"                                                                                                                                                                                                                                            ..............@@@@@@@@@@@@@@@@@@@@@@@@@@@@+++++++++++++++++++++++++++++++++++++++++++++++++++++++++++++++++++++++++++++++++++++++++++++++++++++++++++++++++++++++++++++++++++++++++++++++++++++++++++++++++++++++++++++++++++++++++++++++++++++++++++++++++++..............                                                                                        ",
"                                                                                                                                                                                                                                            ..............@@@@@@@@@@@@@@@@@@@@@@@@@@@@+++++++++++++++++++++++++++++++++++++++++++++++++++++++++++++++++++++++++++++++++++++++++++++++++++++++++++++++++++++++++++++++++++++++++++++++++++++++++++++++++++++++++++++++++++++++++++++++++++++++++++++++++++..............                                                                                        ",
"                                                                                                                                                                                                                                            ..............@@@@@@@@@@@@@@@@@@@@@@@@@@@@+++++++++++++++++++++++++++++++++++++++++++++++++++++++++++++++++++++++++++++++++++++++++++++++++++++++++++++++++++++++++++++++++++++++++++++++++++++++++++++++++++++++++++++++++++++++++++++++++++++++++++++++++++..............                                                                                        ",
"                                                                                                                                                                                                                                            ..............@@@@@@@@@@@@@@@@@@@@@@@@@@@@+++++++++++++++++++++++++++++++++++++++++++++++++++++++++++++++++++++++++++++++++++++++++++++++++++++++++++++++++++++++++++++++++++++++++++++++++++++++++++++++++++++++++++++++++++++++++++++++++++++++++++++++++++..............                                                                                        ",
"                                                                                                                                                                                                                                            ..............@@@@@@@@@@@@@@@@@@@@@@@@@@@@+++++++++++++++++++++++++++++++++++++++++++++++++++++++++++++++++++++++++++++++++++++++++++++++++++++++++++++++++++++++++++++++++++++++++++++++++++++++++++++++++++++++++++++++++++++++++++++++++++++++++++++++++++..............                                                                                        ",
"                                                                                                                                                                                                                                                   .......@@@@@@@@@@@@@@@@@@@@@@@@@@@@@@@@@@@++++++++++++++++++++++++++++++++++++++++++++++++++++++++++++++++++++++++++++++++++++++++++++++++++++++++++++++++++++++++++++++++++++++++++++++++++++++++++++++++++++++++++++++++++++++++++++++++++++++++++++..............                                                                                        ",
"                                                                                                                                                                                                                                                   .......@@@@@@@@@@@@@@@@@@@@@@@@@@@@@@@@@@@+++++++++++++++++++++++++++++++++++++++++++++++++++++++++++++++++++++++++++++++++++++++++++++++++++++++++++++++++++++++++++++++++++++++++++++++++++++++++++++++++++++++++++++++++++++++++++++++++++++++++++++++++++..............                                                                                 ",
"                                                                                                                                                                                                                                                   .......@@@@@@@@@@@@@@@@@@@@@@@@@@@@@@@@@@@+++++++++++++++++++++++++++++++++++++++++++++++++++++++++++++++++++++++++++++++++++++++++++++++++++++++++++++++++++++++++++++++++++++++++++++++++++++++++++++++++++++++++++++++++++++++++++++++++++++++++++++++++++..............                                                                                 ",
"                                                                                                                                                                                                                                                   .......@@@@@@@@@@@@@@@@@@@@@@@@@@@@@@@@@@@+++++++++++++++++++++++++++++++++++++++++++++++++++++++++++++++++++++++++++++++++++++++++++++++++++++++++++++++++++++++++++++++++++++++++++++++++++++++++++++++++++++++++++++++++++++++++++++++++++++++++++++++++++..............                                                                                 ",
"                                                                                                                                                                                                                                                   .......@@@@@@@@@@@@@@@@@@@@@@@@@@@@@@@@@@@+++++++++++++++++++++++++++++++++++++++++++++++++++++++++++++++++++++++++++++++++++++++++++++++++++++++++++++++++++++++++++++++++++++++++++++++++++++++++++++++++++++++++++++++++++++++++++++++++++++++++++++++++++..............                                                                                 ",
"                                                                                                                                                                                                                                                   .......@@@@@@@@@@@@@@@@@@@@@@@@@@@@@@@@@@@+++++++++++++++++++++++++++++++++++++++++++++++++++++++++++++++++++++++++++++++++++++++++++++++++++++++++++++++++++++++++++++++++++++++++++++++++++++++++++++++++++++++++++++++++++++++++++++++++++++++++++++++++++..............                                                                                 ",
"                                                                                                                                                                                                                                                   .......@@@@@@@@@@@@@@@@@@@@@@@@@@@@@@@@@@@+++++++++++++++++++++++++++++++++++++++++++++++++++++++++++++++++++++++++++++++++++++++++++++++++++++++++++++++++++++++++++++++++++++++++++++++++++++++++++++++++++++++++++++++++++++++++++++++++++++++++++++++++++..............                                                                                 ",
"                                                                                                                                                                                                                                                   ..............@@@@@@@@@@@@@@@@@@@@@@@@@@@@@@@@@@@++++++++++++++++++++++++++++++++++++++++++++++++++++++++++++++++++++++++++++++++++++++++++++++++++++++++++++++++++++++++++++++++++++++++++++++++++++++++++++++++++++++++++++++++++++++++++++++++++++++++++++..............                                                                                 ",
"                                                                                                                                                                                                                                                   ..............@@@@@@@@@@@@@@@@@@@@@@@@@@@@@@@@@@@++++++++++++++++++++++++++++++++++++++++++++++++++++++++++++++++++++++++++++++++++++++++++++++++++++++++++++++++++++++++++++++++++++++++++++++++++++++++++++++++++++++++++++++++++++++++++++++++++++++++++++++++++++++++++..............                                                                   ",
"                                                                                                                                                                                                                                                   ..............@@@@@@@@@@@@@@@@@@@@@@@@@@@@@@@@@@@++++++++++++++++++++++++++++++++++++++++++++++++++++++++++++++++++++++++++++++++++++++++++++++++++++++++++++++++++++++++++++++++++++++++++++++++++++++++++++++++++++++++++++++++++++++++++++++++++++++++++++++++++++++++++..............                                                                   ",
"                                                                                                                                                                                                                                                   ..............@@@@@@@@@@@@@@@@@@@@@@@@@@@@@@@@@@@++++++++++++++++++++++++++++++++++++++++++++++++++++++++++++++++++++++++++++++++++++++++++++++++++++++++++++++++++++++++++++++++++++++++++++++++++++++++++++++++++++++++++++++++++++++++++++++++++++++++++++++++++++++++++..............                                                                   ",
"                                                                                                                                                                                                                                                   ..............@@@@@@@@@@@@@@@@@@@@@@@@@@@@@@@@@@@++++++++++++++++++++++++++++++++++++++++++++++++++++++++++++++++++++++++++++++++++++++++++++++++++++++++++++++++++++++++++++++++++++++++++++++++++++++++++++++++++++++++++++++++++++++++++++++++++++++++++++++++++++++++++..............                                                                   ",
"                                                                                                                                                                                                                                                   ..............@@@@@@@@@@@@@@@@@@@@@@@@@@@@@@@@@@@++++++++++++++++++++++++++++++++++++++++++++++++++++++++++++++++++++++++++++++++++++++++++++++++++++++++++++++++++++++++++++++++++++++++++++++++++++++++++++++++++++++++++++++++++++++++++++++++++++++++++++++++++++++++++..............                                                                   ",
"                                                                                                                                                                                                                                                   ..............@@@@@@@@@@@@@@@@@@@@@@@@@@@@@@@@@@@++++++++++++++++++++++++++++++++++++++++++++++++++++++++++++++++++++++++++++++++++++++++++++++++++++++++++++++++++++++++++++++++++++++++++++++++++++++++++++++++++++++++++++++++++++++++++++++++++++++++++++++++++++++++++..............                                                                   ",
"                                                                                                                                                                                                                                                          .......@@@@@@@@@@@@@@@@@@@@@@@@@@@@@@@@@@@@@@@@@@+++++++++++++++++++++++++++++++++++++++++++++++++++++++++++++++++++++++++++++++++++++++++++++++++++++++++++++++++++++++++++++++++++++++++++++++++++++++++++++++++++++++++++++++++++++++++++++++++++++++++++++++++++..............                                                                   ",
"                                                                                                                                                                                                                                                          .......@@@@@@@@@@@@@@@@@@@@@@@@@@@@@@@@@@@@@@@@@@++++++++++++++++++++++++++++++++++++++++++++++++++++++++++++++++++++++++++++++++++++++++++++++++++++++++++++++++++++++++++++++++++++++++++++++++++++++++++++++++++++++++++++++++++++++++++++++++++++++++++++++++++++++++++..............                                                            ",
"                                                                                                                                                                                                                                                          .......@@@@@@@@@@@@@@@@@@@@@@@@@@@@@@@@@@@@@@@@@@++++++++++++++++++++++++++++++++++++++++++++++++++++++++++++++++++++++++++++++++++++++++++++++++++++++++++++++++++++++++++++++++++++++++++++++++++++++++++++++++++++++++++++++++++++++++++++++++++++++++++++++++++++++++++..............                                                            ",
"                                                                                                                                                                                                                                                          .......@@@@@@@@@@@@@@@@@@@@@@@@@@@@@@@@@@@@@@@@@@++++++++++++++++++++++++++++++++++++++++++++++++++++++++++++++++++++++++++++++++++++++++++++++++++++++++++++++++++++++++++++++++++++++++++++++++++++++++++++++++++++++++++++++++++++++++++++++++++++++++++++++++++++++++++..............                                                            ",
"                                                                                                                                                                                                                                                          .......@@@@@@@@@@@@@@@@@@@@@@@@@@@@@@@@@@@@@@@@@@++++++++++++++++++++++++++++++++++++++++++++++++++++++++++++++++++++++++++++++++++++++++++++++++++++++++++++++++++++++++++++++++++++++++++++++++++++++++++++++++++++++++++++++++++++++++++++++++++++++++++++++++++++++++++..............                                                            ",
"                                                                                                                                                                                                                                                          .......@@@@@@@@@@@@@@@@@@@@@@@@@@@@@@@@@@@@@@@@@@++++++++++++++++++++++++++++++++++++++++++++++++++++++++++++++++++++++++++++++++++++++++++++++++++++++++++++++++++++++++++++++++++++++++++++++++++++++++++++++++++++++++++++++++++++++++++++++++++++++++++++++++++++++++++..............                                                            ",
"                                                                                                                                                                                                                                                          .......@@@@@@@@@@@@@@@@@@@@@@@@@@@@@@@@@@@@@@@@@@++++++++++++++++++++++++++++++++++++++++++++++++++++++++++++++++++++++++++++++++++++++++++++++++++++++++++++++++++++++++++++++++++++++++++++++++++++++++++++++++++++++++++++++++++++++++++++++++++++++++++++++++++++++++++..............                                                            ",
"                                                                                                                                                                                                                                                          ..............@@@@@@@@@@@@@@@@@@@@@@@@@@@@@@@@@@@++++++++++++++++++++++++++++++++++++++++++++++++++++++++++++++++++++++++++++++++++++++++++++++++++++++++++++++++++++++++++++++++++++++++++++++++++++++++++++++++++++++++++++++++++++++++++++++++++++++++++++++++++++++++++..............                                                            ",
"                                                                                                                                                                                                                                                          ..............@@@@@@@@@@@@@@@@@@@@@@@@@@@@@@@@@@@+++++++++++++++++++++++++++++++++++++++++++++++++++++++++++++++++++++++++++++++++++++++++++++++++++++++++++++++++++++++++++++++++++++++++++++++++++++++++++++++++++++++++++++++++++++++++++++++++++++++++++++++++++++++++++++++++.....................                                              ",
"                                                                                                                                                                                                                                                          ..............@@@@@@@@@@@@@@@@@@@@@@@@@@@@@@@@@@@+++++++++++++++++++++++++++++++++++++++++++++++++++++++++++++++++++++++++++++++++++++++++++++++++++++++++++++++++++++++++++++++++++++++++++++++++++++++++++++++++++++++++++++++++++++++++++++++++++++++++++++++++++++++++++++++++.....................                                              ",
"                                                                                                                                                                                                                                                          ..............@@@@@@@@@@@@@@@@@@@@@@@@@@@@@@@@@@@+++++++++++++++++++++++++++++++++++++++++++++++++++++++++++++++++++++++++++++++++++++++++++++++++++++++++++++++++++++++++++++++++++++++++++++++++++++++++++++++++++++++++++++++++++++++++++++++++++++++++++++++++++++++++++++++++.....................                                              ",
"                                                                                                                                                                                                                                                          ..............@@@@@@@@@@@@@@@@@@@@@@@@@@@@@@@@@@@+++++++++++++++++++++++++++++++++++++++++++++++++++++++++++++++++++++++++++++++++++++++++++++++++++++++++++++++++++++++++++++++++++++++++++++++++++++++++++++++++++++++++++++++++++++++++++++++++++++++++++++++++++++++++++++++++.....................                                              ",
"                                                                                                                                                                                                                                                          ..............@@@@@@@@@@@@@@@@@@@@@@@@@@@@@@@@@@@+++++++++++++++++++++++++++++++++++++++++++++++++++++++++++++++++++++++++++++++++++++++++++++++++++++++++++++++++++++++++++++++++++++++++++++++++++++++++++++++++++++++++++++++++++++++++++++++++++++++++++++++++++++++++++++++++.....................                                              ",
"                                                                                                                                                                                                                                                          ..............@@@@@@@@@@@@@@@@@@@@@@@@@@@@@@@@@@@+++++++++++++++++++++++++++++++++++++++++++++++++++++++++++++++++++++++++++++++++++++++++++++++++++++++++++++++++++++++++++++++++++++++++++++++++++++++++++++++++++++++++++++++++++++++++++++++++++++++++++++++++++++++++++++++++.....................                                              ",
"                                                                                                                                                                                                                                                                 ..............@@@@@@@@@@@@@@@@@@@@@@@@@@@@@@@@@@@++++++++++++++++++++++++++++++++++++++++++++++++++++++++++++++++++++++++++++++++++++++++++++++++++++++++++++++++++++++++++++++++++++++++++++++++++++++++++++++++++++++++++++++++++++++++++++++++++++++++++++++++++++++++++.....................                                              ",
"                                                                                                                                                                                                                                                                 ..............@@@@@@@@@@@@@@@@@@@@@@@@@@@@@@@@@@@++++++++++++++++++++++++++++++++++++++++++++++++++++++++++++++++++++++++++++++++++++++++++++++++++++++++++++++++++++++++++++++++++++++++++++++++++++++++++++++++++++++++++++++++++++++++++++++++++++++++++++++++++++++++++++++++++++++++..............                                       ",
"                                                                                                                                                                                                                                                                 ..............@@@@@@@@@@@@@@@@@@@@@@@@@@@@@@@@@@@++++++++++++++++++++++++++++++++++++++++++++++++++++++++++++++++++++++++++++++++++++++++++++++++++++++++++++++++++++++++++++++++++++++++++++++++++++++++++++++++++++++++++++++++++++++++++++++++++++++++++++++++++++++++++++++++++++++++..............                                       ",
"                                                                                                                                                                                                                                                                 ..............@@@@@@@@@@@@@@@@@@@@@@@@@@@@@@@@@@@++++++++++++++++++++++++++++++++++++++++++++++++++++++++++++++++++++++++++++++++++++++++++++++++++++++++++++++++++++++++++++++++++++++++++++++++++++++++++++++++++++++++++++++++++++++++++++++++++++++++++++++++++++++++++++++++++++++++..............                                       ",
"                                                                                                                                                                                                                                                                 ..............@@@@@@@@@@@@@@@@@@@@@@@@@@@@@@@@@@@++++++++++++++++++++++++++++++++++++++++++++++++++++++++++++++++++++++++++++++++++++++++++++++++++++++++++++++++++++++++++++++++++++++++++++++++++++++++++++++++++++++++++++++++++++++++++++++++++++++++++++++++++++++++++++++++++++++++..............                                       ",
"                                                                                                                                                                                                                                                                 ..............@@@@@@@@@@@@@@@@@@@@@@@@@@@@@@@@@@@++++++++++++++++++++++++++++++++++++++++++++++++++++++++++++++++++++++++++++++++++++++++++++++++++++++++++++++++++++++++++++++++++++++++++++++++++++++++++++++++++++++++++++++++++++++++++++++++++++++++++++++++++++++++++++++++++++++++..............                                       ",
"                                                                                                                                                                                                                                                                 ..............@@@@@@@@@@@@@@@@@@@@@@@@@@@@@@@@@@@++++++++++++++++++++++++++++++++++++++++++++++++++++++++++++++++++++++++++++++++++++++++++++++++++++++++++++++++++++++++++++++++++++++++++++++++++++++++++++++++++++++++++++++++++++++++++++++++++++++++++++++++++++++++++++++++++++++++..............                                       ",
"                                                                                                                                                                                                                                                                        .......@@@@@@@@@@@@@@@@@@@@@@@@@@@@@@@@@@@@@@@@@@+++++++++++++++++++++++++++++++++++++++++++++++++++++++++++++++++++++++++++++++++++++++++++++++++++++++++++++++++++++++++++++++++++++++++++++++++++++++++++++++++++++++++++++++++++++++++++++++++++++++++++++++++++++++++++++++++..............                                       ",
"                                                                                                                                                                                                                                                                        .......@@@@@@@@@@@@@@@@@@@@@@@@@@@@@@@@@@@@@@@@@@++++++++++++++++++++++++++++++++++++++++++++++++++++++++++++++++++++++++++++++++++++++++++++++++++++++++++++++++++++++++++++++++++++++++++++++++++++++++++++++++++++++++++++++++++++++++++++++++++++++++++++++++++++++++++++++++++++++++..............                                ",
"                                                                                                                                                                                                                                                                        .......@@@@@@@@@@@@@@@@@@@@@@@@@@@@@@@@@@@@@@@@@@++++++++++++++++++++++++++++++++++++++++++++++++++++++++++++++++++++++++++++++++++++++++++++++++++++++++++++++++++++++++++++++++++++++++++++++++++++++++++++++++++++++++++++++++++++++++++++++++++++++++++++++++++++++++++++++++++++++++..............                                ",
"                                                                                                                                                                                                                                                                        .......@@@@@@@@@@@@@@@@@@@@@@@@@@@@@@@@@@@@@@@@@@++++++++++++++++++++++++++++++++++++++++++++++++++++++++++++++++++++++++++++++++++++++++++++++++++++++++++++++++++++++++++++++++++++++++++++++++++++++++++++++++++++++++++++++++++++++++++++++++++++++++++++++++++++++++++++++++++++++++..............                                ",
"                                                                                                                                                                                                                                                                        .......@@@@@@@@@@@@@@@@@@@@@@@@@@@@@@@@@@@@@@@@@@++++++++++++++++++++++++++++++++++++++++++++++++++++++++++++++++++++++++++++++++++++++++++++++++++++++++++++++++++++++++++++++++++++++++++++++++++++++++++++++++++++++++++++++++++++++++++++++++++++++++++++++++++++++++++++++++++++++++..............                                ",
"                                                                                                                                                                                                                                                                        .......@@@@@@@@@@@@@@@@@@@@@@@@@@@@@@@@@@@@@@@@@@++++++++++++++++++++++++++++++++++++++++++++++++++++++++++++++++++++++++++++++++++++++++++++++++++++++++++++++++++++++++++++++++++++++++++++++++++++++++++++++++++++++++++++++++++++++++++++++++++++++++++++++++++++++++++++++++++++++++..............                                ",
"                                                                                                                                                                                                                                                                        .......@@@@@@@@@@@@@@@@@@@@@@@@@@@@@@@@@@@@@@@@@@++++++++++++++++++++++++++++++++++++++++++++++++++++++++++++++++++++++++++++++++++++++++++++++++++++++++++++++++++++++++++++++++++++++++++++++++++++++++++++++++++++++++++++++++++++++++++++++++++++++++++++++++++++++++++++++++++++++++..............                                ",
"                                                                                                                                                                                                                                                                        ..............@@@@@@@@@@@@@@@@@@@@@@@@@@@@@@@@@@@@@@@@@@+++++++++++++++++++++++++++++++++++++++++++++++++++++++++++++++++++++++++++++++++++++++++++++++++++++++++++++++++++++++++++++++++++++++++++++++++++++++++++++++++++++++++++++++++++++++++++++++++++++++++++++++++++++++++++++++++..............                                ",
"                                                                                                                                                                                                                                                                        ..............@@@@@@@@@@@@@@@@@@@@@@@@@@@@@@@@@@@@@@@@@@++++++++++++++++++++++++++++++++++++++++++++++++++++++++++++++++++++++++++++++++++++++++++++++++++++++++++++++++++++++++++++++++++++++++++++++++++++++++++++++++++++++++++++++++++++++++++++++++++++++++++++++++++++++++++++++++++++++++..............                         ",
"                                                                                                                                                                                                                                                                        ..............@@@@@@@@@@@@@@@@@@@@@@@@@@@@@@@@@@@@@@@@@@++++++++++++++++++++++++++++++++++++++++++++++++++++++++++++++++++++++++++++++++++++++++++++++++++++++++++++++++++++++++++++++++++++++++++++++++++++++++++++++++++++++++++++++++++++++++++++++++++++++++++++++++++++++++++++++++++++++++..............                         ",
"                                                                                                                                                                                                                                                                        ..............@@@@@@@@@@@@@@@@@@@@@@@@@@@@@@@@@@@@@@@@@@++++++++++++++++++++++++++++++++++++++++++++++++++++++++++++++++++++++++++++++++++++++++++++++++++++++++++++++++++++++++++++++++++++++++++++++++++++++++++++++++++++++++++++++++++++++++++++++++++++++++++++++++++++++++++++++++++++++++..............                         ",
"                                                                                                                                                                                                                                                                        ..............@@@@@@@@@@@@@@@@@@@@@@@@@@@@@@@@@@@@@@@@@@++++++++++++++++++++++++++++++++++++++++++++++++++++++++++++++++++++++++++++++++++++++++++++++++++++++++++++++++++++++++++++++++++++++++++++++++++++++++++++++++++++++++++++++++++++++++++++++++++++++++++++++++++++++++++++++++++++++++..............                         ",
"                                                                                                                                                                                                                                                                        ..............@@@@@@@@@@@@@@@@@@@@@@@@@@@@@@@@@@@@@@@@@@++++++++++++++++++++++++++++++++++++++++++++++++++++++++++++++++++++++++++++++++++++++++++++++++++++++++++++++++++++++++++++++++++++++++++++++++++++++++++++++++++++++++++++++++++++++++++++++++++++++++++++++++++++++++++++++++++++++++..............                         ",
"                                                                                                                                                                                                                                                                        ..............@@@@@@@@@@@@@@@@@@@@@@@@@@@@@@@@@@@@@@@@@@++++++++++++++++++++++++++++++++++++++++++++++++++++++++++++++++++++++++++++++++++++++++++++++++++++++++++++++++++++++++++++++++++++++++++++++++++++++++++++++++++++++++++++++++++++++++++++++++++++++++++++++++++++++++++++++++++++++++..............                         ",
"                                                                                                                                                                                                                                                                               .......@@@@@@@@@@@@@@@@@@@@@@@@@@@@@@@@@@@@@@@@@@@@@@@@@+++++++++++++++++++++++++++++++++++++++++++++++++++++++++++++++++++++++++++++++++++++++++++++++++++++++++++++++++++++++++++++++++++++++++++++++++++++++++++++++++++++++++++++++++++++++++++++++++++++++++++++++++++++++++++++++++..............                         ",
"                                                                                                                                                                                                                                                                               .......@@@@@@@@@@@@@@@@@@@@@@@@@@@@@@@@@@@@@@@@@@@@@@@@@++++++++++++++++++++++++++++++++++++++++++++++++++++++++++++++++++++++++++++++++++++++++++++++++++++++++++++++++++++++++++++++++++++++++++++++++++++++++++++++++++++++++++++++++++++++++++++++++++++++++++++++++++++++++++++++++++++++++.......                         ",
"                                                                                                                                                                                                                                                                               .......@@@@@@@@@@@@@@@@@@@@@@@@@@@@@@@@@@@@@@@@@@@@@@@@@++++++++++++++++++++++++++++++++++++++++++++++++++++++++++++++++++++++++++++++++++++++++++++++++++++++++++++++++++++++++++++++++++++++++++++++++++++++++++++++++++++++++++++++++++++++++++++++++++++++++++++++++++++++++++++++++++++++++.......                         ",
"                                                                                                                                                                                                                                                                               .......@@@@@@@@@@@@@@@@@@@@@@@@@@@@@@@@@@@@@@@@@@@@@@@@@++++++++++++++++++++++++++++++++++++++++++++++++++++++++++++++++++++++++++++++++++++++++++++++++++++++++++++++++++++++++++++++++++++++++++++++++++++++++++++++++++++++++++++++++++++++++++++++++++++++++++++++++++++++++++++++++++++++++.......                         ",
"                                                                                                                                                                                                                                                                               .......@@@@@@@@@@@@@@@@@@@@@@@@@@@@@@@@@@@@@@@@@@@@@@@@@++++++++++++++++++++++++++++++++++++++++++++++++++++++++++++++++++++++++++++++++++++++++++++++++++++++++++++++++++++++++++++++++++++++++++++++++++++++++++++++++++++++++++++++++++++++++++++++++++++++++++++++++++++++++++++++++++++++++.......                         ",
"                                                                                                                                                                                                                                                                               .......@@@@@@@@@@@@@@@@@@@@@@@@@@@@@@@@@@@@@@@@@@@@@@@@@++++++++++++++++++++++++++++++++++++++++++++++++++++++++++++++++++++++++++++++++++++++++++++++++++++++++++++++++++++++++++++++++++++++++++++++++++++++++++++++++++++++++++++++++++++++++++++++++++++++++++++++++++++++++++++++++++++++++.......                         ",
"                                                                                                                                                                                                                                                                               .......@@@@@@@@@@@@@@@@@@@@@@@@@@@@@@@@@@@@@@@@@@@@@@@@@++++++++++++++++++++++++++++++++++++++++++++++++++++++++++++++++++++++++++++++++++++++++++++++++++++++++++++++++++++++++++++++++++++++++++++++++++++++++++++++++++++++++++++++++++++++++++++++++++++++++++++++++++++++++++++++++++++++++.......                         ",
"                                                                                                                                                                                                                                                                               ..............@@@@@@@@@@@@@@@@@@@@@@@@@@@@@@@@@@@@@@@@@@@@@@@@@+++++++++++++++++++++++++++++++++++++++++++++++++++++++++++++++++++++++++++++++++++++++++++++++++++++++++++++++++++++++++++++++++++++++++++++++++++++++++++++++++++++++++++++++++++++++++++++++++++++++++++++++++++++++++++++++++.......                         ",
"                                                                                                                                                                                                                                                                               ..............@@@@@@@@@@@@@@@@@@@@@@@@@@@@@@@@@@@@@@@@@@@@@@@@@+++++++++++++++++++++++++++++++++++++++++++++++++++++++++++++++++++++++++++++++++++++++++++++++++++++++++++++++++++++++++++++++++++++++++++++++++++++++++++++++++++++++++++++++++++++++++++++++++++++++++++++++++++++++++++++++++..............                  ",
"                                                                                                                                                                                                                                                                               ..............@@@@@@@@@@@@@@@@@@@@@@@@@@@@@@@@@@@@@@@@@@@@@@@@@+++++++++++++++++++++++++++++++++++++++++++++++++++++++++++++++++++++++++++++++++++++++++++++++++++++++++++++++++++++++++++++++++++++++++++++++++++++++++++++++++++++++++++++++++++++++++++++++++++++++++++++++++++++++++++++++++..............                  ",
"                                                                                                                                                                                                                                                                               ..............@@@@@@@@@@@@@@@@@@@@@@@@@@@@@@@@@@@@@@@@@@@@@@@@@+++++++++++++++++++++++++++++++++++++++++++++++++++++++++++++++++++++++++++++++++++++++++++++++++++++++++++++++++++++++++++++++++++++++++++++++++++++++++++++++++++++++++++++++++++++++++++++++++++++++++++++++++++++++++++++++++..............                  ",
"                                                                                                                                                                                                                                                                               ..............@@@@@@@@@@@@@@@@@@@@@@@@@@@@@@@@@@@@@@@@@@@@@@@@@+++++++++++++++++++++++++++++++++++++++++++++++++++++++++++++++++++++++++++++++++++++++++++++++++++++++++++++++++++++++++++++++++++++++++++++++++++++++++++++++++++++++++++++++++++++++++++++++++++++++++++++++++++++++++++++++++..............                  ",
"                                                                                                                                                                                                                                                                               ..............@@@@@@@@@@@@@@@@@@@@@@@@@@@@@@@@@@@@@@@@@@@@@@@@@+++++++++++++++++++++++++++++++++++++++++++++++++++++++++++++++++++++++++++++++++++++++++++++++++++++++++++++++++++++++++++++++++++++++++++++++++++++++++++++++++++++++++++++++++++++++++++++++++++++++++++++++++++++++++++++++++..............                  ",
"                                                                                                                                                                                                                                                                               ..............@@@@@@@@@@@@@@@@@@@@@@@@@@@@@@@@@@@@@@@@@@@@@@@@@+++++++++++++++++++++++++++++++++++++++++++++++++++++++++++++++++++++++++++++++++++++++++++++++++++++++++++++++++++++++++++++++++++++++++++++++++++++++++++++++++++++++++++++++++++++++++++++++++++++++++++++++++++++++++++++++++..............                  ",
"                                                                                                                                                                                                                                                                                      .......@@@@@@@@@@@@@@@@@@@@@@@@@@@@@@@@@@@@@@@@@@@@@@@@@@@@@@@@++++++++++++++++++++++++++++++++++++++++++++++++++++++++++++++++++++++++++++++++++++++++++++++++++++++++++++++++++++++++++++++++++++++++++++++++++++++++++++++++++++++++++++++++++++++++++++++++++++++++++++++++++++++++++..............                  ",
"                                                                                                                                                                                                                                                                                      .......@@@@@@@@@@@@@@@@@@@@@@@@@@@@@@@@@@@@@@@@@@@@@@@@@@@@@@@@+++++++++++++++++++++++++++++++++++++++++++++++++++++++++++++++++++++++++++++++++++++++++++++++++++++++++++++++++++++++++++++++++++++++++++++++++++++++++++++++++++++++++++++++++++++++++++++++++++++++++++++++++++++++++++++++++..............           ",
"                                                                                                                                                                                                                                                                                      .......@@@@@@@@@@@@@@@@@@@@@@@@@@@@@@@@@@@@@@@@@@@@@@@@@@@@@@@@+++++++++++++++++++++++++++++++++++++++++++++++++++++++++++++++++++++++++++++++++++++++++++++++++++++++++++++++++++++++++++++++++++++++++++++++++++++++++++++++++++++++++++++++++++++++++++++++++++++++++++++++++++++++++++++++++..............           ",
"                                                                                                                                                                                                                                                                                      .......@@@@@@@@@@@@@@@@@@@@@@@@@@@@@@@@@@@@@@@@@@@@@@@@@@@@@@@@+++++++++++++++++++++++++++++++++++++++++++++++++++++++++++++++++++++++++++++++++++++++++++++++++++++++++++++++++++++++++++++++++++++++++++++++++++++++++++++++++++++++++++++++++++++++++++++++++++++++++++++++++++++++++++++++++..............           ",
"                                                                                                                                                                                                                                                                                      .......@@@@@@@@@@@@@@@@@@@@@@@@@@@@@@@@@@@@@@@@@@@@@@@@@@@@@@@@+++++++++++++++++++++++++++++++++++++++++++++++++++++++++++++++++++++++++++++++++++++++++++++++++++++++++++++++++++++++++++++++++++++++++++++++++++++++++++++++++++++++++++++++++++++++++++++++++++++++++++++++++++++++++++++++++..............           ",
"                                                                                                                                                                                                                                                                                      .......@@@@@@@@@@@@@@@@@@@@@@@@@@@@@@@@@@@@@@@@@@@@@@@@@@@@@@@@+++++++++++++++++++++++++++++++++++++++++++++++++++++++++++++++++++++++++++++++++++++++++++++++++++++++++++++++++++++++++++++++++++++++++++++++++++++++++++++++++++++++++++++++++++++++++++++++++++++++++++++++++++++++++++++++++..............           ",
"                                                                                                                                                                                                                                                                                      .......@@@@@@@@@@@@@@@@@@@@@@@@@@@@@@@@@@@@@@@@@@@@@@@@@@@@@@@@+++++++++++++++++++++++++++++++++++++++++++++++++++++++++++++++++++++++++++++++++++++++++++++++++++++++++++++++++++++++++++++++++++++++++++++++++++++++++++++++++++++++++++++++++++++++++++++++++++++++++++++++++++++++++++++++++..............           ",
"                                                                                                                                                                                                                                                                                      ..............@@@@@@@@@@@@@@@@@@@@@@@@@@@@@@@@@@@@@@@@@@@@@@@@@@@@@@@@++++++++++++++++++++++++++++++++++++++++++++++++++++++++++++++++++++++++++++++++++++++++++++++++++++++++++++++++++++++++++++++++++++++++++++++++++++++++++++++++++++++++++++++++++++++++++++++++++++++++++++++++++++++++++..............           ",
"                                                                                                                                                                                                                                                                                      ..............@@@@@@@@@@@@@@@@@@@@@@@@@@@@@@@@@@@@@@@@@@@@@@@@@@@@@@@@+++++++++++++++++++++++++++++++++++++++++++++++++++++++++++++++++++++++++++++++++++++++++++++++++++++++++++++++++++++++++++++++++++++++++++++++++++++++++++++++++++++++++++++++++++++++++++++++++++++++++++++++++++++++++++++++++..............    ",
"                                                                                                                                                                                                                                                                                      ..............@@@@@@@@@@@@@@@@@@@@@@@@@@@@@@@@@@@@@@@@@@@@@@@@@@@@@@@@+++++++++++++++++++++++++++++++++++++++++++++++++++++++++++++++++++++++++++++++++++++++++++++++++++++++++++++++++++++++++++++++++++++++++++++++++++++++++++++++++++++++++++++++++++++++++++++++++++++++++++++++++++++++++++++++++..............    ",
"                                                                                                                                                                                                                                                                                      ..............@@@@@@@@@@@@@@@@@@@@@@@@@@@@@@@@@@@@@@@@@@@@@@@@@@@@@@@@+++++++++++++++++++++++++++++++++++++++++++++++++++++++++++++++++++++++++++++++++++++++++++++++++++++++++++++++++++++++++++++++++++++++++++++++++++++++++++++++++++++++++++++++++++++++++++++++++++++++++++++++++++++++++++++++++..............    ",
"                                                                                                                                                                                                                                                                                      ..............@@@@@@@@@@@@@@@@@@@@@@@@@@@@@@@@@@@@@@@@@@@@@@@@@@@@@@@@+++++++++++++++++++++++++++++++++++++++++++++++++++++++++++++++++++++++++++++++++++++++++++++++++++++++++++++++++++++++++++++++++++++++++++++++++++++++++++++++++++++++++++++++++++++++++++++++++++++++++++++++++++++++++++++++++..............    ",
"                                                                                                                                                                                                                                                                                      ..............@@@@@@@@@@@@@@@@@@@@@@@@@@@@@@@@@@@@@@@@@@@@@@@@@@@@@@@@+++++++++++++++++++++++++++++++++++++++++++++++++++++++++++++++++++++++++++++++++++++++++++++++++++++++++++++++++++++++++++++++++++++++++++++++++++++++++++++++++++++++++++++++++++++++++++++++++++++++++++++++++++++++++++++++++..............    ",
"                                                                                                                                                                                                                                                                                      ..............@@@@@@@@@@@@@@@@@@@@@@@@@@@@@@@@@@@@@@@@@@@@@@@@@@@@@@@@+++++++++++++++++++++++++++++++++++++++++++++++++++++++++++++++++++++++++++++++++++++++++++++++++++++++++++++++++++++++++++++++++++++++++++++++++++++++++++++++++++++++++++++++++++++++++++++++++++++++++++++++++++++++++++++++++..............    ",
"                                                                                                                                                                                                                                                                                             .......@@@@@@@@@@@@@@@@@@@@@@@@@@@@@@@@@@@@@@@@@@@@@@@@@@@@@@@@@@@@@@@++++++++++++++++++++++++++++++++++++++++++++++++++++++++++++++++++++++++++++++++++++++++++++++++++++++++++++++++++++++++++++++++++++++++++++++++++++++++++++++++++++++++++++++++++++++++++++++++++++++++++++++++++++++++++..............    ",
"                                                                                                                                                                                                                                                                                             .......@@@@@@@@@@@@@@@@@@@@@@@@@@@@@@@@@@@@@@@@@@@@@@@@@@@@@@@@@@@@@@@+++++++++++++++++++++++++++++++++++++++++++++++++++++++++++++++++++++++++++++++++++++++++++++++++++++++++++++++++++++++++++++++++++++++++++++++++++++++++++++++++++++++++++++++++++++++++++++++++++++++++++++++++++++++++++++++++.......    ",
"                                                                                                                                                                                                                                                                                             .......@@@@@@@@@@@@@@@@@@@@@@@@@@@@@@@@@@@@@@@@@@@@@@@@@@@@@@@@@@@@@@@+++++++++++++++++++++++++++++++++++++++++++++++++++++++++++++++++++++++++++++++++++++++++++++++++++++++++++++++++++++++++++++++++++++++++++++++++++++++++++++++++++++++++++++++++++++++++++++++++++++++++++++++++++++++++++++++++.......    ",
"                                                                                                                                                                                                                                                                                             .......@@@@@@@@@@@@@@@@@@@@@@@@@@@@@@@@@@@@@@@@@@@@@@@@@@@@@@@@@@@@@@@+++++++++++++++++++++++++++++++++++++++++++++++++++++++++++++++++++++++++++++++++++++++++++++++++++++++++++++++++++++++++++++++++++++++++++++++++++++++++++++++++++++++++++++++++++++++++++++++++++++++++++++++++++++++++++++++++.......    ",
"                                                                                                                                                                                                                                                                                             .......@@@@@@@@@@@@@@@@@@@@@@@@@@@@@@@@@@@@@@@@@@@@@@@@@@@@@@@@@@@@@@@+++++++++++++++++++++++++++++++++++++++++++++++++++++++++++++++++++++++++++++++++++++++++++++++++++++++++++++++++++++++++++++++++++++++++++++++++++++++++++++++++++++++++++++++++++++++++++++++++++++++++++++++++++++++++++++++++.......    ",
"                                                                                                                                                                                                                                                                                             .......@@@@@@@@@@@@@@@@@@@@@@@@@@@@@@@@@@@@@@@@@@@@@@@@@@@@@@@@@@@@@@@+++++++++++++++++++++++++++++++++++++++++++++++++++++++++++++++++++++++++++++++++++++++++++++++++++++++++++++++++++++++++++++++++++++++++++++++++++++++++++++++++++++++++++++++++++++++++++++++++++++++++++++++++++++++++++++++++.......    ",
"                                                                                                                                                                                                                                                                                             .......@@@@@@@@@@@@@@@@@@@@@@@@@@@@@@@@@@@@@@@@@@@@@@@@@@@@@@@@@@@@@@@+++++++++++++++++++++++++++++++++++++++++++++++++++++++++++++++++++++++++++++++++++++++++++++++++++++++++++++++++++++++++++++++++++++++++++++++++++++++++++++++++++++++++++++++++++++++++++++++++++++++++++++++++++++++++++++++++.......    ",
"                                                                                                                                                                                                                                                                                                                                                                                                                                                                                                                                                                                                               "};
