/* XPM */
static char * pg_left_arm2_xpm[] = {
"749 560 18 1",
" 	c #FF00FF",
".	c #000000",
"+	c #BA813D",
"@	c #996524",
"#	c #DEC188",
"$	c #067911",
"%	c #58BB0C",
"&	c #F35939",
"*	c #F94842",
"=	c #CE9E7F",
"-	c #FC823E",
";	c #BD826A",
">	c #DA2937",
",	c #74443B",
"'	c #F89A19",
")	c #FDF8F6",
"!	c #CD9D7E",
"~	c #DDC087",
"                                                                                                                                                                                                                                                            ............................                                                                                                                                                                                                                                                                                                                                                                                                                                                                                     ",
"                                                                                                                                                                                                                                                            ............................                                                                                                                                                                                                                                                                                                                                                                                                                                                                                     ",
"                                                                                                                                                                                                                                                            ............................                                                                                                                                                                                                                                                                                                                                                                                                                                                                                     ",
"                                                                                                                                                                                                                                                            ............................                                                                                                                                                                                                                                                                                                                                                                                                                                                                                     ",
"                                                                                                                                                                                                                                                            ............................                                                                                                                                                                                                                                                                                                                                                                                                                                                                                     ",
"                                                                                                                                                                                                                                                            ............................                                                                                                                                                                                                                                                                                                                                                                                                                                                                                     ",
"                                                                                                                                                                                                                                                            ............................                                                                                                                                                                                                                                                                                                                                                                                                                                                                                     ",
"                                                                                                                                                                                                                                              ..............++++++++++++++++++++++++++++.....................                                                                                                                                                                                                                                                                                                                                                                                                                                                                ",
"                                                                                                                                                                                                                                              ..............++++++++++++++++++++++++++++.....................                                                                                                                                                                                                                                                                                                                                                                                                                                                                ",
"                                                                                                                                                                                                                                              ..............++++++++++++++++++++++++++++.....................                                                                                                                                                                                                                                                                                                                                                                                                                                                                ",
"                                                                                                                                                                                                                                              ..............++++++++++++++++++++++++++++.....................                                                                                                                                                                                                                                                                                                                                                                                                                                                                ",
"                                                                                                                                                                                                                                              ..............++++++++++++++++++++++++++++.....................                                                                                                                                                                                                                                                                                                                                                                                                                                                                ",
"                                                                                                                                                                                                                                              ..............++++++++++++++++++++++++++++.....................                                                                                                                                                                                                                                                                                                                                                                                                                                                                ",
"                                                                                                                                                                                                                                              ..............++++++++++++++++++++++++++++.....................                                                                                                                                                                                                                                                                                                                                                                                                                                                                ",
"                                                                                                                                                                                                                                       .......@@@@@@@@@@@@@@+++++++++++++++++++++++++++++++++++++++++++++++++.....................                                                                                                                                                                                                                                                                                                                                                                                                                                           ",
"                                                                                                                                                                                                                                       .......@@@@@@@@@@@@@@+++++++++++++++++++++++++++++++++++++++++++++++++.....................                                                                                                                                                                                                                                                                                                                                                                                                                                           ",
"                                                                                                                                                                                                                                       .......@@@@@@@@@@@@@@+++++++++++++++++++++++++++++++++++++++++++++++++.....................                                                                                                                                                                                                                                                                                                                                                                                                                                           ",
"                                                                                                                                                                                                                                       .......@@@@@@@@@@@@@@+++++++++++++++++++++++++++++++++++++++++++++++++.....................                                                                                                                                                                                                                                                                                                                                                                                                                                           ",
"                                                                                                                                                                                                                                       .......@@@@@@@@@@@@@@+++++++++++++++++++++++++++++++++++++++++++++++++.....................                                                                                                                                                                                                                                                                                                                                                                                                                                           ",
"                                                                                                                                                                                                                                       .......@@@@@@@@@@@@@@+++++++++++++++++++++++++++++++++++++++++++++++++.....................                                                                                                                                                                                                                                                                                                                                                                                                                                           ",
"                                                                                                                                                                                                                                       .......@@@@@@@@@@@@@@+++++++++++++++++++++++++++++++++++++++++++++++++.....................                                                                                                                                                                                                                                                                                                                                                                                                                                           ",
"                                                                                                                                                                                                                                       .......@@@@@@@@@@@@@@++++++++++++++++++++++++++++++++++++++++++++++++++++++++++++++++++++++.......                                                                                                                                                                                                                                                                                                                                                                                                                                    ",
"                                                                                                                                                                                                                                       .......@@@@@@@@@@@@@@++++++++++++++++++++++++++++++++++++++++++++++++++++++++++++++++++++++.......                                                                                                                                                                                                                                                                                                                                                                                                                                    ",
"                                                                                                                                                                                                                                       .......@@@@@@@@@@@@@@++++++++++++++++++++++++++++++++++++++++++++++++++++++++++++++++++++++.......                                                                                                                                                                                                                                                                                                                                                                                                                                    ",
"                                                                                                                                                                                                                                       .......@@@@@@@@@@@@@@++++++++++++++++++++++++++++++++++++++++++++++++++++++++++++++++++++++.......                                                                                                                                                                                                                                                                                                                                                                                                                                    ",
"                                                                                                                                                                                                                                       .......@@@@@@@@@@@@@@++++++++++++++++++++++++++++++++++++++++++++++++++++++++++++++++++++++.......                                                                                                                                                                                                                                                                                                                                                                                                                                    ",
"                                                                                                                                                                                                                                       .......@@@@@@@@@@@@@@++++++++++++++++++++++++++++++++++++++++++++++++++++++++++++++++++++++.......                                                                                                                                                                                                                                                                                                                                                                                                                                    ",
"                                                                                                                                                                                                                                       .......@@@@@@@@@@@@@@++++++++++++++++++++++++++++++++++++++++++++++++++++++++++++++++++++++.......                                                                                                                                                                                                                                                                                                                                                                                                                                    ",
"                                                                                                                                                                                                                                       .......@@@@@@@@@@@@@@@@@@@@@+++++++++++++++++++++++++++++++++++++++++++++++++++++++++++++++#######.......                                                                                                                                                                                                                                                                                                                                                                                                                             ",
"                                                                                                                                                                                                                                       .......@@@@@@@@@@@@@@@@@@@@@+++++++++++++++++++++++++++++++++++++++++++++++++++++++++++++++#######.......                                                                                                                                                                                                                                                                                                                                                                                                                             ",
"                                                                                                                                                                                                                                       .......@@@@@@@@@@@@@@@@@@@@@+++++++++++++++++++++++++++++++++++++++++++++++++++++++++++++++#######.......                                                                                                                                                                                                                                                                                                                                                                                                                             ",
"                                                                                                                                                                                                                                       .......@@@@@@@@@@@@@@@@@@@@@+++++++++++++++++++++++++++++++++++++++++++++++++++++++++++++++#######.......                                                                                                                                                                                                                                                                                                                                                                                                                             ",
"                                                                                                                                                                                                                                       .......@@@@@@@@@@@@@@@@@@@@@+++++++++++++++++++++++++++++++++++++++++++++++++++++++++++++++#######.......                                                                                                                                                                                                                                                                                                                                                                                                                             ",
"                                                                                                                                                                                                                                       .......@@@@@@@@@@@@@@@@@@@@@+++++++++++++++++++++++++++++++++++++++++++++++++++++++++++++++#######.......                                                                                                                                                                                                                                                                                                                                                                                                                             ",
"                                                                                                                                                                                                                                       .......@@@@@@@@@@@@@@@@@@@@@+++++++++++++++++++++++++++++++++++++++++++++++++++++++++++++++#######.......                                                                                                                                                                                                                                                                                                                                                                                                                             ",
"                                                                                                                                                                                                                         $$$$$$$$$$$$$$..............@@@@@@@@@@@@@@++++++++++++++++++++++++++++++++++++++++++++++++++++++++#####################.......                                                                                                                                                                                                                                                                                                                                                                                                                      ",
"                                                                                                                                                                                                                         $$$$$$$$$$$$$$..............@@@@@@@@@@@@@@++++++++++++++++++++++++++++++++++++++++++++++++++++++++#####################.......                                                                                                                                                                                                                                                                                                                                                                                                                      ",
"                                                                                                                                                                                                                         $$$$$$$$$$$$$$..............@@@@@@@@@@@@@@++++++++++++++++++++++++++++++++++++++++++++++++++++++++#####################.......                                                                                                                                                                                                                                                                                                                                                                                                                      ",
"                                                                                                                                                                                                                         $$$$$$$$$$$$$$..............@@@@@@@@@@@@@@++++++++++++++++++++++++++++++++++++++++++++++++++++++++#####################.......                                                                                                                                                                                                                                                                                                                                                                                                                      ",
"                                                                                                                                                                                                                         $$$$$$$$$$$$$$..............@@@@@@@@@@@@@@++++++++++++++++++++++++++++++++++++++++++++++++++++++++#####################.......                                                                                                                                                                                                                                                                                                                                                                                                                      ",
"                                                                                                                                                                                                                         $$$$$$$$$$$$$$..............@@@@@@@@@@@@@@++++++++++++++++++++++++++++++++++++++++++++++++++++++++#####################.......                                                                                                                                                                                                                                                                                                                                                                                                                      ",
"                                                                                                                                                                                                                         $$$$$$$$$$$$$$..............@@@@@@@@@@@@@@++++++++++++++++++++++++++++++++++++++++++++++++++++++++#####################.......                                                                                                                                                                                                                                                                                                                                                                                                                      ",
"                                                                                                                                                                                                                  $$$$$$$%%%%%%%.......&&&&&&&.......@@@@@@@@@@@@@@@@@@@@@++++++++++++++++++++++++++++++++++++++++++#####################++++++++++++++.......                                   .....................                                                                                                                                                                                                                                                                                                                                                       ",
"                                                                                                                                                                                                                  $$$$$$$%%%%%%%.......&&&&&&&.......@@@@@@@@@@@@@@@@@@@@@++++++++++++++++++++++++++++++++++++++++++#####################++++++++++++++.......                                   .....................                                                                                                                                                                                                                                                                                                                                                       ",
"                                                                                                                                                                                                                  $$$$$$$%%%%%%%.......&&&&&&&.......@@@@@@@@@@@@@@@@@@@@@++++++++++++++++++++++++++++++++++++++++++#####################++++++++++++++.......                                   .....................                                                                                                                                                                                                                                                                                                                                                       ",
"                                                                                                                                                                                                                  $$$$$$$%%%%%%%.......&&&&&&&.......@@@@@@@@@@@@@@@@@@@@@++++++++++++++++++++++++++++++++++++++++++#####################++++++++++++++.......                                   .....................                                                                                                                                                                                                                                                                                                                                                       ",
"                                                                                                                                                                                                                  $$$$$$$%%%%%%%.......&&&&&&&.......@@@@@@@@@@@@@@@@@@@@@++++++++++++++++++++++++++++++++++++++++++#####################++++++++++++++.......                                   .....................                                                                                                                                                                                                                                                                                                                                                       ",
"                                                                                                                                                                                                                  $$$$$$$%%%%%%%.......&&&&&&&.......@@@@@@@@@@@@@@@@@@@@@++++++++++++++++++++++++++++++++++++++++++#####################++++++++++++++.......                                   .....................                                                                                                                                                                                                                                                                                                                                                       ",
"                                                                                                                                                                                                                  $$$$$$$%%%%%%%.......&&&&&&&.......@@@@@@@@@@@@@@@@@@@@@++++++++++++++++++++++++++++++++++++++++++#####################++++++++++++++.......                                   .....................                                                                                                                                                                                                                                                                                                                                                       ",
"                                                                                                                                                                                                           $$$$$$$$$$$$$$.......*******&&&&&&&&&&&&&&.......@@@@@@@@@@@@@@@@@@@@@+++++++++++++++++++++++++++++++++++##############++++++++++++++++++++++++++++.......                     .......=====================.......                                                                                                                                                                                                                                                                                                                                                ",
"                                                                                                                                                                                                           $$$$$$$$$$$$$$.......*******&&&&&&&&&&&&&&.......@@@@@@@@@@@@@@@@@@@@@+++++++++++++++++++++++++++++++++++##############++++++++++++++++++++++++++++.......                     .......=====================.......                                                                                                                                                                                                                                                                                                                                                ",
"                                                                                                                                                                                                           $$$$$$$$$$$$$$.......*******&&&&&&&&&&&&&&.......@@@@@@@@@@@@@@@@@@@@@+++++++++++++++++++++++++++++++++++##############++++++++++++++++++++++++++++.......                     .......=====================.......                                                                                                                                                                                                                                                                                                                                                ",
"                                                                                                                                                                                                           $$$$$$$$$$$$$$.......*******&&&&&&&&&&&&&&.......@@@@@@@@@@@@@@@@@@@@@+++++++++++++++++++++++++++++++++++##############++++++++++++++++++++++++++++.......                     .......=====================.......                                                                                                                                                                                                                                                                                                                                                ",
"                                                                                                                                                                                                           $$$$$$$$$$$$$$.......*******&&&&&&&&&&&&&&.......@@@@@@@@@@@@@@@@@@@@@+++++++++++++++++++++++++++++++++++##############++++++++++++++++++++++++++++.......                     .......=====================.......                                                                                                                                                                                                                                                                                                                                                ",
"                                                                                                                                                                                                           $$$$$$$$$$$$$$.......*******&&&&&&&&&&&&&&.......@@@@@@@@@@@@@@@@@@@@@+++++++++++++++++++++++++++++++++++##############++++++++++++++++++++++++++++.......                     .......=====================.......                                                                                                                                                                                                                                                                                                                                                ",
"                                                                                                                                                                                                           $$$$$$$$$$$$$$.......*******&&&&&&&&&&&&&&.......@@@@@@@@@@@@@@@@@@@@@+++++++++++++++++++++++++++++++++++##############++++++++++++++++++++++++++++.......                     .......=====================.......                                                                                                                                                                                                                                                                                                                                                ",
"                                                                                                                                                                                             .......$$$$$$$$$$$$$$.......**************&&&&&&&--------------.......@@@@@@@@@@@@@@@@@@@@@+++++++++++++++++++++++++++++++++++++++++++++++++++++++++++++++++++++++++++++.......       .......============================;;;;;;;.......              .....................                                                                                                                                                                                                                                                                                                      ",
"                                                                                                                                                                                             .......$$$$$$$$$$$$$$.......**************&&&&&&&--------------.......@@@@@@@@@@@@@@@@@@@@@+++++++++++++++++++++++++++++++++++++++++++++++++++++++++++++++++++++++++++++.......       .......============================;;;;;;;.......              .....................                                                                                                                                                                                                                                                                                                      ",
"                                                                                                                                                                                             .......$$$$$$$$$$$$$$.......**************&&&&&&&--------------.......@@@@@@@@@@@@@@@@@@@@@+++++++++++++++++++++++++++++++++++++++++++++++++++++++++++++++++++++++++++++.......       .......============================;;;;;;;.......              .....................                                                                                                                                                                                                                                                                                                      ",
"                                                                                                                                                                                             .......$$$$$$$$$$$$$$.......**************&&&&&&&--------------.......@@@@@@@@@@@@@@@@@@@@@+++++++++++++++++++++++++++++++++++++++++++++++++++++++++++++++++++++++++++++.......       .......============================;;;;;;;.......              .....................                                                                                                                                                                                                                                                                                                      ",
"                                                                                                                                                                                             .......$$$$$$$$$$$$$$.......**************&&&&&&&--------------.......@@@@@@@@@@@@@@@@@@@@@+++++++++++++++++++++++++++++++++++++++++++++++++++++++++++++++++++++++++++++.......       .......============================;;;;;;;.......              .....................                                                                                                                                                                                                                                                                                                      ",
"                                                                                                                                                                                             .......$$$$$$$$$$$$$$.......**************&&&&&&&--------------.......@@@@@@@@@@@@@@@@@@@@@+++++++++++++++++++++++++++++++++++++++++++++++++++++++++++++++++++++++++++++.......       .......============================;;;;;;;.......              .....................                                                                                                                                                                                                                                                                                                      ",
"                                                                                                                                                                                             .......$$$$$$$$$$$$$$.......**************&&&&&&&--------------.......@@@@@@@@@@@@@@@@@@@@@+++++++++++++++++++++++++++++++++++++++++++++++++++++++++++++++++++++++++++++.......       .......============================;;;;;;;.......              .....................                                                                                                                                                                                                                                                                                                      ",
"                                                                                                                                                                                      .......$$$$$$$$$$$$$$%%%%%%%.......**************&&&&&&&-------------->>>>>>>.......@@@@@@@@@@@@@@@@@@@@@+++++++++++++++++++++++++++++++++++++++++++++++++++++++++++++++##############.......===================================;;;;;;;;;;;;;;..............=====================.......                                                                                                                                                                                                                                                                                               ",
"                                                                                                                                                                                      .......$$$$$$$$$$$$$$%%%%%%%.......**************&&&&&&&-------------->>>>>>>.......@@@@@@@@@@@@@@@@@@@@@+++++++++++++++++++++++++++++++++++++++++++++++++++++++++++++++##############.......===================================;;;;;;;;;;;;;;..............=====================.......                                                                                                                                                                                                                                                                                               ",
"                                                                                                                                                                                      .......$$$$$$$$$$$$$$%%%%%%%.......**************&&&&&&&-------------->>>>>>>.......@@@@@@@@@@@@@@@@@@@@@+++++++++++++++++++++++++++++++++++++++++++++++++++++++++++++++##############.......===================================;;;;;;;;;;;;;;..............=====================.......                                                                                                                                                                                                                                                                                               ",
"                                                                                                                                                                                      .......$$$$$$$$$$$$$$%%%%%%%.......**************&&&&&&&-------------->>>>>>>.......@@@@@@@@@@@@@@@@@@@@@+++++++++++++++++++++++++++++++++++++++++++++++++++++++++++++++##############.......===================================;;;;;;;;;;;;;;..............=====================.......                                                                                                                                                                                                                                                                                               ",
"                                                                                                                                                                                      .......$$$$$$$$$$$$$$%%%%%%%.......**************&&&&&&&-------------->>>>>>>.......@@@@@@@@@@@@@@@@@@@@@+++++++++++++++++++++++++++++++++++++++++++++++++++++++++++++++##############.......===================================;;;;;;;;;;;;;;..............=====================.......                                                                                                                                                                                                                                                                                               ",
"                                                                                                                                                                                      .......$$$$$$$$$$$$$$%%%%%%%.......**************&&&&&&&-------------->>>>>>>.......@@@@@@@@@@@@@@@@@@@@@+++++++++++++++++++++++++++++++++++++++++++++++++++++++++++++++##############.......===================================;;;;;;;;;;;;;;..............=====================.......                                                                                                                                                                                                                                                                                               ",
"                                                                                                                                                                                      .......$$$$$$$$$$$$$$%%%%%%%.......**************&&&&&&&-------------->>>>>>>.......@@@@@@@@@@@@@@@@@@@@@+++++++++++++++++++++++++++++++++++++++++++++++++++++++++++++++##############.......===================================;;;;;;;;;;;;;;..............=====================.......                                                                                                                                                                                                                                                                                               ",
"                                                                                                                                                                                      .......$$$$$$$$$$$$$$%%%%%%%.......**************---------------------&&&&&&&&&&&&&&.......@@@@@@@@@@@@@@@@@@@@@+++++++++++++++++++++++++++++++++++++++++++++++++##############.......,,,,,,,===================================;;;;;;;;;;;;;;.......============================;;;;;;;.......                                                                                                                                                                                                                                                                                        ",
"                                                                                                                                                                                      .......$$$$$$$$$$$$$$%%%%%%%.......**************---------------------&&&&&&&&&&&&&&.......@@@@@@@@@@@@@@@@@@@@@+++++++++++++++++++++++++++++++++++++++++++++++++##############.......,,,,,,,===================================;;;;;;;;;;;;;;.......============================;;;;;;;.......                                                                                                                                                                                                                                                                                        ",
"                                                                                                                                                                                      .......$$$$$$$$$$$$$$%%%%%%%.......**************---------------------&&&&&&&&&&&&&&.......@@@@@@@@@@@@@@@@@@@@@+++++++++++++++++++++++++++++++++++++++++++++++++##############.......,,,,,,,===================================;;;;;;;;;;;;;;.......============================;;;;;;;.......                                                                                                                                                                                                                                                                                        ",
"                                                                                                                                                                                      .......$$$$$$$$$$$$$$%%%%%%%.......**************---------------------&&&&&&&&&&&&&&.......@@@@@@@@@@@@@@@@@@@@@+++++++++++++++++++++++++++++++++++++++++++++++++##############.......,,,,,,,===================================;;;;;;;;;;;;;;.......============================;;;;;;;.......                                                                                                                                                                                                                                                                                        ",
"                                                                                                                                                                                      .......$$$$$$$$$$$$$$%%%%%%%.......**************---------------------&&&&&&&&&&&&&&.......@@@@@@@@@@@@@@@@@@@@@+++++++++++++++++++++++++++++++++++++++++++++++++##############.......,,,,,,,===================================;;;;;;;;;;;;;;.......============================;;;;;;;.......                                                                                                                                                                                                                                                                                        ",
"                                                                                                                                                                                      .......$$$$$$$$$$$$$$%%%%%%%.......**************---------------------&&&&&&&&&&&&&&.......@@@@@@@@@@@@@@@@@@@@@+++++++++++++++++++++++++++++++++++++++++++++++++##############.......,,,,,,,===================================;;;;;;;;;;;;;;.......============================;;;;;;;.......                                                                                                                                                                                                                                                                                        ",
"                                                                                                                                                                                      .......$$$$$$$$$$$$$$%%%%%%%.......**************---------------------&&&&&&&&&&&&&&.......@@@@@@@@@@@@@@@@@@@@@+++++++++++++++++++++++++++++++++++++++++++++++++##############.......,,,,,,,===================================;;;;;;;;;;;;;;.......============================;;;;;;;.......                                                                                                                                                                                                                                                                                        ",
"                                                                                                                                                                                      .......$$$$$$$%%%%%%%$$$$$$$.......**************>>>>>>>--------------&&&&&&&&&&&&&&&&&&&&&.......@@@@@@@@@@@@@@@@@@@@@+++++++++++++++++++++++++++++++++++##############.......=======;;;;;;;,,,,,,,============================;;;;;;;;;;;;;;.......============================;;;;;;;;;;;;;;.......                                                                                                                                                                                                                                                                                 ",
"                                                                                                                                                                                      .......$$$$$$$%%%%%%%$$$$$$$.......**************>>>>>>>--------------&&&&&&&&&&&&&&&&&&&&&.......@@@@@@@@@@@@@@@@@@@@@+++++++++++++++++++++++++++++++++++##############.......=======;;;;;;;,,,,,,,============================;;;;;;;;;;;;;;.......============================;;;;;;;;;;;;;;.......                                                                                                                                                                                                                                                                                 ",
"                                                                                                                                                                                      .......$$$$$$$%%%%%%%$$$$$$$.......**************>>>>>>>--------------&&&&&&&&&&&&&&&&&&&&&.......@@@@@@@@@@@@@@@@@@@@@+++++++++++++++++++++++++++++++++++##############.......=======;;;;;;;,,,,,,,============================;;;;;;;;;;;;;;.......============================;;;;;;;;;;;;;;.......                                                                                                                                                                                                                                                                                 ",
"                                                                                                                                                                                      .......$$$$$$$%%%%%%%$$$$$$$.......**************>>>>>>>--------------&&&&&&&&&&&&&&&&&&&&&.......@@@@@@@@@@@@@@@@@@@@@+++++++++++++++++++++++++++++++++++##############.......=======;;;;;;;,,,,,,,============================;;;;;;;;;;;;;;.......============================;;;;;;;;;;;;;;.......                                                                                                                                                                                                                                                                                 ",
"                                                                                                                                                                                      .......$$$$$$$%%%%%%%$$$$$$$.......**************>>>>>>>--------------&&&&&&&&&&&&&&&&&&&&&.......@@@@@@@@@@@@@@@@@@@@@+++++++++++++++++++++++++++++++++++##############.......=======;;;;;;;,,,,,,,============================;;;;;;;;;;;;;;.......============================;;;;;;;;;;;;;;.......                                                                                                                                                                                                                                                                                 ",
"                                                                                                                                                                                      .......$$$$$$$%%%%%%%$$$$$$$.......**************>>>>>>>--------------&&&&&&&&&&&&&&&&&&&&&.......@@@@@@@@@@@@@@@@@@@@@+++++++++++++++++++++++++++++++++++##############.......=======;;;;;;;,,,,,,,============================;;;;;;;;;;;;;;.......============================;;;;;;;;;;;;;;.......                                                                                                                                                                                                                                                                                 ",
"                                                                                                                                                                                      .......$$$$$$$%%%%%%%$$$$$$$.......**************>>>>>>>--------------&&&&&&&&&&&&&&&&&&&&&.......@@@@@@@@@@@@@@@@@@@@@+++++++++++++++++++++++++++++++++++##############.......=======;;;;;;;,,,,,,,============================;;;;;;;;;;;;;;.......============================;;;;;;;;;;;;;;.......                                                                                                                                                                                                                                                                                 ",
"                                                                                                                                                                                      .......@@@@@@@$$$$$$$$$$$$$$.......*********************>>>>>>>--------------&&&&&&&&&&&&&&&&&&&&&.......@@@@@@@@@@@@@@@@@@@@@+++++++++++++++++++++++++++++++++++.......=====================;;;;;;;,,,,,,,==============;;;;;;;;;;;;;;.......===================================;;;;;;;;;;;;;;.......                                                                                                                                                                                                                                                                                 ",
"                                                                                                                                                                                      .......@@@@@@@$$$$$$$$$$$$$$.......*********************>>>>>>>--------------&&&&&&&&&&&&&&&&&&&&&.......@@@@@@@@@@@@@@@@@@@@@+++++++++++++++++++++++++++++++++++.......=====================;;;;;;;,,,,,,,==============;;;;;;;;;;;;;;.......===================================;;;;;;;;;;;;;;.......                                                                                                                                                                                                                                                                                 ",
"                                                                                                                                                                                      .......@@@@@@@$$$$$$$$$$$$$$.......*********************>>>>>>>--------------&&&&&&&&&&&&&&&&&&&&&.......@@@@@@@@@@@@@@@@@@@@@+++++++++++++++++++++++++++++++++++.......=====================;;;;;;;,,,,,,,==============;;;;;;;;;;;;;;.......===================================;;;;;;;;;;;;;;.......                                                                                                                                                                                                                                                                                 ",
"                                                                                                                                                                                      .......@@@@@@@$$$$$$$$$$$$$$.......*********************>>>>>>>--------------&&&&&&&&&&&&&&&&&&&&&.......@@@@@@@@@@@@@@@@@@@@@+++++++++++++++++++++++++++++++++++.......=====================;;;;;;;,,,,,,,==============;;;;;;;;;;;;;;.......===================================;;;;;;;;;;;;;;.......                                                                                                                                                                                                                                                                                 ",
"                                                                                                                                                                                      .......@@@@@@@$$$$$$$$$$$$$$.......*********************>>>>>>>--------------&&&&&&&&&&&&&&&&&&&&&.......@@@@@@@@@@@@@@@@@@@@@+++++++++++++++++++++++++++++++++++.......=====================;;;;;;;,,,,,,,==============;;;;;;;;;;;;;;.......===================================;;;;;;;;;;;;;;.......                                                                                                                                                                                                                                                                                 ",
"                                                                                                                                                                                      .......@@@@@@@$$$$$$$$$$$$$$.......*********************>>>>>>>--------------&&&&&&&&&&&&&&&&&&&&&.......@@@@@@@@@@@@@@@@@@@@@+++++++++++++++++++++++++++++++++++.......=====================;;;;;;;,,,,,,,==============;;;;;;;;;;;;;;.......===================================;;;;;;;;;;;;;;.......                                                                                                                                                                                                                                                                                 ",
"                                                                                                                                                                                      .......@@@@@@@$$$$$$$$$$$$$$.......*********************>>>>>>>--------------&&&&&&&&&&&&&&&&&&&&&.......@@@@@@@@@@@@@@@@@@@@@+++++++++++++++++++++++++++++++++++.......=====================;;;;;;;,,,,,,,==============;;;;;;;;;;;;;;.......===================================;;;;;;;;;;;;;;.......                                                                                                                                                                                                                                                                                 ",
"                                                                                                                                                                                      .......@@@@@@@+++++++$$$$$$$.......****************************>>>>>>>---------------------&&&&&&&>>>>>>>.......@@@@@@@@@@@@@@@@@@@@@+++++++++++++++++++++.......===================================;;;;;;;,,,,,,,;;;;;;;;;;;;;;.......==========================================;;;;;;;;;;;;;;.......                                                                                                                                                                                                                                                                                 ",
"                                                                                                                                                                                      .......@@@@@@@+++++++$$$$$$$.......****************************>>>>>>>---------------------&&&&&&&>>>>>>>.......@@@@@@@@@@@@@@@@@@@@@+++++++++++++++++++++.......===================================;;;;;;;,,,,,,,;;;;;;;;;;;;;;.......==========================================;;;;;;;;;;;;;;.......                                                                                                                                                                                                                                                                                 ",
"                                                                                                                                                                                      .......@@@@@@@+++++++$$$$$$$.......****************************>>>>>>>---------------------&&&&&&&>>>>>>>.......@@@@@@@@@@@@@@@@@@@@@+++++++++++++++++++++.......===================================;;;;;;;,,,,,,,;;;;;;;;;;;;;;.......==========================================;;;;;;;;;;;;;;.......                                                                                                                                                                                                                                                                                 ",
"                                                                                                                                                                                      .......@@@@@@@+++++++$$$$$$$.......****************************>>>>>>>---------------------&&&&&&&>>>>>>>.......@@@@@@@@@@@@@@@@@@@@@+++++++++++++++++++++.......===================================;;;;;;;,,,,,,,;;;;;;;;;;;;;;.......==========================================;;;;;;;;;;;;;;.......                                                                                                                                                                                                                                                                                 ",
"                                                                                                                                                                                      .......@@@@@@@+++++++$$$$$$$.......****************************>>>>>>>---------------------&&&&&&&>>>>>>>.......@@@@@@@@@@@@@@@@@@@@@+++++++++++++++++++++.......===================================;;;;;;;,,,,,,,;;;;;;;;;;;;;;.......==========================================;;;;;;;;;;;;;;.......                                                                                                                                                                                                                                                                                 ",
"                                                                                                                                                                                      .......@@@@@@@+++++++$$$$$$$.......****************************>>>>>>>---------------------&&&&&&&>>>>>>>.......@@@@@@@@@@@@@@@@@@@@@+++++++++++++++++++++.......===================================;;;;;;;,,,,,,,;;;;;;;;;;;;;;.......==========================================;;;;;;;;;;;;;;.......                                                                                                                                                                                                                                                                                 ",
"                                                                                                                                                                                      .......@@@@@@@+++++++$$$$$$$.......****************************>>>>>>>---------------------&&&&&&&>>>>>>>.......@@@@@@@@@@@@@@@@@@@@@+++++++++++++++++++++.......===================================;;;;;;;,,,,,,,;;;;;;;;;;;;;;.......==========================================;;;;;;;;;;;;;;.......                                                                                                                                                                                                                                                                                 ",
"                                                                                                                                                                                             .......@@@@@@@+++++++$$$$$$$.......****************************>>>>>>>-------.....................'''''''.......@@@@@@@@@@@@@@@@@@@@@+++++++.......=================================================;;;;;;;;;;;;;;.......==========================================;;;;;;;;;;;;;;..............                                                                                                                                                                                                                                                                                 ",
"                                                                                                                                                                                             .......@@@@@@@+++++++$$$$$$$.......****************************>>>>>>>-------.....................'''''''.......@@@@@@@@@@@@@@@@@@@@@+++++++.......=================================================;;;;;;;;;;;;;;.......==========================================;;;;;;;;;;;;;;..............                                                                                                                                                                                                                                                                                 ",
"                                                                                                                                                                                             .......@@@@@@@+++++++$$$$$$$.......****************************>>>>>>>-------.....................'''''''.......@@@@@@@@@@@@@@@@@@@@@+++++++.......=================================================;;;;;;;;;;;;;;.......==========================================;;;;;;;;;;;;;;..............                                                                                                                                                                                                                                                                                 ",
"                                                                                                                                                                                             .......@@@@@@@+++++++$$$$$$$.......****************************>>>>>>>-------.....................'''''''.......@@@@@@@@@@@@@@@@@@@@@+++++++.......=================================================;;;;;;;;;;;;;;.......==========================================;;;;;;;;;;;;;;..............                                                                                                                                                                                                                                                                                 ",
"                                                                                                                                                                                             .......@@@@@@@+++++++$$$$$$$.......****************************>>>>>>>-------.....................'''''''.......@@@@@@@@@@@@@@@@@@@@@+++++++.......=================================================;;;;;;;;;;;;;;.......==========================================;;;;;;;;;;;;;;..............                                                                                                                                                                                                                                                                                 ",
"                                                                                                                                                                                             .......@@@@@@@+++++++$$$$$$$.......****************************>>>>>>>-------.....................'''''''.......@@@@@@@@@@@@@@@@@@@@@+++++++.......=================================================;;;;;;;;;;;;;;.......==========================================;;;;;;;;;;;;;;..............                                                                                                                                                                                                                                                                                 ",
"                                                                                                                                                                                             .......@@@@@@@+++++++$$$$$$$.......****************************>>>>>>>-------.....................'''''''.......@@@@@@@@@@@@@@@@@@@@@+++++++.......=================================================;;;;;;;;;;;;;;.......==========================================;;;;;;;;;;;;;;..............                                                                                                                                                                                                                                                                                 ",
"                                                                                                                                                                                             .......@@@@@@@+++++++$$$$$$$.......*********************)))))))*******.......,,,,,,,;;;;;;;;;;;;;;.......-------.......@@@@@@@@@@@@@@.......=======,,,,,,,,,,,,,,============================;;;;;;;..............,,,,,,,===================================;;;;;;;;;;;;;;.......==============.......                                                                                                                                                                                                                                                                          ",
"                                                                                                                                                                                             .......@@@@@@@+++++++$$$$$$$.......*********************)))))))*******.......,,,,,,,;;;;;;;;;;;;;;.......-------.......@@@@@@@@@@@@@@.......=======,,,,,,,,,,,,,,============================;;;;;;;..............,,,,,,,===================================;;;;;;;;;;;;;;.......==============.......                                                                                                                                                                                                                                                                          ",
"                                                                                                                                                                                             .......@@@@@@@+++++++$$$$$$$.......*********************)))))))*******.......,,,,,,,;;;;;;;;;;;;;;.......-------.......@@@@@@@@@@@@@@.......=======,,,,,,,,,,,,,,============================;;;;;;;..............,,,,,,,===================================;;;;;;;;;;;;;;.......==============.......                                                                                                                                                                                                                                                                          ",
"                                                                                                                                                                                             .......@@@@@@@+++++++$$$$$$$.......*********************)))))))*******.......,,,,,,,;;;;;;;;;;;;;;.......-------.......@@@@@@@@@@@@@@.......=======,,,,,,,,,,,,,,============================;;;;;;;..............,,,,,,,===================================;;;;;;;;;;;;;;.......==============.......                                                                                                                                                                                                                                                                          ",
"                                                                                                                                                                                             .......@@@@@@@+++++++$$$$$$$.......*********************)))))))*******.......,,,,,,,;;;;;;;;;;;;;;.......-------.......@@@@@@@@@@@@@@.......=======,,,,,,,,,,,,,,============================;;;;;;;..............,,,,,,,===================================;;;;;;;;;;;;;;.......==============.......                                                                                                                                                                                                                                                                          ",
"                                                                                                                                                                                             .......@@@@@@@+++++++$$$$$$$.......*********************)))))))*******.......,,,,,,,;;;;;;;;;;;;;;.......-------.......@@@@@@@@@@@@@@.......=======,,,,,,,,,,,,,,============================;;;;;;;..............,,,,,,,===================================;;;;;;;;;;;;;;.......==============.......                                                                                                                                                                                                                                                                          ",
"                                                                                                                                                                                             .......@@@@@@@+++++++$$$$$$$.......*********************)))))))*******.......,,,,,,,;;;;;;;;;;;;;;.......-------.......@@@@@@@@@@@@@@.......=======,,,,,,,,,,,,,,============================;;;;;;;..............,,,,,,,===================================;;;;;;;;;;;;;;.......==============.......                                                                                                                                                                                                                                                                          ",
"                                                                                                                                                                                                    .......@@@@@@@+++++++%%%%%%%.......*********************.......;;;;;;;;;;;;;;,,,,,,,=======;;;;;;;.......-------..............=======,,,,,,,;;;;;;;;;;;;;;,,,,,,,==============;;;;;;;.......==============;;;;;;;,,,,,,,=====================;;;;;;;;;;;;;;.......=====================;;;;;;;.......                                                                                                                                                                                                                                                                   ",
"                                                                                                                                                                                                    .......@@@@@@@+++++++%%%%%%%.......*********************.......;;;;;;;;;;;;;;,,,,,,,=======;;;;;;;.......-------..............=======,,,,,,,;;;;;;;;;;;;;;,,,,,,,==============;;;;;;;.......==============;;;;;;;,,,,,,,=====================;;;;;;;;;;;;;;.......=====================;;;;;;;.......                                                                                                                                                                                                                                                                   ",
"                                                                                                                                                                                                    .......@@@@@@@+++++++%%%%%%%.......*********************.......;;;;;;;;;;;;;;,,,,,,,=======;;;;;;;.......-------..............=======,,,,,,,;;;;;;;;;;;;;;,,,,,,,==============;;;;;;;.......==============;;;;;;;,,,,,,,=====================;;;;;;;;;;;;;;.......=====================;;;;;;;.......                                                                                                                                                                                                                                                                   ",
"                                                                                                                                                                                                    .......@@@@@@@+++++++%%%%%%%.......*********************.......;;;;;;;;;;;;;;,,,,,,,=======;;;;;;;.......-------..............=======,,,,,,,;;;;;;;;;;;;;;,,,,,,,==============;;;;;;;.......==============;;;;;;;,,,,,,,=====================;;;;;;;;;;;;;;.......=====================;;;;;;;.......                                                                                                                                                                                                                                                                   ",
"                                                                                                                                                                                                    .......@@@@@@@+++++++%%%%%%%.......*********************.......;;;;;;;;;;;;;;,,,,,,,=======;;;;;;;.......-------..............=======,,,,,,,;;;;;;;;;;;;;;,,,,,,,==============;;;;;;;.......==============;;;;;;;,,,,,,,=====================;;;;;;;;;;;;;;.......=====================;;;;;;;.......                                                                                                                                                                                                                                                                   ",
"                                                                                                                                                                                                    .......@@@@@@@+++++++%%%%%%%.......*********************.......;;;;;;;;;;;;;;,,,,,,,=======;;;;;;;.......-------..............=======,,,,,,,;;;;;;;;;;;;;;,,,,,,,==============;;;;;;;.......==============;;;;;;;,,,,,,,=====================;;;;;;;;;;;;;;.......=====================;;;;;;;.......                                                                                                                                                                                                                                                                   ",
"                                                                                                                                                                                                    .......@@@@@@@+++++++%%%%%%%.......*********************.......;;;;;;;;;;;;;;,,,,,,,=======;;;;;;;.......-------..............=======,,,,,,,;;;;;;;;;;;;;;,,,,,,,==============;;;;;;;.......==============;;;;;;;,,,,,,,=====================;;;;;;;;;;;;;;.......=====================;;;;;;;.......                                                                                                                                                                                                                                                                   ",
"                                                                                                                                                                                                           .......@@@@@@@$$$$$$$$$$$$$$.....................;;;;;;;;;;;;;;;;;;;;;,,,,,,,=======;;;;;;;.......--------------.......=======,,,,,,,;;;;;;;;;;;;;;,,,,,,,=======;;;;;;;.......============================;;;;;;;,,,,,,,=======;;;;;;;..............============================;;;;;;;;;;;;;;.......                                                                                                                                                                                                                                                            ",
"                                                                                                                                                                                                           .......@@@@@@@$$$$$$$$$$$$$$.....................;;;;;;;;;;;;;;;;;;;;;,,,,,,,=======;;;;;;;.......--------------.......=======,,,,,,,;;;;;;;;;;;;;;,,,,,,,=======;;;;;;;.......============================;;;;;;;,,,,,,,=======;;;;;;;..............============================;;;;;;;;;;;;;;.......                                                                                                                                                                                                                                                            ",
"                                                                                                                                                                                                           .......@@@@@@@$$$$$$$$$$$$$$.....................;;;;;;;;;;;;;;;;;;;;;,,,,,,,=======;;;;;;;.......--------------.......=======,,,,,,,;;;;;;;;;;;;;;,,,,,,,=======;;;;;;;.......============================;;;;;;;,,,,,,,=======;;;;;;;..............============================;;;;;;;;;;;;;;.......                                                                                                                                                                                                                                                            ",
"                                                                                                                                                                                                           .......@@@@@@@$$$$$$$$$$$$$$.....................;;;;;;;;;;;;;;;;;;;;;,,,,,,,=======;;;;;;;.......--------------.......=======,,,,,,,;;;;;;;;;;;;;;,,,,,,,=======;;;;;;;.......============================;;;;;;;,,,,,,,=======;;;;;;;..............============================;;;;;;;;;;;;;;.......                                                                                                                                                                                                                                                            ",
"                                                                                                                                                                                                           .......@@@@@@@$$$$$$$$$$$$$$.....................;;;;;;;;;;;;;;;;;;;;;,,,,,,,=======;;;;;;;.......--------------.......=======,,,,,,,;;;;;;;;;;;;;;,,,,,,,=======;;;;;;;.......============================;;;;;;;,,,,,,,=======;;;;;;;..............============================;;;;;;;;;;;;;;.......                                                                                                                                                                                                                                                            ",
"                                                                                                                                                                                                           .......@@@@@@@$$$$$$$$$$$$$$.....................;;;;;;;;;;;;;;;;;;;;;,,,,,,,=======;;;;;;;.......--------------.......=======,,,,,,,;;;;;;;;;;;;;;,,,,,,,=======;;;;;;;.......============================;;;;;;;,,,,,,,=======;;;;;;;..............============================;;;;;;;;;;;;;;.......                                                                                                                                                                                                                                                            ",
"                                                                                                                                                                                                           .......@@@@@@@$$$$$$$$$$$$$$.....................;;;;;;;;;;;;;;;;;;;;;,,,,,,,=======;;;;;;;.......--------------.......=======,,,,,,,;;;;;;;;;;;;;;,,,,,,,=======;;;;;;;.......============================;;;;;;;,,,,,,,!======;;;;;;;..............============================;;;;;;;;;;;;;;.......                                                                                                                                                                                                                                                            ",
"                                                                                                                                                                                                                  .......@@@@@@@+++++++$$$$$$$.......,,,,,,,;;;;;;;;;;;;;;;;;;;;;,,,,,,,=======;;;;;;;.......>>>>>>>-------.......==============,,,,,,,,,,,,,,=======;;;;;;;.......===================================;;;;;;;;;;;;;;;;;;;;;.......==========================================;;;;;;;;;;;;;;.......                                                                                                                                                                                                                                                            ",
"                                                                                                                                                                                                                  .......@@@@@@@+++++++$$$$$$$.......,,,,,,,;;;;;;;;;;;;;;;;;;;;;,,,,,,,=======;;;;;;;.......>>>>>>>-------.......==============,,,,,,,,,,,,,,=======;;;;;;;.......===================================;;;;;;;;;;;;;;;;;;;;;.......==========================================;;;;;;;;;;;;;;.......                                                                                                                                                                                                                                                            ",
"                                                                                                                                                                                                                  .......@@@@@@@+++++++$$$$$$$.......,,,,,,,;;;;;;;;;;;;;;;;;;;;;,,,,,,,=======;;;;;;;.......>>>>>>>-------.......==============,,,,,,,,,,,,,,=======;;;;;;;.......===================================;;;;;;;;;;;;;;;;;;;;;.......==========================================;;;;;;;;;;;;;;.......                                                                                                                                                                                                                                                            ",
"                                                                                                                                                                                                                  .......@@@@@@@+++++++$$$$$$$.......,,,,,,,;;;;;;;;;;;;;;;;;;;;;,,,,,,,=======;;;;;;;.......>>>>>>>-------.......==============,,,,,,,,,,,,,,=======;;;;;;;.......===================================;;;;;;;;;;;;;;;;;;;;;.......==========================================;;;;;;;;;;;;;;.......                                                                                                                                                                                                                                                            ",
"                                                                                                                                                                                                                  .......@@@@@@@+++++++$$$$$$$.......,,,,,,,;;;;;;;;;;;;;;;;;;;;;,,,,,,,=======;;;;;;;.......>>>>>>>-------.......==============,,,,,,,,,,,,,,=======;;;;;;;.......===================================;;;;;;;;;;;;;;;;;;;;;.......==========================================;;;;;;;;;;;;;;.......                                                                                                                                                                                                                                                            ",
"                                                                                                                                                                                                                  .......@@@@@@@+++++++$$$$$$$.......,,,,,,,;;;;;;;;;;;;;;;;;;;;;,,,,,,,=======;;;;;;;.......>>>>>>>-------.......==============,,,,,,,,,,,,,,=======;;;;;;;.......===================================;;;;;;;;;;;;;;;;;;;;;.......==========================================;;;;;;;;;;;;;;.......                                                                                                                                                                                                                                                            ",
"                                                                                                                                                                                                                  .......@@@@@@@+++++++$$$$$$$.......,,,,,,,;;;;;;;;;;;;;;;;;;;;;,,,,,,,=======;;;;;;;.......>>>>>>>-------.......==============,,,,,,,,,,,,,,=======;;;;;;;.......===================================;;;;;;;;;;;;;;;;;;;;;.......==========================================;;;;;;;;;;;;;;.......                                                                                                                                                                                                                                                            ",
"                                                                                                                                                                                                                         .......@@@@@@@.......==============,,,,,,,,,,,,,,,,,,,,,==============;;;;;;;.......*******>>>>>>>>>>>>>>.......;;;;;;;;;;;;;;;;;;;;;;;;;;;;.......=======,,,,,,,,,,,,,,============================;;;;;;;.......,,,,,,,==========================================;;;;;;;;;;;;;;.......                                                                                                                                                                                                                                                            ",
"                                                                                                                                                                                                                         .......@@@@@@@.......==============,,,,,,,,,,,,,,,,,,,,,==============;;;;;;;.......*******>>>>>>>>>>>>>>.......;;;;;;;;;;;;;;;;;;;;;;;;;;;;.......=======,,,,,,,,,,,,,,============================;;;;;;;.......,,,,,,,==========================================;;;;;;;;;;;;;;.......                                                                                                                                                                                                                                                            ",
"                                                                                                                                                                                                                         .......@@@@@@@.......==============,,,,,,,,,,,,,,,,,,,,,==============;;;;;;;.......*******>>>>>>>>>>>>>>.......;;;;;;;;;;;;;;;;;;;;;;;;;;;;.......=======,,,,,,,,,,,,,,============================;;;;;;;.......,,,,,,,==========================================;;;;;;;;;;;;;;.......                                                                                                                                                                                                                                                            ",
"                                                                                                                                                                                                                         .......@@@@@@@.......==============,,,,,,,,,,,,,,,,,,,,,==============;;;;;;;.......*******>>>>>>>>>>>>>>.......;;;;;;;;;;;;;;;;;;;;;;;;;;;;.......=======,,,,,,,,,,,,,,============================;;;;;;;.......,,,,,,,==========================================;;;;;;;;;;;;;;.......                                                                                                                                                                                                                                                            ",
"                                                                                                                                                                                                                         .......@@@@@@@.......==============,,,,,,,,,,,,,,,,,,,,,==============;;;;;;;.......*******>>>>>>>>>>>>>>.......;;;;;;;;;;;;;;;;;;;;;;;;;;;;.......=======,,,,,,,,,,,,,,============================;;;;;;;.......,,,,,,,==========================================;;;;;;;;;;;;;;.......                                                                                                                                                                                                                                                            ",
"                                                                                                                                                                                                                         .......@@@@@@@.......==============,,,,,,,,,,,,,,,,,,,,,==============;;;;;;;.......*******>>>>>>>>>>>>>>.......;;;;;;;;;;;;;;;;;;;;;;;;;;;;.......=======,,,,,,,,,,,,,,============================;;;;;;;.......,,,,,,,==========================================;;;;;;;;;;;;;;.......                                                                                                                                                                                                                                                            ",
"                                                                                                                                                                                                                         .......@@@@@@@.......==============,,,,,,,,,,,,,,,,,,,,,==============;;;;;;;.......*******>>>>>>>>>>>>>>.......;;;;;;;;;;;;;;;;;;;;;;;;;;;;.......=======,,,,,,,,,,,,,,============================;;;;;;;.......,,,,,,,==========================================;;;;;;;;;;;;;;.......                                                                                                                                                                                                                                                            ",
"                                                                                                                                                                                                                                .......=================================================;;;;;;;;;;;;;;.......*******>>>>>>>>>>>>>>>>>>>>>............................=======,,,,,,,;;;;;;;;;;;;;;,,,,,,,==============;;;;;;;.......=======;;;;;;;,,,,,,,============================;;;;;;;;;;;;;;.......                                                                                                                                                                                                                                                                   ",
"                                                                                                                                                                                                                                .......=================================================;;;;;;;;;;;;;;.......*******>>>>>>>>>>>>>>>>>>>>>............................=======,,,,,,,;;;;;;;;;;;;;;,,,,,,,==============;;;;;;;.......=======;;;;;;;,,,,,,,============================;;;;;;;;;;;;;;.......                                                                                                                                                                                                                                                                   ",
"                                                                                                                                                                                                                                .......=================================================;;;;;;;;;;;;;;.......*******>>>>>>>>>>>>>>>>>>>>>............................=======,,,,,,,;;;;;;;;;;;;;;,,,,,,,==============;;;;;;;.......=======;;;;;;;,,,,,,,============================;;;;;;;;;;;;;;.......                                                                                                                                                                                                                                                                   ",
"                                                                                                                                                                                                                                .......=================================================;;;;;;;;;;;;;;.......*******>>>>>>>>>>>>>>>>>>>>>............................=======,,,,,,,;;;;;;;;;;;;;;,,,,,,,==============;;;;;;;.......=======;;;;;;;,,,,,,,============================;;;;;;;;;;;;;;.......                                                                                                                                                                                                                                                                   ",
"                                                                                                                                                                                                                                .......=================================================;;;;;;;;;;;;;;.......*******>>>>>>>>>>>>>>>>>>>>>............................=======,,,,,,,;;;;;;;;;;;;;;,,,,,,,==============;;;;;;;.......=======;;;;;;;,,,,,,,============================;;;;;;;;;;;;;;.......                                                                                                                                                                                                                                                                   ",
"                                                                                                                                                                                                                                .......=================================================;;;;;;;;;;;;;;.......*******>>>>>>>>>>>>>>>>>>>>>............................=======,,,,,,,;;;;;;;;;;;;;;,,,,,,,==============;;;;;;;.......=======;;;;;;;,,,,,,,============================;;;;;;;;;;;;;;.......                                                                                                                                                                                                                                                                   ",
"                                                                                                                                                                                                                                .......=================================================;;;;;;;;;;;;;;.......*******>>>>>>>>>>>>>>>>>>>>>............................=======,,,,,,,;;;;;;;;;;;;;;,,,,,,,==============;;;;;;;.......=======;;;;;;;,,,,,,,============================;;;;;;;;;;;;;;.......                                                                                                                                                                                                                                                                   ",
"                                                                                                                                                                                                                         .......=================================================;;;;;;;;;;;;;;.......**************>>>>>>>>>>>>>>>>>>>>>>>>>>>>>>>>>>>..............=======,,,,,,,;;;;;;;;;;;;;;,,,,,,,=======;;;;;;;.......=====================;;;;;;;,,,,,,,==============;;;;;;;;;;;;;;.....................                                                                                                                                                                                                                                                            ",
"                                                                                                                                                                                                                         .......=================================================;;;;;;;;;;;;;;.......**************>>>>>>>>>>>>>>>>>>>>>>>>>>>>>>>>>>>..............=======,,,,,,,;;;;;;;;;;;;;;,,,,,,,=======;;;;;;;.......=====================;;;;;;;,,,,,,,==============;;;;;;;;;;;;;;.....................                                                                                                                                                                                                                                                            ",
"                                                                                                                                                                                                                         .......=================================================;;;;;;;;;;;;;;.......**************>>>>>>>>>>>>>>>>>>>>>>>>>>>>>>>>>>>..............=======,,,,,,,;;;;;;;;;;;;;;,,,,,,,=======;;;;;;;.......=====================;;;;;;;,,,,,,,==============;;;;;;;;;;;;;;.....................                                                                                                                                                                                                                                                            ",
"                                                                                                                                                                                                                         .......=================================================;;;;;;;;;;;;;;.......**************>>>>>>>>>>>>>>>>>>>>>>>>>>>>>>>>>>>..............=======,,,,,,,;;;;;;;;;;;;;;,,,,,,,=======;;;;;;;.......=====================;;;;;;;,,,,,,,==============;;;;;;;;;;;;;;.....................                                                                                                                                                                                                                                                            ",
"                                                                                                                                                                                                                         .......=================================================;;;;;;;;;;;;;;.......**************>>>>>>>>>>>>>>>>>>>>>>>>>>>>>>>>>>>..............=======,,,,,,,;;;;;;;;;;;;;;,,,,,,,=======;;;;;;;.......=====================;;;;;;;,,,,,,,==============;;;;;;;;;;;;;;.....................                                                                                                                                                                                                                                                            ",
"                                                                                                                                                                                                                         .......=================================================;;;;;;;;;;;;;;.......**************>>>>>>>>>>>>>>>>>>>>>>>>>>>>>>>>>>>..............=======,,,,,,,;;;;;;;;;;;;;;,,,,,,,=======;;;;;;;.......=====================;;;;;;;,,,,,,,==============;;;;;;;;;;;;;;.....................                                                                                                                                                                                                                                                            ",
"                                                                                                                                                                                                                         .......=================================================;;;;;;;;;;;;;;.......**************>>>>>>>>>>>>>>>>>>>>>>>>>>>>>>>>>>>..............=======,,,,,,,;;;;;;;;;;;;;;,,,,,,,=======;;;;;;;.......=====================;;;;;;;,,,,,,,==============;;;;;;;;;;;;;;.....................                                                                                                                                                                                                                                                            ",
"                                                                                                                                                                                                                  .......=================================================;;;;;;;;;;;;;;............................***********************************..............==============,,,,,,,,,,,,,,=======;;;;;;;.......===================================;;;;;;;;;;;;;;;;;;;;;;;;;;;;.......==============;;;;;;;.......                                                                                                                                                                                                                                                     ",
"                                                                                                                                                                                                                  .......=================================================;;;;;;;;;;;;;;............................***********************************..............==============,,,,,,,,,,,,,,=======;;;;;;;.......===================================;;;;;;;;;;;;;;;;;;;;;;;;;;;;.......==============;;;;;;;.......                                                                                                                                                                                                                                                     ",
"                                                                                                                                                                                                                  .......=================================================;;;;;;;;;;;;;;............................***********************************..............==============,,,,,,,,,,,,,,=======;;;;;;;.......===================================;;;;;;;;;;;;;;;;;;;;;;;;;;;;.......==============;;;;;;;.......                                                                                                                                                                                                                                                     ",
"                                                                                                                                                                                                                  .......=================================================;;;;;;;;;;;;;;............................***********************************..............==============,,,,,,,,,,,,,,=======;;;;;;;.......===================================;;;;;;;;;;;;;;;;;;;;;;;;;;;;.......==============;;;;;;;.......                                                                                                                                                                                                                                                     ",
"                                                                                                                                                                                                                  .......=================================================;;;;;;;;;;;;;;............................***********************************..............==============,,,,,,,,,,,,,,=======;;;;;;;.......===================================;;;;;;;;;;;;;;;;;;;;;;;;;;;;.......==============;;;;;;;.......                                                                                                                                                                                                                                                     ",
"                                                                                                                                                                                                                  .......=================================================;;;;;;;;;;;;;;............................***********************************..............==============,,,,,,,,,,,,,,=======;;;;;;;.......===================================;;;;;;;;;;;;;;;;;;;;;;;;;;;;.......==============;;;;;;;.......                                                                                                                                                                                                                                                     ",
"                                                                                                                                                                                                                  .......=================================================;;;;;;;;;;;;;;............................***********************************..............==============,,,,,,,,,,,,,,=======;;;;;;;.......===================================;;;;;;;;;;;;;;;;;;;;;;;;;;;;.......==============;;;;;;;.......                                                                                                                                                                                                                                                     ",
"                                                                                                                                                                                                                  .......==========================================;;;;;;;;;;;;;;.......$$$$$$$$$$$$$$$$$$$$$%%%%%%%...................................$$$$$$$%%%%%%%.......;;;;;;;;;;;;;;;;;;;;;;;;;;;;.......=======,,,,,,,,,,,,,,============================;;;;;;;..............=====================;;;;;;;;;;;;;;.......                                                                                                                                                                                                                                              ",
"                                                                                                                                                                                                                  .......==========================================;;;;;;;;;;;;;;.......$$$$$$$$$$$$$$$$$$$$$%%%%%%%...................................$$$$$$$%%%%%%%.......;;;;;;;;;;;;;;;;;;;;;;;;;;;;.......=======,,,,,,,,,,,,,,============================;;;;;;;..............=====================;;;;;;;;;;;;;;.......                                                                                                                                                                                                                                              ",
"                                                                                                                                                                                                                  .......==========================================;;;;;;;;;;;;;;.......$$$$$$$$$$$$$$$$$$$$$%%%%%%%...................................$$$$$$$%%%%%%%.......;;;;;;;;;;;;;;;;;;;;;;;;;;;;.......=======,,,,,,,,,,,,,,============================;;;;;;;..............=====================;;;;;;;;;;;;;;.......                                                                                                                                                                                                                                              ",
"                                                                                                                                                                                                                  .......==========================================;;;;;;;;;;;;;;.......$$$$$$$$$$$$$$$$$$$$$%%%%%%%...................................$$$$$$$%%%%%%%.......;;;;;;;;;;;;;;;;;;;;;;;;;;;;.......=======,,,,,,,,,,,,,,============================;;;;;;;..............=====================;;;;;;;;;;;;;;.......                                                                                                                                                                                                                                              ",
"                                                                                                                                                                                                                  .......==========================================;;;;;;;;;;;;;;.......$$$$$$$$$$$$$$$$$$$$$%%%%%%%...................................$$$$$$$%%%%%%%.......;;;;;;;;;;;;;;;;;;;;;;;;;;;;.......=======,,,,,,,,,,,,,,============================;;;;;;;..............=====================;;;;;;;;;;;;;;.......                                                                                                                                                                                                                                              ",
"                                                                                                                                                                                                                  .......==========================================;;;;;;;;;;;;;;.......$$$$$$$$$$$$$$$$$$$$$%%%%%%%...................................$$$$$$$%%%%%%%.......;;;;;;;;;;;;;;;;;;;;;;;;;;;;.......=======,,,,,,,,,,,,,,============================;;;;;;;..............=====================;;;;;;;;;;;;;;.......                                                                                                                                                                                                                                              ",
"                                                                                                                                                                                                                  .......==========================================;;;;;;;;;;;;;;.......$$$$$$$$$$$$$$$$$$$$$%%%%%%%...................................$$$$$$$%%%%%%%.......;;;;;;;;;;;;;;;;;;;;;;;;;;;;.......=======,,,,,,,,,,,,,,============================;;;;;;;..............=====================;;;;;;;;;;;;;;.......                                                                                                                                                                                                                                              ",
"                                                                                                                                                                                                                  .......=====================,,,,,,,;;;;;;;;;;;;;;;;;;;;;..............+++++++$$$$$$$$$$$$$$$$$$$$$%%%%%%%%%%%%%%%%%%%%%$$$$$$$$$$$$$$%%%%%%%$$$$$$$...................................=======,,,,,,,;;;;;;;;;;;;;;,,,,,,,==============;;;;;;;.......,,,,,,,;;;;;;;============================;;;;;;;.......                                                                                                                                                                                                                                              ",
"                                                                                                                                                                                                                  .......=====================,,,,,,,;;;;;;;;;;;;;;;;;;;;;..............+++++++$$$$$$$$$$$$$$$$$$$$$%%%%%%%%%%%%%%%%%%%%%$$$$$$$$$$$$$$%%%%%%%$$$$$$$...................................=======,,,,,,,;;;;;;;;;;;;;;,,,,,,,==============;;;;;;;.......,,,,,,,;;;;;;;============================;;;;;;;.......                                                                                                                                                                                                                                              ",
"                                                                                                                                                                                                                  .......=====================,,,,,,,;;;;;;;;;;;;;;;;;;;;;..............+++++++$$$$$$$$$$$$$$$$$$$$$%%%%%%%%%%%%%%%%%%%%%$$$$$$$$$$$$$$%%%%%%%$$$$$$$...................................=======,,,,,,,;;;;;;;;;;;;;;,,,,,,,==============;;;;;;;.......,,,,,,,;;;;;;;============================;;;;;;;.......                                                                                                                                                                                                                                              ",
"                                                                                                                                                                                                                  .......=====================,,,,,,,;;;;;;;;;;;;;;;;;;;;;..............+++++++$$$$$$$$$$$$$$$$$$$$$%%%%%%%%%%%%%%%%%%%%%$$$$$$$$$$$$$$%%%%%%%$$$$$$$...................................=======,,,,,,,;;;;;;;;;;;;;;,,,,,,,==============;;;;;;;.......,,,,,,,;;;;;;;============================;;;;;;;.......                                                                                                                                                                                                                                              ",
"                                                                                                                                                                                                                  .......=====================,,,,,,,;;;;;;;;;;;;;;;;;;;;;..............+++++++$$$$$$$$$$$$$$$$$$$$$%%%%%%%%%%%%%%%%%%%%%$$$$$$$$$$$$$$%%%%%%%$$$$$$$...................................=======,,,,,,,;;;;;;;;;;;;;;,,,,,,,==============;;;;;;;.......,,,,,,,;;;;;;;============================;;;;;;;.......                                                                                                                                                                                                                                              ",
"                                                                                                                                                                                                                  .......=====================,,,,,,,;;;;;;;;;;;;;;;;;;;;;..............+++++++$$$$$$$$$$$$$$$$$$$$$%%%%%%%%%%%%%%%%%%%%%$$$$$$$$$$$$$$%%%%%%%$$$$$$$...................................=======,,,,,,,;;;;;;;;;;;;;;,,,,,,,==============;;;;;;;.......,,,,,,,;;;;;;;============================;;;;;;;.......                                                                                                                                                                                                                                              ",
"                                                                                                                                                                                                                  .......=====================,,,,,,,;;;;;;;;;;;;;;;;;;;;;..............+++++++$$$$$$$$$$$$$$$$$$$$$%%%%%%%%%%%%%%%%%%%%%$$$$$$$$$$$$$$%%%%%%%$$$$$$$...................................=======,,,,,,,;;;;;;;;;;;;;;,,,,,,,==============;;;;;;;.......,,,,,,,;;;;;;;============================;;;;;;;.......                                                                                                                                                                                                                                              ",
"                                                                                                                                                                                                                  .......=====================;;;;;;;,,,,,,,,,,,,,,.......@@@@@@@++++++++++++++++++++++++++++$$$$$$$$$$$$$$$$$$$$$$$$$$$$$$$$$$$%%%%%%%$$$$$$$.......&&&&&&&>>>>>>>.......@@@@@@@.......=======,,,,,,,;;;;;;;;;;;;;;,,,,,,,=======;;;;;;;.......==============,,,,,,,;;;;;;;=====================;;;;;;;.......                                                                                                                                                                                                                                              ",
"                                                                                                                                                                                                                  .......=====================;;;;;;;,,,,,,,,,,,,,,.......@@@@@@@++++++++++++++++++++++++++++$$$$$$$$$$$$$$$$$$$$$$$$$$$$$$$$$$$%%%%%%%$$$$$$$.......&&&&&&&>>>>>>>.......@@@@@@@.......=======,,,,,,,;;;;;;;;;;;;;;,,,,,,,=======;;;;;;;.......==============,,,,,,,;;;;;;;=====================;;;;;;;.......                                                                                                                                                                                                                                              ",
"                                                                                                                                                                                                                  .......=====================;;;;;;;,,,,,,,,,,,,,,.......@@@@@@@++++++++++++++++++++++++++++$$$$$$$$$$$$$$$$$$$$$$$$$$$$$$$$$$$%%%%%%%$$$$$$$.......&&&&&&&>>>>>>>.......@@@@@@@.......=======,,,,,,,;;;;;;;;;;;;;;,,,,,,,=======;;;;;;;.......==============,,,,,,,;;;;;;;=====================;;;;;;;.......                                                                                                                                                                                                                                              ",
"                                                                                                                                                                                                                  .......=====================;;;;;;;,,,,,,,,,,,,,,.......@@@@@@@++++++++++++++++++++++++++++$$$$$$$$$$$$$$$$$$$$$$$$$$$$$$$$$$$%%%%%%%$$$$$$$.......&&&&&&&>>>>>>>.......@@@@@@@.......=======,,,,,,,;;;;;;;;;;;;;;,,,,,,,=======;;;;;;;.......==============,,,,,,,;;;;;;;=====================;;;;;;;.......                                                                                                                                                                                                                                              ",
"                                                                                                                                                                                                                  .......=====================;;;;;;;,,,,,,,,,,,,,,.......@@@@@@@++++++++++++++++++++++++++++$$$$$$$$$$$$$$$$$$$$$$$$$$$$$$$$$$$%%%%%%%$$$$$$$.......&&&&&&&>>>>>>>.......@@@@@@@.......=======,,,,,,,;;;;;;;;;;;;;;,,,,,,,=======;;;;;;;.......==============,,,,,,,;;;;;;;=====================;;;;;;;.......                                                                                                                                                                                                                                              ",
"                                                                                                                                                                                                                  .......=====================;;;;;;;,,,,,,,,,,,,,,.......@@@@@@@++++++++++++++++++++++++++++$$$$$$$$$$$$$$$$$$$$$$$$$$$$$$$$$$$%%%%%%%$$$$$$$.......&&&&&&&>>>>>>>.......@@@@@@@.......=======,,,,,,,;;;;;;;;;;;;;;,,,,,,,=======;;;;;;;.......==============,,,,,,,;;;;;;;=====================;;;;;;;.......                                                                                                                                                                                                                                              ",
"                                                                                                                                                                                                                  .......=====================;;;;;;;,,,,,,,,,,,,,,.......@@@@@@@++++++++++++++++++++++++++++$$$$$$$$$$$$$$$$$$$$$$$$$$$$$$$$$$$%%%%%%%$$$$$$$.......&&&&&&&>>>>>>>.......@@@@@@@.......=======,,,,,,,;;;;;;;;;;;;;;,,,,,,,=======;;;;;;;.......==============,,,,,,,;;;;;;;=====================;;;;;;;.......                                                                                                                                                                                                                                              ",
"                                                                                                                                                                                                                  .......============================;;;;;;;;;;;;;;;;;;;;;.......@@@@@@@+++++++++++++++++++++++++++++++++++%%%%%%%$$$$$$$$$$$$$$$$$$$$$.......*******&&&&&&&&&&&&&&&&&&&&&..............==============,,,,,,,,,,,,,,=======;;;;;;;.......============================,,,,,,,;;;;;;;=======;;;;;;;;;;;;;;.......                                                                                                                                                                                                                                              ",
"                                                                                                                                                                                                                  .......============================;;;;;;;;;;;;;;;;;;;;;.......@@@@@@@+++++++++++++++++++++++++++++++++++%%%%%%%$$$$$$$$$$$$$$$$$$$$$.......*******&&&&&&&&&&&&&&&&&&&&&..............==============,,,,,,,,,,,,,,=======;;;;;;;.......============================,,,,,,,;;;;;;;=======;;;;;;;;;;;;;;.......                                                                                                                                                                                                                                              ",
"                                                                                                                                                                                                                  .......============================;;;;;;;;;;;;;;;;;;;;;.......@@@@@@@+++++++++++++++++++++++++++++++++++%%%%%%%$$$$$$$$$$$$$$$$$$$$$.......*******&&&&&&&&&&&&&&&&&&&&&..............==============,,,,,,,,,,,,,,=======;;;;;;;.......============================,,,,,,,;;;;;;;=======;;;;;;;;;;;;;;.......                                                                                                                                                                                                                                              ",
"                                                                                                                                                                                                                  .......============================;;;;;;;;;;;;;;;;;;;;;.......@@@@@@@+++++++++++++++++++++++++++++++++++%%%%%%%$$$$$$$$$$$$$$$$$$$$$.......*******&&&&&&&&&&&&&&&&&&&&&..............==============,,,,,,,,,,,,,,=======;;;;;;;.......============================,,,,,,,;;;;;;;=======;;;;;;;;;;;;;;.......                                                                                                                                                                                                                                              ",
"                                                                                                                                                                                                                  .......============================;;;;;;;;;;;;;;;;;;;;;.......@@@@@@@+++++++++++++++++++++++++++++++++++%%%%%%%$$$$$$$$$$$$$$$$$$$$$.......*******&&&&&&&&&&&&&&&&&&&&&..............==============,,,,,,,,,,,,,,=======;;;;;;;.......============================,,,,,,,;;;;;;;=======;;;;;;;;;;;;;;.......                                                                                                                                                                                                                                              ",
"                                                                                                                                                                                                                  .......============================;;;;;;;;;;;;;;;;;;;;;.......@@@@@@@+++++++++++++++++++++++++++++++++++%%%%%%%$$$$$$$$$$$$$$$$$$$$$.......*******&&&&&&&&&&&&&&&&&&&&&..............==============,,,,,,,,,,,,,,=======;;;;;;;.......============================,,,,,,,;;;;;;;=======;;;;;;;;;;;;;;.......                                                                                                                                                                                                                                              ",
"                                                                                                                                                                                                                  .......============================;;;;;;;;;;;;;;;;;;;;;.......@@@@@@@+++++++++++++++++++++++++++++++++++%%%%%%%$$$$$$$$$$$$$$$$$$$$$.......*******&&&&&&&&&&&&&&&&&&&&&..............==============,,,,,,,,,,,,,,=======;;;;;;;.......============================,,,,,,,;;;;;;;=======;;;;;;;;;;;;;;.......                                                                                                                                                                                                                                              ",
"                                                                                                                                                                                                                  .......============================;;;;;;;;;;;;;;;;;;;;;;;;;;;;.......@@@@@@@++++++++++++++++++++++++++++$$$$$$$$$$$$$$$$$$$$$.......**************&&&&&&&--------------&&&&&&&..............;;;;;;;;;;;;;;;;;;;;;;;;;;;;.......=======,,,,,,,,,,,,,,=====================;;;;;;;;;;;;;;.......;;;;;;;.......                                                                                                                                                                                                                                              ",
"                                                                                                                                                                                                                  .......============================;;;;;;;;;;;;;;;;;;;;;;;;;;;;.......@@@@@@@++++++++++++++++++++++++++++$$$$$$$$$$$$$$$$$$$$$.......**************&&&&&&&--------------&&&&&&&..............;;;;;;;;;;;;;;;;;;;;;;;;;;;;.......=======,,,,,,,,,,,,,,=====================;;;;;;;;;;;;;;.......;;;;;;;.......                                                                                                                                                                                                                                              ",
"                                                                                                                                                                                                                  .......============================;;;;;;;;;;;;;;;;;;;;;;;;;;;;.......@@@@@@@++++++++++++++++++++++++++++$$$$$$$$$$$$$$$$$$$$$.......**************&&&&&&&--------------&&&&&&&..............;;;;;;;;;;;;;;;;;;;;;;;;;;;;.......=======,,,,,,,,,,,,,,=====================;;;;;;;;;;;;;;.......;;;;;;;.......                                                                                                                                                                                                                                              ",
"                                                                                                                                                                                                                  .......============================;;;;;;;;;;;;;;;;;;;;;;;;;;;;.......@@@@@@@++++++++++++++++++++++++++++$$$$$$$$$$$$$$$$$$$$$.......**************&&&&&&&--------------&&&&&&&..............;;;;;;;;;;;;;;;;;;;;;;;;;;;;.......=======,,,,,,,,,,,,,,=====================;;;;;;;;;;;;;;.......;;;;;;;.......                                                                                                                                                                                                                                              ",
"                                                                                                                                                                                                                  .......============================;;;;;;;;;;;;;;;;;;;;;;;;;;;;.......@@@@@@@++++++++++++++++++++++++++++$$$$$$$$$$$$$$$$$$$$$.......**************&&&&&&&--------------&&&&&&&..............;;;;;;;;;;;;;;;;;;;;;;;;;;;;.......=======,,,,,,,,,,,,,,=====================;;;;;;;;;;;;;;.......;;;;;;;.......                                                                                                                                                                                                                                              ",
"                                                                                                                                                                                                                  .......============================;;;;;;;;;;;;;;;;;;;;;;;;;;;;.......@@@@@@@++++++++++++++++++++++++++++$$$$$$$$$$$$$$$$$$$$$.......**************&&&&&&&--------------&&&&&&&..............;;;;;;;;;;;;;;;;;;;;;;;;;;;;.......=======,,,,,,,,,,,,,,=====================;;;;;;;;;;;;;;.......;;;;;;;.......                                                                                                                                                                                                                                              ",
"                                                                                                                                                                                                                  .......============================;;;;;;;;;;;;;;;;;;;;;;;;;;;;.......@@@@@@@++++++++++++++++++++++++++++$$$$$$$$$$$$$$$$$$$$$.......**************&&&&&&&--------------&&&&&&&..............;;;;;;;;;;;;;;;;;;;;;;;;;;;;.......=======,,,,,,,,,,,,,,=====================;;;;;;;;;;;;;;.......;;;;;;;.......                                                                                                                                                                                                                                              ",
"                                                                                                                                                                                                                  .......============================;;;;;;;;;;;;;;;;;;;;;;;;;;;;..............@@@@@@@+++++++++++++++++++++++++++++++++++%%%%%%%.......**************&&&&&&&-------------->>>>>>>&&&&&&&...................................=======,,,,,,,;;;;;;;;;;;;;;,,,,,,,=======;;;;;;;;;;;;;;.......+++++++..............                                                                                                                                                                                                                                              ",
"                                                                                                                                                                                                                  .......============================;;;;;;;;;;;;;;;;;;;;;;;;;;;;..............@@@@@@@+++++++++++++++++++++++++++++++++++%%%%%%%.......**************&&&&&&&-------------->>>>>>>&&&&&&&...................................=======,,,,,,,;;;;;;;;;;;;;;,,,,,,,=======;;;;;;;;;;;;;;.......+++++++..............                                                                                                                                                                                                                                              ",
"                                                                                                                                                                                                                  .......============================;;;;;;;;;;;;;;;;;;;;;;;;;;;;..............@@@@@@@+++++++++++++++++++++++++++++++++++%%%%%%%.......**************&&&&&&&-------------->>>>>>>&&&&&&&...................................=======,,,,,,,;;;;;;;;;;;;;;,,,,,,,=======;;;;;;;;;;;;;;.......+++++++..............                                                                                                                                                                                                                                              ",
"                                                                                                                                                                                                                  .......============================;;;;;;;;;;;;;;;;;;;;;;;;;;;;..............@@@@@@@+++++++++++++++++++++++++++++++++++%%%%%%%.......**************&&&&&&&-------------->>>>>>>&&&&&&&...................................=======,,,,,,,;;;;;;;;;;;;;;,,,,,,,=======;;;;;;;;;;;;;;.......+++++++..............                                                                                                                                                                                                                                              ",
"                                                                                                                                                                                                                  .......============================;;;;;;;;;;;;;;;;;;;;;;;;;;;;..............@@@@@@@+++++++++++++++++++++++++++++++++++%%%%%%%.......**************&&&&&&&-------------->>>>>>>&&&&&&&...................................=======,,,,,,,;;;;;;;;;;;;;;,,,,,,,=======;;;;;;;;;;;;;;.......+++++++..............                                                                                                                                                                                                                                              ",
"                                                                                                                                                                                                                  .......============================;;;;;;;;;;;;;;;;;;;;;;;;;;;;..............@@@@@@@+++++++++++++++++++++++++++++++++++%%%%%%%.......**************&&&&&&&-------------->>>>>>>&&&&&&&...................................=======,,,,,,,;;;;;;;;;;;;;;,,,,,,,=======;;;;;;;;;;;;;;.......+++++++..............                                                                                                                                                                                                                                              ",
"                                                                                                                                                                                                                  .......============================;;;;;;;;;;;;;;;;;;;;;;;;;;;;..............@@@@@@@+++++++++++++++++++++++++++++++++++%%%%%%%.......**************&&&&&&&-------------->>>>>>>&&&&&&&.......@@@@@@@@@@@@@@@@@@@@@.......=======,,,,,,,;;;;;;;;;;;;;;,,,,,,,=======;;;;;;;;;;;;;;.......+++++++..............                                                                                                                                                                                                                                              ",
"                                                                                                                                                                                                                         .......=====================;;;;;;;;;;;;;;;;;;;;;.......==============.......@@@@@@@++++++++++++++++++++++++++++$$$$$$$.......**************---------------------&&&&&&&&&&&&&&>>>>>>>.......@@@@@@@@@@@@@@.......=======,,,,,,,;;;;;;;;;;;;;;,,,,,,,;;;;;;;;;;;;;;.......+++++++##############.......                                                                                                                                                                                                                                              ",
"                                                                                                                                                                                                                         .......=====================;;;;;;;;;;;;;;;;;;;;;.......==============.......@@@@@@@++++++++++++++++++++++++++++$$$$$$$.......**************---------------------&&&&&&&&&&&&&&>>>>>>>.......@@@@@@@@@@@@@@.......=======,,,,,,,;;;;;;;;;;;;;;,,,,,,,;;;;;;;;;;;;;;.......+++++++##############.......                                                                                                                                                                                                                                              ",
"                                                                                                                                                                                                                         .......=====================;;;;;;;;;;;;;;;;;;;;;.......==============.......@@@@@@@++++++++++++++++++++++++++++$$$$$$$.......**************---------------------&&&&&&&&&&&&&&>>>>>>>.......@@@@@@@@@@@@@@.......=======,,,,,,,;;;;;;;;;;;;;;,,,,,,,;;;;;;;;;;;;;;.......+++++++##############.......                                                                                                                                                                                                                                              ",
"                                                                                                                                                                                                                         .......=====================;;;;;;;;;;;;;;;;;;;;;.......==============.......@@@@@@@++++++++++++++++++++++++++++$$$$$$$.......**************---------------------&&&&&&&&&&&&&&>>>>>>>.......@@@@@@@@@@@@@@.......=======,,,,,,,;;;;;;;;;;;;;;,,,,,,,;;;;;;;;;;;;;;.......+++++++##############.......                                                                                                                                                                                                                                              ",
"                                                                                                                                                                                                                         .......=====================;;;;;;;;;;;;;;;;;;;;;.......==============.......@@@@@@@++++++++++++++++++++++++++++$$$$$$$.......**************---------------------&&&&&&&&&&&&&&>>>>>>>.......@@@@@@@@@@@@@@.......=======,,,,,,,;;;;;;;;;;;;;;,,,,,,,;;;;;;;;;;;;;;.......+++++++##############.......                                                                                                                                                                                                                                              ",
"                                                                                                                                                                                                                         .......=====================;;;;;;;;;;;;;;;;;;;;;.......==============.......@@@@@@@++++++++++++++++++++++++++++$$$$$$$.......**************---------------------&&&&&&&&&&&&&&>>>>>>>.......@@@@@@@@@@@@@@.......=======,,,,,,,;;;;;;;;;;;;;;,,,,,,,;;;;;;;;;;;;;;.......+++++++##############.......                                                                                                                                                                                                                                              ",
"                                                                                                                                                                                                                         .......=====================;;;;;;;;;;;;;;;;;;;;;.......==============.......@@@@@@@++++++++++++++++++++++++++++$$$$$$$.......**************---------------------&&&&&&&&&&&&&&>>>>>>>.......@@@@@@@@@@@@@@.......=======,,,,,,,;;;;;;;;;;;;;;,,,,,,,;;;;;;;;;;;;;;.......+++++++##############.......                                                                                                                                                                                                                                              ",
"                                                                                                                                                                                                                         .......=====================;;;;;;;,,,,,,,,,,,,,,,,,,,,,=====================.......@@@@@@@+++++++++++++++++++++$$$$$$$.......**************>>>>>>>--------------&&&&&&&&&&&&&&&&&&&&&>>>>>>>.......@@@@@@@.......==============,,,,,,,,,,,,,,;;;;;;;..............+++++++#####################+++++++.......                                                                                                                                                                                                                                       ",
"                                                                                                                                                                                                                         .......=====================;;;;;;;,,,,,,,,,,,,,,,,,,,,,=====================.......@@@@@@@+++++++++++++++++++++$$$$$$$.......**************>>>>>>>--------------&&&&&&&&&&&&&&&&&&&&&>>>>>>>.......@@@@@@@.......==============,,,,,,,,,,,,,,;;;;;;;..............+++++++#####################+++++++.......                                                                                                                                                                                                                                       ",
"                                                                                                                                                                                                                         .......=====================;;;;;;;,,,,,,,,,,,,,,,,,,,,,=====================.......@@@@@@@+++++++++++++++++++++$$$$$$$.......**************>>>>>>>--------------&&&&&&&&&&&&&&&&&&&&&>>>>>>>.......@@@@@@@.......==============,,,,,,,,,,,,,,;;;;;;;..............+++++++#####################+++++++.......                                                                                                                                                                                                                                       ",
"                                                                                                                                                                                                                         .......=====================;;;;;;;,,,,,,,,,,,,,,,,,,,,,=====================.......@@@@@@@+++++++++++++++++++++$$$$$$$.......**************>>>>>>>--------------&&&&&&&&&&&&&&&&&&&&&>>>>>>>.......@@@@@@@.......==============,,,,,,,,,,,,,,;;;;;;;..............+++++++#####################+++++++.......                                                                                                                                                                                                                                       ",
"                                                                                                                                                                                                                         .......=====================;;;;;;;,,,,,,,,,,,,,,,,,,,,,=====================.......@@@@@@@+++++++++++++++++++++$$$$$$$.......**************>>>>>>>--------------&&&&&&&&&&&&&&&&&&&&&>>>>>>>.......@@@@@@@.......==============,,,,,,,,,,,,,,;;;;;;;..............+++++++#####################+++++++.......                                                                                                                                                                                                                                       ",
"                                                                                                                                                                                                                         .......=====================;;;;;;;,,,,,,,,,,,,,,,,,,,,,=====================.......@@@@@@@+++++++++++++++++++++$$$$$$$.......**************>>>>>>>--------------&&&&&&&&&&&&&&&&&&&&&>>>>>>>.......@@@@@@@.......==============,,,,,,,,,,,,,,;;;;;;;..............+++++++#####################+++++++.......                                                                                                                                                                                                                                       ",
"                                                                                                                                                                                                                         .......=====================;;;;;;;,,,,,,,,,,,,,,,,,,,,,=====================.......@@@@@@@+++++++++++++++++++++$$$$$$$.......**************>>>>>>>--------------&&&&&&&&&&&&&&&&&&&&&>>>>>>>.......@@@@@@@.......==============,,,,,,,,,,,,,,;;;;;;;..............+++++++#####################+++++++.......                                                                                                                                                                                                                                       ",
"                                                                                                                                                                                                                         .......=====================,,,,,,,==============,,,,,,,=====================,,,,,,,.......@@@@@@@++++++++++++++$$$$$$$.......*********************>>>>>>>--------------&&&&&&&&&&&&&&&&&&&&&&&&&&&&.......@@@@@@@.......;;;;;;;;;;;;;;;;;;;;;.......++++++++++++++#####################+++++++++++++++++++++.......                                                                                                                                                                                                                                ",
"                                                                                                                                                                                                                         .......=====================,,,,,,,==============,,,,,,,=====================,,,,,,,.......@@@@@@@++++++++++++++$$$$$$$.......*********************>>>>>>>--------------&&&&&&&&&&&&&&&&&&&&&&&&&&&&.......@@@@@@@.......;;;;;;;;;;;;;;;;;;;;;.......++++++++++++++#####################+++++++++++++++++++++.......                                                                                                                                                                                                                                ",
"                                                                                                                                                                                                                         .......=====================,,,,,,,==============,,,,,,,=====================,,,,,,,.......@@@@@@@++++++++++++++$$$$$$$.......*********************>>>>>>>--------------&&&&&&&&&&&&&&&&&&&&&&&&&&&&.......@@@@@@@.......;;;;;;;;;;;;;;;;;;;;;.......++++++++++++++#####################+++++++++++++++++++++.......                                                                                                                                                                                                                                ",
"                                                                                                                                                                                                                         .......=====================,,,,,,,==============,,,,,,,=====================,,,,,,,.......@@@@@@@++++++++++++++$$$$$$$.......*********************>>>>>>>--------------&&&&&&&&&&&&&&&&&&&&&&&&&&&&.......@@@@@@@.......;;;;;;;;;;;;;;;;;;;;;.......++++++++++++++#####################+++++++++++++++++++++.......                                                                                                                                                                                                                                ",
"                                                                                                                                                                                                                         .......=====================,,,,,,,==============,,,,,,,=====================,,,,,,,.......@@@@@@@++++++++++++++$$$$$$$.......*********************>>>>>>>--------------&&&&&&&&&&&&&&&&&&&&&&&&&&&&.......@@@@@@@.......;;;;;;;;;;;;;;;;;;;;;.......++++++++++++++#####################+++++++++++++++++++++.......                                                                                                                                                                                                                                ",
"                                                                                                                                                                                                                         .......=====================,,,,,,,==============,,,,,,,=====================,,,,,,,.......@@@@@@@++++++++++++++$$$$$$$.......*********************>>>>>>>--------------&&&&&&&&&&&&&&&&&&&&&&&&&&&&.......@@@@@@@.......;;;;;;;;;;;;;;;;;;;;;.......++++++++++++++#####################+++++++++++++++++++++.......                                                                                                                                                                                                                                ",
"                                                                                                                                                                                                                         .......=====================,,,,,,,==============,,,,,,,=====================,,,,,,,.......@@@@@@@++++++++++++++$$$$$$$.......*********************>>>>>>>--------------&&&&&&&&&&&&&&&&&&&&&&&&&&&&.......@@@@@@@.......;;;;;;;;;;;;;;;;;;;;;.......++++++++++++++#####################+++++++++++++++++++++.......                                                                                                                                                                                                                                ",
"                                                                                                                                                                                                                         .......======================================================================,,,,,,,=======.......@@@@@@@+++++++$$$$$$$.......****************************>>>>>>>---------------------&&&&&&&>>>>>>>>>>>>>>.......@@@@@@@.....................++++++++++++++++++++++++++++#######+++++++++++++++++++++++++++++++++++.......                                                                                                                                                                                                                         ",
"                                                                                                                                                                                                                         .......======================================================================,,,,,,,=======.......@@@@@@@+++++++$$$$$$$.......****************************>>>>>>>---------------------&&&&&&&>>>>>>>>>>>>>>.......@@@@@@@.....................++++++++++++++++++++++++++++#######+++++++++++++++++++++++++++++++++++.......                                                                                                                                                                                                                         ",
"                                                                                                                                                                                                                         .......======================================================================,,,,,,,=======.......@@@@@@@+++++++$$$$$$$.......****************************>>>>>>>---------------------&&&&&&&>>>>>>>>>>>>>>.......@@@@@@@.....................++++++++++++++++++++++++++++#######+++++++++++++++++++++++++++++++++++.......                                                                                                                                                                                                                         ",
"                                                                                                                                                                                                                         .......======================================================================,,,,,,,=======.......@@@@@@@+++++++$$$$$$$.......****************************>>>>>>>---------------------&&&&&&&>>>>>>>>>>>>>>.......@@@@@@@.....................++++++++++++++++++++++++++++#######+++++++++++++++++++++++++++++++++++.......                                                                                                                                                                                                                         ",
"                                                                                                                                                                                                                         .......======================================================================,,,,,,,=======.......@@@@@@@+++++++$$$$$$$.......****************************>>>>>>>---------------------&&&&&&&>>>>>>>>>>>>>>.......@@@@@@@.....................++++++++++++++++++++++++++++#######+++++++++++++++++++++++++++++++++++.......                                                                                                                                                                                                                         ",
"                                                                                                                                                                                                                         .......======================================================================,,,,,,,=======.......@@@@@@@+++++++$$$$$$$.......****************************>>>>>>>---------------------&&&&&&&>>>>>>>>>>>>>>.......@@@@@@@.....................++++++++++++++++++++++++++++#######+++++++++++++++++++++++++++++++++++.......                                                                                                                                                                                                                         ",
"                                                                                                                                                                                                                         .......======================================================================,,,,,,,=======.......@@@@@@@+++++++$$$$$$$.......****************************>>>>>>>---------------------&&&&&&&>>>>>>>>>>>>>>.......@@@@@@@.....................++++++++++++++++++++++++++++#######+++++++++++++++++++++++++++++++++++.......                                                                                                                                                                                                                         ",
"                                                                                                                                                                                                                         .......===================================,,,,,,,=====================,,,,,,,=====================.......@@@@@@@+++++++$$$$$$$.......****************************>>>>>>>--------------&&&&&&&>>>>>>>'''''''>>>>>>>.......@@@@@@@@@@@@@@@@@@@@@+++++++++++++++++++++++++++++++++++++++++++++++++++++++++++++++##############.......                                                                                                                                                                                                                  ",
"                                                                                                                                                                                                                         .......===================================,,,,,,,=====================,,,,,,,=====================.......@@@@@@@+++++++$$$$$$$.......****************************>>>>>>>--------------&&&&&&&>>>>>>>'''''''>>>>>>>.......@@@@@@@@@@@@@@@@@@@@@+++++++++++++++++++++++++++++++++++++++++++++++++++++++++++++++##############.......                                                                                                                                                                                                                  ",
"                                                                                                                                                                                                                         .......===================================,,,,,,,=====================,,,,,,,=====================.......@@@@@@@+++++++$$$$$$$.......****************************>>>>>>>--------------&&&&&&&>>>>>>>'''''''>>>>>>>.......@@@@@@@@@@@@@@@@@@@@@+++++++++++++++++++++++++++++++++++++++++++++++++++++++++++++++##############.......                                                                                                                                                                                                                  ",
"                                                                                                                                                                                                                         .......===================================,,,,,,,=====================,,,,,,,=====================.......@@@@@@@+++++++$$$$$$$.......****************************>>>>>>>--------------&&&&&&&>>>>>>>'''''''>>>>>>>.......@@@@@@@@@@@@@@@@@@@@@+++++++++++++++++++++++++++++++++++++++++++++++++++++++++++++++##############.......                                                                                                                                                                                                                  ",
"                                                                                                                                                                                                                         .......===================================,,,,,,,=====================,,,,,,,=====================.......@@@@@@@+++++++$$$$$$$.......****************************>>>>>>>--------------&&&&&&&>>>>>>>'''''''>>>>>>>.......@@@@@@@@@@@@@@@@@@@@@+++++++++++++++++++++++++++++++++++++++++++++++++++++++++++++++##############.......                                                                                                                                                                                                                  ",
"                                                                                                                                                                                                                         .......===================================,,,,,,,=====================,,,,,,,=====================.......@@@@@@@+++++++$$$$$$$.......****************************>>>>>>>--------------&&&&&&&>>>>>>>'''''''>>>>>>>.......@@@@@@@@@@@@@@@@@@@@@+++++++++++++++++++++++++++++++++++++++++++++++++++++++++++++++##############.......                                                                                                                                                                                                                  ",
"                                                                                                                                                                                                                         .......===================================,,,,,,,=====================,,,,,,,=====================.......@@@@@@@+++++++$$$$$$$.......****************************>>>>>>>--------------&&&&&&&>>>>>>>'''''''>>>>>>>.......@@@@@@@@@@@@@@@@@@@@@+++++++++++++++++++++++++++++++++++++++++++++++++++++++++++++++##############.......                                                                                                                                                                                                                  ",
"                                                                                                                                                                                                                         .......;;;;;;;=====================,,,,,,,===============================================================.......@@@@@@@$$$$$$$.......*********************)))))))*******>>>>>>>--------------------->>>>>>>--------------.......@@@@@@@@@@@@@@@@@@@@@+++++++++++++++++++++++++++++++++++++++++++++++++#####################+++++++.......                                                                                                                                                                                                           ",
"                                                                                                                                                                                                                         .......;;;;;;;=====================,,,,,,,===============================================================.......@@@@@@@$$$$$$$.......*********************)))))))*******>>>>>>>--------------------->>>>>>>--------------.......@@@@@@@@@@@@@@@@@@@@@+++++++++++++++++++++++++++++++++++++++++++++++++#####################+++++++.......                                                                                                                                                                                                           ",
"                                                                                                                                                                                                                         .......;;;;;;;=====================,,,,,,,===============================================================.......@@@@@@@$$$$$$$.......*********************)))))))*******>>>>>>>--------------------->>>>>>>--------------.......@@@@@@@@@@@@@@@@@@@@@+++++++++++++++++++++++++++++++++++++++++++++++++#####################+++++++.......                                                                                                                                                                                                           ",
"                                                                                                                                                                                                                         .......;;;;;;;=====================,,,,,,,===============================================================.......@@@@@@@$$$$$$$.......*********************)))))))*******>>>>>>>--------------------->>>>>>>--------------.......@@@@@@@@@@@@@@@@@@@@@+++++++++++++++++++++++++++++++++++++++++++++++++#####################+++++++.......                                                                                                                                                                                                           ",
"                                                                                                                                                                                                                         .......;;;;;;;=====================,,,,,,,===============================================================.......@@@@@@@$$$$$$$.......*********************)))))))*******>>>>>>>--------------------->>>>>>>--------------.......@@@@@@@@@@@@@@@@@@@@@+++++++++++++++++++++++++++++++++++++++++++++++++#####################+++++++.......                                                                                                                                                                                                           ",
"                                                                                                                                                                                                                         .......;;;;;;;=====================,,,,,,,===============================================================.......@@@@@@@$$$$$$$.......*********************)))))))*******>>>>>>>--------------------->>>>>>>--------------.......@@@@@@@@@@@@@@@@@@@@@+++++++++++++++++++++++++++++++++++++++++++++++++#####################+++++++.......                                                                                                                                                                                                           ",
"                                                                                                                                                                                                                         .......;;;;;;;=====================,,,,,,,===============================================================.......@@@@@@@$$$$$$$.......*********************)))))))*******>>>>>>>--------------------->>>>>>>--------------.......@@@@@@@@@@@@@@@@@@@@@+++++++++++++++++++++++++++++++++++++++++++++++++#####################+++++++.......                                                                                                                                                                                                           ",
"                                                                                                                                                                                                                                .......;;;;;;;===========================================================================================.......@@@@@@@%%%%%%%.......*********************)))))))*******>>>>>>>>>>>>>>----------------------------*******.......@@@@@@@@@@@@@@@@@@@@@+++++++++++++++++++++++++++++++++++~~~~~~~~~~~~~~~~~~~~~+++++++++++++++++++++.......                                                                                                                                                                                                    ",
"                                                                                                                                                                                                                                .......;;;;;;;===========================================================================================.......@@@@@@@%%%%%%%.......*********************)))))))*******>>>>>>>>>>>>>>----------------------------*******.......@@@@@@@@@@@@@@@@@@@@@+++++++++++++++++++++++++++++++++++~~~~~~~~~~~~~~~~~~~~~+++++++++++++++++++++.......                                                                                                                                                                                                    ",
"                                                                                                                                                                                                                                .......;;;;;;;===========================================================================================.......@@@@@@@%%%%%%%.......*********************)))))))*******>>>>>>>>>>>>>>----------------------------*******.......@@@@@@@@@@@@@@@@@@@@@+++++++++++++++++++++++++++++++++++~~~~~~~~~~~~~~~~~~~~~+++++++++++++++++++++.......                                                                                                                                                                                                    ",
"                                                                                                                                                                                                                                .......;;;;;;;===========================================================================================.......@@@@@@@%%%%%%%.......*********************)))))))*******>>>>>>>>>>>>>>----------------------------*******.......@@@@@@@@@@@@@@@@@@@@@+++++++++++++++++++++++++++++++++++~~~~~~~~~~~~~~~~~~~~~+++++++++++++++++++++.......                                                                                                                                                                                                    ",
"                                                                                                                                                                                                                                .......;;;;;;;===========================================================================================.......@@@@@@@%%%%%%%.......*********************)))))))*******>>>>>>>>>>>>>>----------------------------*******.......@@@@@@@@@@@@@@@@@@@@@+++++++++++++++++++++++++++++++++++~~~~~~~~~~~~~~~~~~~~~+++++++++++++++++++++.......                                                                                                                                                                                                    ",
"                                                                                                                                                                                                                                .......;;;;;;;===========================================================================================.......@@@@@@@%%%%%%%.......*********************)))))))*******>>>>>>>>>>>>>>----------------------------*******.......@@@@@@@@@@@@@@@@@@@@@+++++++++++++++++++++++++++++++++++~~~~~~~~~~~~~~~~~~~~~+++++++++++++++++++++.......                                                                                                                                                                                                    ",
"                                                                                                                                                                                                                                .......;;;;;;;===========================================================================================.......@@@@@@@%%%%%%%.......*********************)))))))*******>>>>>>>>>>>>>>----------------------------*******.......@@@@@@@@@@@@@@@@@@@@@+++++++++++++++++++++++++++++++++++~~~~~~~~~~~~~~~~~~~~~+++++++++++++++++++++.......                                                                                                                                                                                                    ",
"                                                                                                                                                                                                                                       .......;;;;;;;====================================================================================;;;;;;;.......@@@@@@@$$$$$$$..............**************)))))))**************>>>>>>>>>>>>>>----------------------------.......@@@@@@@@@@@@@@@@@@@@@+++++++++++++++++++++++++++++++++++~~~~~~~+++++++++++++++++++++++++++++++++++.......                                                 .....................                                                                                                                       ",
"                                                                                                                                                                                                                                       .......;;;;;;;====================================================================================;;;;;;;.......@@@@@@@$$$$$$$..............**************)))))))**************>>>>>>>>>>>>>>----------------------------.......@@@@@@@@@@@@@@@@@@@@@+++++++++++++++++++++++++++++++++++~~~~~~~+++++++++++++++++++++++++++++++++++.......                                                 .....................                                                                                                                       ",
"                                                                                                                                                                                                                                       .......;;;;;;;====================================================================================;;;;;;;.......@@@@@@@$$$$$$$..............**************)))))))**************>>>>>>>>>>>>>>----------------------------.......@@@@@@@@@@@@@@@@@@@@@+++++++++++++++++++++++++++++++++++~~~~~~~+++++++++++++++++++++++++++++++++++.......                                                 .....................                                                                                                                       ",
"                                                                                                                                                                                                                                       .......;;;;;;;====================================================================================;;;;;;;.......@@@@@@@$$$$$$$..............**************)))))))**************>>>>>>>>>>>>>>----------------------------.......@@@@@@@@@@@@@@@@@@@@@+++++++++++++++++++++++++++++++++++~~~~~~~+++++++++++++++++++++++++++++++++++.......                                                 .....................                                                                                                                       ",
"                                                                                                                                                                                                                                       .......;;;;;;;====================================================================================;;;;;;;.......@@@@@@@$$$$$$$..............**************)))))))**************>>>>>>>>>>>>>>----------------------------.......@@@@@@@@@@@@@@@@@@@@@+++++++++++++++++++++++++++++++++++~~~~~~~+++++++++++++++++++++++++++++++++++.......                                                 .....................                                                                                                                       ",
"                                                                                                                                                                                                                                       .......;;;;;;;====================================================================================;;;;;;;.......@@@@@@@$$$$$$$..............**************)))))))**************>>>>>>>>>>>>>>----------------------------.......@@@@@@@@@@@@@@@@@@@@@+++++++++++++++++++++++++++++++++++~~~~~~~+++++++++++++++++++++++++++++++++++.......                                                 .....................                                                                                                                       ",
"                                                                                                                                                                                                                                       .......;;;;;;;====================================================================================;;;;;;;.......@@@@@@@$$$$$$$..............**************)))))))**************>>>>>>>>>>>>>>----------------------------.......@@@@@@@@@@@@@@@@@@@@@+++++++++++++++++++++++++++++++++++~~~~~~~+++++++++++++++++++++++++++++++++++.......                                                 .....................                                                                                                                       ",
"                                                                                                                                                                                                                                ..............;;;;;;;;;;;;;;=============================================================================;;;;;;;;;;;;;;.......@@@@@@@$$$$$$$$$$$$$$.......******************************************>>>>>>>>>>>>>>--------------*******.......@@@@@@@@@@@@@@@@@@@@@++++++++++++++++++++++++++++++++++++++++++++++++++++++++++++++++++++++#######.......                            ..............;;;;;;;;;;;;;;;;;;;;;.......                                                                                                                ",
"                                                                                                                                                                                                                                ..............;;;;;;;;;;;;;;=============================================================================;;;;;;;;;;;;;;.......@@@@@@@$$$$$$$$$$$$$$.......******************************************>>>>>>>>>>>>>>--------------*******.......@@@@@@@@@@@@@@@@@@@@@++++++++++++++++++++++++++++++++++++++++++++++++++++++++++++++++++++++#######.......                            ..............;;;;;;;;;;;;;;;;;;;;;.......                                                                                                                ",
"                                                                                                                                                                                                                                ..............;;;;;;;;;;;;;;=============================================================================;;;;;;;;;;;;;;.......@@@@@@@$$$$$$$$$$$$$$.......******************************************>>>>>>>>>>>>>>--------------*******.......@@@@@@@@@@@@@@@@@@@@@++++++++++++++++++++++++++++++++++++++++++++++++++++++++++++++++++++++#######.......                            ..............;;;;;;;;;;;;;;;;;;;;;.......                                                                                                                ",
"                                                                                                                                                                                                                                ..............;;;;;;;;;;;;;;=============================================================================;;;;;;;;;;;;;;.......@@@@@@@$$$$$$$$$$$$$$.......******************************************>>>>>>>>>>>>>>--------------*******.......@@@@@@@@@@@@@@@@@@@@@++++++++++++++++++++++++++++++++++++++++++++++++++++++++++++++++++++++#######.......                            ..............;;;;;;;;;;;;;;;;;;;;;.......                                                                                                                ",
"                                                                                                                                                                                                                                ..............;;;;;;;;;;;;;;=============================================================================;;;;;;;;;;;;;;.......@@@@@@@$$$$$$$$$$$$$$.......******************************************>>>>>>>>>>>>>>--------------*******.......@@@@@@@@@@@@@@@@@@@@@++++++++++++++++++++++++++++++++++++++++++++++++++++++++++++++++++++++#######.......                            ..............;;;;;;;;;;;;;;;;;;;;;.......                                                                                                                ",
"                                                                                                                                                                                                                                ..............;;;;;;;;;;;;;;=============================================================================;;;;;;;;;;;;;;.......@@@@@@@$$$$$$$$$$$$$$.......******************************************>>>>>>>>>>>>>>--------------*******.......@@@@@@@@@@@@@@@@@@@@@++++++++++++++++++++++++++++++++++++++++++++++++++++++++++++++++++++++#######.......                            ..............;;;;;;;;;;;;;;;;;;;;;.......                                                                                                                ",
"                                                                                                                                                                                                                                ..............;;;;;;;;;;;;;;=============================================================================;;;;;;;;;;;;;;.......@@@@@@@$$$$$$$$$$$$$$.......******************************************>>>>>>>>>>>>>>--------------*******.......@@@@@@@@@@@@@@@@@@@@@++++++++++++++++++++++++++++++++++++++++++++++++++++++++++++++++++++++#######.......                            ..............;;;;;;;;;;;;;;;;;;;;;.......                                                                                                                ",
"                                                                                                                                                                                                                         ..............;;;;;;;;;;;;;;;;;;;;;;;;;;;;;;;;;;;========================================================;;;;;;;;;;;;;;;;;;;;;;;;;;;;.......@@@@@@@+++++++%%%%%%%..............******************************************>>>>>>>>>>>>>>>>>>>>>>>>>>>>.......@@@@@@@@@@@@@@@@@@@@@++++++++++++++++++++++++++++++++++++++++++++++++++++++++#####################.......       ..............;;;;;;;;;;;;;;;;;;;;;;;;;;;;;;;;;;;;;;;;;;.......                                                                                                         ",
"                                                                                                                                                                                                                         ..............;;;;;;;;;;;;;;;;;;;;;;;;;;;;;;;;;;;========================================================;;;;;;;;;;;;;;;;;;;;;;;;;;;;.......@@@@@@@+++++++%%%%%%%..............******************************************>>>>>>>>>>>>>>>>>>>>>>>>>>>>.......@@@@@@@@@@@@@@@@@@@@@++++++++++++++++++++++++++++++++++++++++++++++++++++++++#####################.......       ..............;;;;;;;;;;;;;;;;;;;;;;;;;;;;;;;;;;;;;;;;;;.......                                                                                                         ",
"                                                                                                                                                                                                                         ..............;;;;;;;;;;;;;;;;;;;;;;;;;;;;;;;;;;;========================================================;;;;;;;;;;;;;;;;;;;;;;;;;;;;.......@@@@@@@+++++++%%%%%%%..............******************************************>>>>>>>>>>>>>>>>>>>>>>>>>>>>.......@@@@@@@@@@@@@@@@@@@@@++++++++++++++++++++++++++++++++++++++++++++++++++++++++#####################.......       ..............;;;;;;;;;;;;;;;;;;;;;;;;;;;;;;;;;;;;;;;;;;.......                                                                                                         ",
"                                                                                                                                                                                                                         ..............;;;;;;;;;;;;;;;;;;;;;;;;;;;;;;;;;;;========================================================;;;;;;;;;;;;;;;;;;;;;;;;;;;;.......@@@@@@@+++++++%%%%%%%..............******************************************>>>>>>>>>>>>>>>>>>>>>>>>>>>>.......@@@@@@@@@@@@@@@@@@@@@++++++++++++++++++++++++++++++++++++++++++++++++++++++++#####################.......       ..............;;;;;;;;;;;;;;;;;;;;;;;;;;;;;;;;;;;;;;;;;;.......                                                                                                         ",
"                                                                                                                                                                                                                         ..............;;;;;;;;;;;;;;;;;;;;;;;;;;;;;;;;;;;========================================================;;;;;;;;;;;;;;;;;;;;;;;;;;;;.......@@@@@@@+++++++%%%%%%%..............******************************************>>>>>>>>>>>>>>>>>>>>>>>>>>>>.......@@@@@@@@@@@@@@@@@@@@@++++++++++++++++++++++++++++++++++++++++++++++++++++++++#####################.......       ..............;;;;;;;;;;;;;;;;;;;;;;;;;;;;;;;;;;;;;;;;;;.......                                                                                                         ",
"                                                                                                                                                                                                                         ..............;;;;;;;;;;;;;;;;;;;;;;;;;;;;;;;;;;;========================================================;;;;;;;;;;;;;;;;;;;;;;;;;;;;.......@@@@@@@+++++++%%%%%%%..............******************************************>>>>>>>>>>>>>>>>>>>>>>>>>>>>.......@@@@@@@@@@@@@@@@@@@@@++++++++++++++++++++++++++++++++++++++++++++++++++++++++#####################.......       ..............;;;;;;;;;;;;;;;;;;;;;;;;;;;;;;;;;;;;;;;;;;.......                                                                                                         ",
"                                                                                                                                                                                                                         ..............;;;;;;;;;;;;;;;;;;;;;;;;;;;;;;;;;;;========================================================;;;;;;;;;;;;;;;;;;;;;;;;;;;;.......@@@@@@@+++++++%%%%%%%..............******************************************>>>>>>>>>>>>>>>>>>>>>>>>>>>>.......@@@@@@@@@@@@@@@@@@@@@++++++++++++++++++++++++++++++++++++++++++++++++++++++++#####################.......       ..............;;;;;;;;;;;;;;;;;;;;;;;;;;;;;;;;;;;;;;;;;;.......                                                                                                         ",
"                                                                                                                                                                                                                  ..............;;;;;;;;;;;;;;;;;;;;;;;;;;;;;;;;;;;;;;;;;;;;;;;;;=================================================;;;;;;;;;;;;;;;;;;;;;;;;;;;;;;;;;;;.......@@@@@@@+++++++$$$$$$$$$$$$$$.......***********************************>>>>>>>>>>>>>>>>>>>>>>>>>>>>>>>>>>>.......@@@@@@@@@@@@@@@@@@@@@++++++++++++++++++++++++++++++++++++++++++#####################++++++++++++++.......;;;;;;;;;;;;;;;;;;;;;;;;;;;;;;;;;;;;;;;;;;=====================............................                                                                             ",
"                                                                                                                                                                                                                  ..............;;;;;;;;;;;;;;;;;;;;;;;;;;;;;;;;;;;;;;;;;;;;;;;;;=================================================;;;;;;;;;;;;;;;;;;;;;;;;;;;;;;;;;;;.......@@@@@@@+++++++$$$$$$$$$$$$$$.......***********************************>>>>>>>>>>>>>>>>>>>>>>>>>>>>>>>>>>>.......@@@@@@@@@@@@@@@@@@@@@++++++++++++++++++++++++++++++++++++++++++#####################++++++++++++++.......;;;;;;;;;;;;;;;;;;;;;;;;;;;;;;;;;;;;;;;;;;=====================............................                                                                             ",
"                                                                                                                                                                                                                  ..............;;;;;;;;;;;;;;;;;;;;;;;;;;;;;;;;;;;;;;;;;;;;;;;;;=================================================;;;;;;;;;;;;;;;;;;;;;;;;;;;;;;;;;;;.......@@@@@@@+++++++$$$$$$$$$$$$$$.......***********************************>>>>>>>>>>>>>>>>>>>>>>>>>>>>>>>>>>>.......@@@@@@@@@@@@@@@@@@@@@++++++++++++++++++++++++++++++++++++++++++#####################++++++++++++++.......;;;;;;;;;;;;;;;;;;;;;;;;;;;;;;;;;;;;;;;;;;=====================............................                                                                             ",
"                                                                                                                                                                                                                  ..............;;;;;;;;;;;;;;;;;;;;;;;;;;;;;;;;;;;;;;;;;;;;;;;;;=================================================;;;;;;;;;;;;;;;;;;;;;;;;;;;;;;;;;;;.......@@@@@@@+++++++$$$$$$$$$$$$$$.......***********************************>>>>>>>>>>>>>>>>>>>>>>>>>>>>>>>>>>>.......@@@@@@@@@@@@@@@@@@@@@++++++++++++++++++++++++++++++++++++++++++#####################++++++++++++++.......;;;;;;;;;;;;;;;;;;;;;;;;;;;;;;;;;;;;;;;;;;=====================............................                                                                             ",
"                                                                                                                                                                                                                  ..............;;;;;;;;;;;;;;;;;;;;;;;;;;;;;;;;;;;;;;;;;;;;;;;;;=================================================;;;;;;;;;;;;;;;;;;;;;;;;;;;;;;;;;;;.......@@@@@@@+++++++$$$$$$$$$$$$$$.......***********************************>>>>>>>>>>>>>>>>>>>>>>>>>>>>>>>>>>>.......@@@@@@@@@@@@@@@@@@@@@++++++++++++++++++++++++++++++++++++++++++#####################++++++++++++++.......;;;;;;;;;;;;;;;;;;;;;;;;;;;;;;;;;;;;;;;;;;=====================............................                                                                             ",
"                                                                                                                                                                                                                  ..............;;;;;;;;;;;;;;;;;;;;;;;;;;;;;;;;;;;;;;;;;;;;;;;;;=================================================;;;;;;;;;;;;;;;;;;;;;;;;;;;;;;;;;;;.......@@@@@@@+++++++$$$$$$$$$$$$$$.......***********************************>>>>>>>>>>>>>>>>>>>>>>>>>>>>>>>>>>>.......@@@@@@@@@@@@@@@@@@@@@++++++++++++++++++++++++++++++++++++++++++#####################++++++++++++++.......;;;;;;;;;;;;;;;;;;;;;;;;;;;;;;;;;;;;;;;;;;=====================............................                                                                             ",
"                                                                                                                                                                                                                  ..............;;;;;;;;;;;;;;;;;;;;;;;;;;;;;;;;;;;;;;;;;;;;;;;;;=================================================;;;;;;;;;;;;;;;;;;;;;;;;;;;;;;;;;;;.......@@@@@@@+++++++$$$$$$$$$$$$$$.......***********************************>>>>>>>>>>>>>>>>>>>>>>>>>>>>>>>>>>>.......@@@@@@@@@@@@@@@@@@@@@++++++++++++++++++++++++++++++++++++++++++#####################++++++++++++++.......;;;;;;;;;;;;;;;;;;;;;;;;;;;;;;;;;;;;;;;;;;=====================............................                                                                             ",
"                                                                                                                                                                                                                  .......;;;;;;;;;;;;;;;;;;;;;;;;;;;;;;;;;;;;;;;;;;;;;;;;;;;;;;;;;;;;;;;;;;;;;;;;;;;;;=====================;;;;;;;;;;;;;;;;;;;;;;;;;;;;;;;;;;;;;;;;;;..............@@@@@@@+++++++++++++++++++++..............*********************>>>>>>>>>>>>>>>>>>>>>>>>>>>>>>>>>>>*******.......@@@@@@@@@@@@@@@@@@@@@+++++++++++++++++++++++++++++++++++##############++++++++++++++++++++++++++++.......;;;;;;;.....................============================.......;;;;;;;;;;;;;;;;;;;;;..............                                                               ",
"                                                                                                                                                                                                                  .......;;;;;;;;;;;;;;;;;;;;;;;;;;;;;;;;;;;;;;;;;;;;;;;;;;;;;;;;;;;;;;;;;;;;;;;;;;;;;=====================;;;;;;;;;;;;;;;;;;;;;;;;;;;;;;;;;;;;;;;;;;..............@@@@@@@+++++++++++++++++++++..............*********************>>>>>>>>>>>>>>>>>>>>>>>>>>>>>>>>>>>*******.......@@@@@@@@@@@@@@@@@@@@@+++++++++++++++++++++++++++++++++++##############++++++++++++++++++++++++++++.......;;;;;;;.....................============================.......;;;;;;;;;;;;;;;;;;;;;..............                                                               ",
"                                                                                                                                                                                                                  .......;;;;;;;;;;;;;;;;;;;;;;;;;;;;;;;;;;;;;;;;;;;;;;;;;;;;;;;;;;;;;;;;;;;;;;;;;;;;;=====================;;;;;;;;;;;;;;;;;;;;;;;;;;;;;;;;;;;;;;;;;;..............@@@@@@@+++++++++++++++++++++..............*********************>>>>>>>>>>>>>>>>>>>>>>>>>>>>>>>>>>>*******.......@@@@@@@@@@@@@@@@@@@@@+++++++++++++++++++++++++++++++++++##############++++++++++++++++++++++++++++.......;;;;;;;.....................============================.......;;;;;;;;;;;;;;;;;;;;;..............                                                               ",
"                                                                                                                                                                                                                  .......;;;;;;;;;;;;;;;;;;;;;;;;;;;;;;;;;;;;;;;;;;;;;;;;;;;;;;;;;;;;;;;;;;;;;;;;;;;;;=====================;;;;;;;;;;;;;;;;;;;;;;;;;;;;;;;;;;;;;;;;;;..............@@@@@@@+++++++++++++++++++++..............*********************>>>>>>>>>>>>>>>>>>>>>>>>>>>>>>>>>>>*******.......@@@@@@@@@@@@@@@@@@@@@+++++++++++++++++++++++++++++++++++##############++++++++++++++++++++++++++++.......;;;;;;;.....................============================.......;;;;;;;;;;;;;;;;;;;;;..............                                                               ",
"                                                                                                                                                                                                                  .......;;;;;;;;;;;;;;;;;;;;;;;;;;;;;;;;;;;;;;;;;;;;;;;;;;;;;;;;;;;;;;;;;;;;;;;;;;;;;=====================;;;;;;;;;;;;;;;;;;;;;;;;;;;;;;;;;;;;;;;;;;..............@@@@@@@+++++++++++++++++++++..............*********************>>>>>>>>>>>>>>>>>>>>>>>>>>>>>>>>>>>*******.......@@@@@@@@@@@@@@@@@@@@@+++++++++++++++++++++++++++++++++++##############++++++++++++++++++++++++++++.......;;;;;;;.....................============================.......;;;;;;;;;;;;;;;;;;;;;..............                                                               ",
"                                                                                                                                                                                                                  .......;;;;;;;;;;;;;;;;;;;;;;;;;;;;;;;;;;;;;;;;;;;;;;;;;;;;;;;;;;;;;;;;;;;;;;;;;;;;;=====================;;;;;;;;;;;;;;;;;;;;;;;;;;;;;;;;;;;;;;;;;;..............@@@@@@@+++++++++++++++++++++..............*********************>>>>>>>>>>>>>>>>>>>>>>>>>>>>>>>>>>>*******.......@@@@@@@@@@@@@@@@@@@@@+++++++++++++++++++++++++++++++++++##############++++++++++++++++++++++++++++.......;;;;;;;.....................============================.......;;;;;;;;;;;;;;;;;;;;;..............                                                               ",
"                                                                                                                                                                                                                  .......;;;;;;;;;;;;;;;;;;;;;;;;;;;;;;;;;;;;;;;;;;;;;;;;;;;;;;;;;;;;;;;;;;;;;;;;;;;;;=====================;;;;;;;;;;;;;;;;;;;;;;;;;;;;;;;;;;;;;;;;;;..............@@@@@@@+++++++++++++++++++++..............*********************>>>>>>>>>>>>>>>>>>>>>>>>>>>>>>>>>>>*******.......@@@@@@@@@@@@@@@@@@@@@+++++++++++++++++++++++++++++++++++##############++++++++++++++++++++++++++++.......;;;;;;;.....................============================.......;;;;;;;;;;;;;;;;;;;;;..............                                                               ",
"                                                                                                                                                                                                           .......;;;;;;;;;;;;;;;;;;;;;;;;;;;;============================;;;;;;;;;;;;;;;;;;;;;;;;;;;;;;;;;;;;;;;;;;;;;;;;;;;;;;;;;;;;;;;;;;;;;;;;;;;;;;;;;;;;.......==============.......@@@@@@@++++++++++++++++++++++++++++.....................***********************************.......%%%%%%%.......@@@@@@@@@@@@@@@@@@@@@+++++++++++++++++++++++++++++++++++++++++++++++++++++++++++++++++++++++++++++..............;;;;;;;;;;;;;;============================.....................;;;;;;;==============.......                                                        ",
"                                                                                                                                                                                                           .......;;;;;;;;;;;;;;;;;;;;;;;;;;;;============================;;;;;;;;;;;;;;;;;;;;;;;;;;;;;;;;;;;;;;;;;;;;;;;;;;;;;;;;;;;;;;;;;;;;;;;;;;;;;;;;;;;;.......==============.......@@@@@@@++++++++++++++++++++++++++++.....................***********************************.......%%%%%%%.......@@@@@@@@@@@@@@@@@@@@@+++++++++++++++++++++++++++++++++++++++++++++++++++++++++++++++++++++++++++++..............;;;;;;;;;;;;;;============================.....................;;;;;;;==============.......                                                        ",
"                                                                                                                                                                                                           .......;;;;;;;;;;;;;;;;;;;;;;;;;;;;============================;;;;;;;;;;;;;;;;;;;;;;;;;;;;;;;;;;;;;;;;;;;;;;;;;;;;;;;;;;;;;;;;;;;;;;;;;;;;;;;;;;;;.......==============.......@@@@@@@++++++++++++++++++++++++++++.....................***********************************.......%%%%%%%.......@@@@@@@@@@@@@@@@@@@@@+++++++++++++++++++++++++++++++++++++++++++++++++++++++++++++++++++++++++++++..............;;;;;;;;;;;;;;============================.....................;;;;;;;==============.......                                                        ",
"                                                                                                                                                                                                           .......;;;;;;;;;;;;;;;;;;;;;;;;;;;;============================;;;;;;;;;;;;;;;;;;;;;;;;;;;;;;;;;;;;;;;;;;;;;;;;;;;;;;;;;;;;;;;;;;;;;;;;;;;;;;;;;;;;.......==============.......@@@@@@@++++++++++++++++++++++++++++.....................***********************************.......%%%%%%%.......@@@@@@@@@@@@@@@@@@@@@+++++++++++++++++++++++++++++++++++++++++++++++++++++++++++++++++++++++++++++..............;;;;;;;;;;;;;;============================.....................;;;;;;;==============.......                                                        ",
"                                                                                                                                                                                                           .......;;;;;;;;;;;;;;;;;;;;;;;;;;;;============================;;;;;;;;;;;;;;;;;;;;;;;;;;;;;;;;;;;;;;;;;;;;;;;;;;;;;;;;;;;;;;;;;;;;;;;;;;;;;;;;;;;;.......==============.......@@@@@@@++++++++++++++++++++++++++++.....................***********************************.......%%%%%%%.......@@@@@@@@@@@@@@@@@@@@@+++++++++++++++++++++++++++++++++++++++++++++++++++++++++++++++++++++++++++++..............;;;;;;;;;;;;;;============================.....................;;;;;;;==============.......                                                        ",
"                                                                                                                                                                                                           .......;;;;;;;;;;;;;;;;;;;;;;;;;;;;============================;;;;;;;;;;;;;;;;;;;;;;;;;;;;;;;;;;;;;;;;;;;;;;;;;;;;;;;;;;;;;;;;;;;;;;;;;;;;;;;;;;;;.......==============.......@@@@@@@++++++++++++++++++++++++++++.....................***********************************.......%%%%%%%.......@@@@@@@@@@@@@@@@@@@@@+++++++++++++++++++++++++++++++++++++++++++++++++++++++++++++++++++++++++++++..............;;;;;;;;;;;;;;============================.....................;;;;;;;==============.......                                                        ",
"                                                                                                                                                                                                           .......;;;;;;;;;;;;;;;;;;;;;;;;;;;;============================;;;;;;;;;;;;;;;;;;;;;;;;;;;;;;;;;;;;;;;;;;;;;;;;;;;;;;;;;;;;;;;;;;;;;;;;;;;;;;;;;;;;.......==============.......@@@@@@@++++++++++++++++++++++++++++.....................***********************************.......%%%%%%%.......@@@@@@@@@@@@@@@@@@@@@+++++++++++++++++++++++++++++++++++++++++++++++++++++++++++++++++++++++++++++..............;;;;;;;;;;;;;;============================.....................;;;;;;;==============.......                                                        ",
"                                                                                                                                                                                                    ..............;;;;;;;;;;;;;;;;;;;;;;;;;;;;==========================================;;;;;;;;;;;;;;;;;;;;;;;;;;;;;;;;;;;;;;;;;;;;;;;;;;;;;;;;;;;;;;;.......============================.......@@@@@@@++++++++++++++++++++++++++++$$$$$$$%%%%%%%...................................$$$$$$$$$$$$$$$$$$$$$.......@@@@@@@@@@@@@@@@@@@@@+++++++++++++++++++++++++++++++++++++++++++++++++++++++++++++++#######.......;;;;;;;;;;;;;;============================..............;;;;;;;;;;;;;;=====================.......                                                        ",
"                                                                                                                                                                                                    ..............;;;;;;;;;;;;;;;;;;;;;;;;;;;;==========================================;;;;;;;;;;;;;;;;;;;;;;;;;;;;;;;;;;;;;;;;;;;;;;;;;;;;;;;;;;;;;;;.......============================.......@@@@@@@++++++++++++++++++++++++++++$$$$$$$%%%%%%%...................................$$$$$$$$$$$$$$$$$$$$$.......@@@@@@@@@@@@@@@@@@@@@+++++++++++++++++++++++++++++++++++++++++++++++++++++++++++++++#######.......;;;;;;;;;;;;;;============================..............;;;;;;;;;;;;;;=====================.......                                                        ",
"                                                                                                                                                                                                    ..............;;;;;;;;;;;;;;;;;;;;;;;;;;;;==========================================;;;;;;;;;;;;;;;;;;;;;;;;;;;;;;;;;;;;;;;;;;;;;;;;;;;;;;;;;;;;;;;.......============================.......@@@@@@@++++++++++++++++++++++++++++$$$$$$$%%%%%%%...................................$$$$$$$$$$$$$$$$$$$$$.......@@@@@@@@@@@@@@@@@@@@@+++++++++++++++++++++++++++++++++++++++++++++++++++++++++++++++#######.......;;;;;;;;;;;;;;============================..............;;;;;;;;;;;;;;=====================.......                                                        ",
"                                                                                                                                                                                                    ..............;;;;;;;;;;;;;;;;;;;;;;;;;;;;==========================================;;;;;;;;;;;;;;;;;;;;;;;;;;;;;;;;;;;;;;;;;;;;;;;;;;;;;;;;;;;;;;;.......============================.......@@@@@@@++++++++++++++++++++++++++++$$$$$$$%%%%%%%...................................$$$$$$$$$$$$$$$$$$$$$.......@@@@@@@@@@@@@@@@@@@@@+++++++++++++++++++++++++++++++++++++++++++++++++++++++++++++++#######.......;;;;;;;;;;;;;;============================..............;;;;;;;;;;;;;;=====================.......                                                        ",
"                                                                                                                                                                                                    ..............;;;;;;;;;;;;;;;;;;;;;;;;;;;;==========================================;;;;;;;;;;;;;;;;;;;;;;;;;;;;;;;;;;;;;;;;;;;;;;;;;;;;;;;;;;;;;;;.......============================.......@@@@@@@++++++++++++++++++++++++++++$$$$$$$%%%%%%%...................................$$$$$$$$$$$$$$$$$$$$$.......@@@@@@@@@@@@@@@@@@@@@+++++++++++++++++++++++++++++++++++++++++++++++++++++++++++++++#######.......;;;;;;;;;;;;;;============================..............;;;;;;;;;;;;;;=====================.......                                                        ",
"                                                                                                                                                                                                    ..............;;;;;;;;;;;;;;;;;;;;;;;;;;;;==========================================;;;;;;;;;;;;;;;;;;;;;;;;;;;;;;;;;;;;;;;;;;;;;;;;;;;;;;;;;;;;;;;.......============================.......@@@@@@@++++++++++++++++++++++++++++$$$$$$$%%%%%%%...................................$$$$$$$$$$$$$$$$$$$$$.......@@@@@@@@@@@@@@@@@@@@@+++++++++++++++++++++++++++++++++++++++++++++++++++++++++++++++#######.......;;;;;;;;;;;;;;============================..............;;;;;;;;;;;;;;=====================.......                                                        ",
"                                                                                                                                                                                                    ..............;;;;;;;;;;;;;;;;;;;;;;;;;;;;==========================================;;;;;;;;;;;;;;;;;;;;;;;;;;;;;;;;;;;;;;;;;;;;;;;;;;;;;;;;;;;;;;;.......============================.......@@@@@@@++++++++++++++++++++++++++++$$$$$$$%%%%%%%...................................$$$$$$$$$$$$$$$$$$$$$.......@@@@@@@@@@@@@@@@@@@@@+++++++++++++++++++++++++++++++++++++++++++++++++++++++++++++++#######.......;;;;;;;;;;;;;;============================..............;;;;;;;;;;;;;;=====================.......                                                        ",
"                                                                                                                                                                                                    .......;;;;;;;;;;;;;;;;;;;;;;;;;;;;=============================================================================.......;;;;;;;;;;;;;;;;;;;;;.......;;;;;;;;;;;;;;;;;;;;;==============;;;;;;;.......@@@@@@@++++++++++++++++++++++++++++$$$$$$$%%%%%%%$$$$$$$$$$$$$$$$$$$$$%%%%%%%$$$$$$$%%%%%%%.......&&&&&&&.......@@@@@@@@@@@@@@@@@@@@@+++++++++++++++++++++++++++++++++++++++++++++++++#######.......;;;;;;;;;;;;;;===================================.......;;;;;;;;;;;;;;============================.......                                                        ",
"                                                                                                                                                                                                    .......;;;;;;;;;;;;;;;;;;;;;;;;;;;;=============================================================================.......;;;;;;;;;;;;;;;;;;;;;.......;;;;;;;;;;;;;;;;;;;;;==============;;;;;;;.......@@@@@@@++++++++++++++++++++++++++++$$$$$$$%%%%%%%$$$$$$$$$$$$$$$$$$$$$%%%%%%%$$$$$$$%%%%%%%.......&&&&&&&.......@@@@@@@@@@@@@@@@@@@@@+++++++++++++++++++++++++++++++++++++++++++++++++#######.......;;;;;;;;;;;;;;===================================.......;;;;;;;;;;;;;;============================.......                                                        ",
"                                                                                                                                                                                                    .......;;;;;;;;;;;;;;;;;;;;;;;;;;;;=============================================================================.......;;;;;;;;;;;;;;;;;;;;;.......;;;;;;;;;;;;;;;;;;;;;==============;;;;;;;.......@@@@@@@++++++++++++++++++++++++++++$$$$$$$%%%%%%%$$$$$$$$$$$$$$$$$$$$$%%%%%%%$$$$$$$%%%%%%%.......&&&&&&&.......@@@@@@@@@@@@@@@@@@@@@+++++++++++++++++++++++++++++++++++++++++++++++++#######.......;;;;;;;;;;;;;;===================================.......;;;;;;;;;;;;;;============================.......                                                        ",
"                                                                                                                                                                                                    .......;;;;;;;;;;;;;;;;;;;;;;;;;;;;=============================================================================.......;;;;;;;;;;;;;;;;;;;;;.......;;;;;;;;;;;;;;;;;;;;;==============;;;;;;;.......@@@@@@@++++++++++++++++++++++++++++$$$$$$$%%%%%%%$$$$$$$$$$$$$$$$$$$$$%%%%%%%$$$$$$$%%%%%%%.......&&&&&&&.......@@@@@@@@@@@@@@@@@@@@@+++++++++++++++++++++++++++++++++++++++++++++++++#######.......;;;;;;;;;;;;;;===================================.......;;;;;;;;;;;;;;============================.......                                                        ",
"                                                                                                                                                                                                    .......;;;;;;;;;;;;;;;;;;;;;;;;;;;;=============================================================================.......;;;;;;;;;;;;;;;;;;;;;.......;;;;;;;;;;;;;;;;;;;;;==============;;;;;;;.......@@@@@@@++++++++++++++++++++++++++++$$$$$$$%%%%%%%$$$$$$$$$$$$$$$$$$$$$%%%%%%%$$$$$$$%%%%%%%.......&&&&&&&.......@@@@@@@@@@@@@@@@@@@@@+++++++++++++++++++++++++++++++++++++++++++++++++#######.......;;;;;;;;;;;;;;===================================.......;;;;;;;;;;;;;;============================.......                                                        ",
"                                                                                                                                                                                                    .......;;;;;;;;;;;;;;;;;;;;;;;;;;;;=============================================================================.......;;;;;;;;;;;;;;;;;;;;;.......;;;;;;;;;;;;;;;;;;;;;==============;;;;;;;.......@@@@@@@++++++++++++++++++++++++++++$$$$$$$%%%%%%%$$$$$$$$$$$$$$$$$$$$$%%%%%%%$$$$$$$%%%%%%%.......&&&&&&&.......@@@@@@@@@@@@@@@@@@@@@+++++++++++++++++++++++++++++++++++++++++++++++++#######.......;;;;;;;;;;;;;;===================================.......;;;;;;;;;;;;;;============================.......                                                        ",
"                                                                                                                                                                                                    .......;;;;;;;;;;;;;;;;;;;;;;;;;;;;=============================================================================.......;;;;;;;;;;;;;;;;;;;;;.......;;;;;;;;;;;;;;;;;;;;;==============;;;;;;;.......@@@@@@@++++++++++++++++++++++++++++$$$$$$$%%%%%%%$$$$$$$$$$$$$$$$$$$$$%%%%%%%$$$$$$$%%%%%%%.......&&&&&&&.......@@@@@@@@@@@@@@@@@@@@@+++++++++++++++++++++++++++++++++++++++++++++++++#######.......;;;;;;;;;;;;;;===================================.......;;;;;;;;;;;;;;============================.......                                                        ",
"                                                                                                                                                                                             ..............;;;;;;;;;;;;;;;;;;;;;===========================================================================================.......;;;;;;;.......;;;;;;;;;;;;;;;;;;;;;;;;;;;;;;;;;;;;;;;;;;;;;;;;;;;;;;;;.......@@@@@@@++++++++++++++++++++++++++++$$$$$$$$$$$$$$$$$$$$$%%%%%%%$$$$$$$$$$$$$$.......*******&&&&&&&&&&&&&&.......@@@@@@@@@@@@@@@@@@@@@+++++++++++++++++++++++++++++++++++##############.......;;;;;;;===================================.......;;;;;;;;;;;;;;============================.......                                                               ",
"                                                                                                                                                                                             ..............;;;;;;;;;;;;;;;;;;;;;===========================================================================================.......;;;;;;;.......;;;;;;;;;;;;;;;;;;;;;;;;;;;;;;;;;;;;;;;;;;;;;;;;;;;;;;;;.......@@@@@@@++++++++++++++++++++++++++++$$$$$$$$$$$$$$$$$$$$$%%%%%%%$$$$$$$$$$$$$$.......*******&&&&&&&&&&&&&&.......@@@@@@@@@@@@@@@@@@@@@+++++++++++++++++++++++++++++++++++##############.......;;;;;;;===================================.......;;;;;;;;;;;;;;============================.......                                                               ",
"                                                                                                                                                                                             ..............;;;;;;;;;;;;;;;;;;;;;===========================================================================================.......;;;;;;;.......;;;;;;;;;;;;;;;;;;;;;;;;;;;;;;;;;;;;;;;;;;;;;;;;;;;;;;;;.......@@@@@@@++++++++++++++++++++++++++++$$$$$$$$$$$$$$$$$$$$$%%%%%%%$$$$$$$$$$$$$$.......*******&&&&&&&&&&&&&&.......@@@@@@@@@@@@@@@@@@@@@+++++++++++++++++++++++++++++++++++##############.......;;;;;;;===================================.......;;;;;;;;;;;;;;============================.......                                                               ",
"                                                                                                                                                                                             ..............;;;;;;;;;;;;;;;;;;;;;===========================================================================================.......;;;;;;;.......;;;;;;;;;;;;;;;;;;;;;;;;;;;;;;;;;;;;;;;;;;;;;;;;;;;;;;;;.......@@@@@@@++++++++++++++++++++++++++++$$$$$$$$$$$$$$$$$$$$$%%%%%%%$$$$$$$$$$$$$$.......*******&&&&&&&&&&&&&&.......@@@@@@@@@@@@@@@@@@@@@+++++++++++++++++++++++++++++++++++##############.......;;;;;;;===================================.......;;;;;;;;;;;;;;============================.......                                                               ",
"                                                                                                                                                                                             ..............;;;;;;;;;;;;;;;;;;;;;===========================================================================================.......;;;;;;;.......;;;;;;;;;;;;;;;;;;;;;;;;;;;;;;;;;;;;;;;;;;;;;;;;;;;;;;;;.......@@@@@@@++++++++++++++++++++++++++++$$$$$$$$$$$$$$$$$$$$$%%%%%%%$$$$$$$$$$$$$$.......*******&&&&&&&&&&&&&&.......@@@@@@@@@@@@@@@@@@@@@+++++++++++++++++++++++++++++++++++##############.......;;;;;;;===================================.......;;;;;;;;;;;;;;============================.......                                                               ",
"                                                                                                                                                                                             ..............;;;;;;;;;;;;;;;;;;;;;===========================================================================================.......;;;;;;;.......;;;;;;;;;;;;;;;;;;;;;;;;;;;;;;;;;;;;;;;;;;;;;;;;;;;;;;;;.......@@@@@@@++++++++++++++++++++++++++++$$$$$$$$$$$$$$$$$$$$$%%%%%%%$$$$$$$$$$$$$$.......*******&&&&&&&&&&&&&&.......@@@@@@@@@@@@@@@@@@@@@+++++++++++++++++++++++++++++++++++##############.......;;;;;;;===================================.......;;;;;;;;;;;;;;============================.......                                                               ",
"                                                                                                                                                                                             ..............;;;;;;;;;;;;;;;;;;;;;===========================================================================================.......;;;;;;;.......;;;;;;;;;;;;;;;;;;;;;;;;;;;;;;;;;;;;;;;;;;;;;;;;;;;;;;;;.......@@@@@@@++++++++++++++++++++++++++++$$$$$$$$$$$$$$$$$$$$$%%%%%%%$$$$$$$$$$$$$$.......*******&&&&&&&&&&&&&&.......@@@@@@@@@@@@@@@@@@@@@+++++++++++++++++++++++++++++++++++##############.......;;;;;;;===================================.......;;;;;;;;;;;;;;============================.......                                                               ",
"                                                                                                                                                                                      ..............;;;;;;;;;;;;;;;;;;;;;=============================================================================,,,,,,,,,,,,,,==============.......;;;;;;;;;;;;;;;;;;;;;;;;;;;;;;;;;;;;;;;;;;;;;;;;;;;;;;;;;;;;;;;;;;;;;;.......@@@@@@@+++++++++++++++++++++++++++++++++++$$$$$$$$$$$$$$$$$$$$$.......**************&&&&&&&--------------.......@@@@@@@@@@@@@@@@@@@@@+++++++++++++++++++++++++++++++++++.......;;;;;;;===================================.......;;;;;;;;;;;;;;============================.......;;;;;;;.......                                                        ",
"                                                                                                                                                                                      ..............;;;;;;;;;;;;;;;;;;;;;=============================================================================,,,,,,,,,,,,,,==============.......;;;;;;;;;;;;;;;;;;;;;;;;;;;;;;;;;;;;;;;;;;;;;;;;;;;;;;;;;;;;;;;;;;;;;;.......@@@@@@@+++++++++++++++++++++++++++++++++++$$$$$$$$$$$$$$$$$$$$$.......**************&&&&&&&--------------.......@@@@@@@@@@@@@@@@@@@@@+++++++++++++++++++++++++++++++++++.......;;;;;;;===================================.......;;;;;;;;;;;;;;============================.......;;;;;;;.......                                                        ",
"                                                                                                                                                                                      ..............;;;;;;;;;;;;;;;;;;;;;=============================================================================,,,,,,,,,,,,,,==============.......;;;;;;;;;;;;;;;;;;;;;;;;;;;;;;;;;;;;;;;;;;;;;;;;;;;;;;;;;;;;;;;;;;;;;;.......@@@@@@@+++++++++++++++++++++++++++++++++++$$$$$$$$$$$$$$$$$$$$$.......**************&&&&&&&--------------.......@@@@@@@@@@@@@@@@@@@@@+++++++++++++++++++++++++++++++++++.......;;;;;;;===================================.......;;;;;;;;;;;;;;============================.......;;;;;;;.......                                                        ",
"                                                                                                                                                                                      ..............;;;;;;;;;;;;;;;;;;;;;=============================================================================,,,,,,,,,,,,,,==============.......;;;;;;;;;;;;;;;;;;;;;;;;;;;;;;;;;;;;;;;;;;;;;;;;;;;;;;;;;;;;;;;;;;;;;;.......@@@@@@@+++++++++++++++++++++++++++++++++++$$$$$$$$$$$$$$$$$$$$$.......**************&&&&&&&--------------.......@@@@@@@@@@@@@@@@@@@@@+++++++++++++++++++++++++++++++++++.......;;;;;;;===================================.......;;;;;;;;;;;;;;============================.......;;;;;;;.......                                                        ",
"                                                                                                                                                                                      ..............;;;;;;;;;;;;;;;;;;;;;=============================================================================,,,,,,,,,,,,,,==============.......;;;;;;;;;;;;;;;;;;;;;;;;;;;;;;;;;;;;;;;;;;;;;;;;;;;;;;;;;;;;;;;;;;;;;;.......@@@@@@@+++++++++++++++++++++++++++++++++++$$$$$$$$$$$$$$$$$$$$$.......**************&&&&&&&--------------.......@@@@@@@@@@@@@@@@@@@@@+++++++++++++++++++++++++++++++++++.......;;;;;;;===================================.......;;;;;;;;;;;;;;============================.......;;;;;;;.......                                                        ",
"                                                                                                                                                                                      ..............;;;;;;;;;;;;;;;;;;;;;=============================================================================,,,,,,,,,,,,,,==============.......;;;;;;;;;;;;;;;;;;;;;;;;;;;;;;;;;;;;;;;;;;;;;;;;;;;;;;;;;;;;;;;;;;;;;;.......@@@@@@@+++++++++++++++++++++++++++++++++++$$$$$$$$$$$$$$$$$$$$$.......**************&&&&&&&--------------.......@@@@@@@@@@@@@@@@@@@@@+++++++++++++++++++++++++++++++++++.......;;;;;;;===================================.......;;;;;;;;;;;;;;============================.......;;;;;;;.......                                                        ",
"                                                                                                                                                                                      ..............;;;;;;;;;;;;;;;;;;;;;=============================================================================,,,,,,,,,,,,,,==============.......;;;;;;;;;;;;;;;;;;;;;;;;;;;;;;;;;;;;;;;;;;;;;;;;;;;;;;;;;;;;;;;;;;;;;;.......@@@@@@@+++++++++++++++++++++++++++++++++++$$$$$$$$$$$$$$$$$$$$$.......**************&&&&&&&--------------.......@@@@@@@@@@@@@@@@@@@@@+++++++++++++++++++++++++++++++++++.......;;;;;;;===================================.......;;;;;;;;;;;;;;============================.......;;;;;;;.......                                                        ",
"                                                                                                                                                                               ..............;;;;;;;;;;;;;;;;;;;;;=============================================================================,,,,,,,=======,,,,,,,,,,,,,,==============.......;;;;;;;;;;;;;;;;;;;;;;;;;;;;;;;;;;;;;;;;;;;;;;;;;;;;;;;;;;;;;;;..............@@@@@@@++++++++++++++++++++++++++++++++++++++++++$$$$$$$.......**************&&&&&&&-------------->>>>>>>.......@@@@@@@@@@@@@@@@@@@@@++++++++++++++++++++++++++++.......;;;;;;;===================================.......;;;;;;;============================.......;;;;;;;;;;;;;;;;;;;;;.......                                                 ",
"                                                                                                                                                                               ..............;;;;;;;;;;;;;;;;;;;;;=============================================================================,,,,,,,=======,,,,,,,,,,,,,,==============.......;;;;;;;;;;;;;;;;;;;;;;;;;;;;;;;;;;;;;;;;;;;;;;;;;;;;;;;;;;;;;;;..............@@@@@@@++++++++++++++++++++++++++++++++++++++++++$$$$$$$.......**************&&&&&&&-------------->>>>>>>.......@@@@@@@@@@@@@@@@@@@@@++++++++++++++++++++++++++++.......;;;;;;;===================================.......;;;;;;;============================.......;;;;;;;;;;;;;;;;;;;;;.......                                                 ",
"                                                                                                                                                                               ..............;;;;;;;;;;;;;;;;;;;;;=============================================================================,,,,,,,=======,,,,,,,,,,,,,,==============.......;;;;;;;;;;;;;;;;;;;;;;;;;;;;;;;;;;;;;;;;;;;;;;;;;;;;;;;;;;;;;;;..............@@@@@@@++++++++++++++++++++++++++++++++++++++++++$$$$$$$.......**************&&&&&&&-------------->>>>>>>.......@@@@@@@@@@@@@@@@@@@@@++++++++++++++++++++++++++++.......;;;;;;;===================================.......;;;;;;;============================.......;;;;;;;;;;;;;;;;;;;;;.......                                                 ",
"                                                                                                                                                                               ..............;;;;;;;;;;;;;;;;;;;;;=============================================================================,,,,,,,=======,,,,,,,,,,,,,,==============.......;;;;;;;;;;;;;;;;;;;;;;;;;;;;;;;;;;;;;;;;;;;;;;;;;;;;;;;;;;;;;;;..............@@@@@@@++++++++++++++++++++++++++++++++++++++++++$$$$$$$.......**************&&&&&&&-------------->>>>>>>.......@@@@@@@@@@@@@@@@@@@@@++++++++++++++++++++++++++++.......;;;;;;;===================================.......;;;;;;;============================.......;;;;;;;;;;;;;;;;;;;;;.......                                                 ",
"                                                                                                                                                                               ..............;;;;;;;;;;;;;;;;;;;;;=============================================================================,,,,,,,=======,,,,,,,,,,,,,,==============.......;;;;;;;;;;;;;;;;;;;;;;;;;;;;;;;;;;;;;;;;;;;;;;;;;;;;;;;;;;;;;;;..............@@@@@@@++++++++++++++++++++++++++++++++++++++++++$$$$$$$.......**************&&&&&&&-------------->>>>>>>.......@@@@@@@@@@@@@@@@@@@@@++++++++++++++++++++++++++++.......;;;;;;;===================================.......;;;;;;;============================.......;;;;;;;;;;;;;;;;;;;;;.......                                                 ",
"                                                                                                                                                                               ..............;;;;;;;;;;;;;;;;;;;;;=============================================================================,,,,,,,=======,,,,,,,,,,,,,,==============.......;;;;;;;;;;;;;;;;;;;;;;;;;;;;;;;;;;;;;;;;;;;;;;;;;;;;;;;;;;;;;;;..............@@@@@@@++++++++++++++++++++++++++++++++++++++++++$$$$$$$.......**************&&&&&&&-------------->>>>>>>.......@@@@@@@@@@@@@@@@@@@@@++++++++++++++++++++++++++++.......;;;;;;;===================================.......;;;;;;;============================.......;;;;;;;;;;;;;;;;;;;;;.......                                                 ",
"                                                                                                                                                                               ..............;;;;;;;;;;;;;;;;;;;;;=============================================================================,,,,,,,=======,,,,,,,,,,,,,,==============.......;;;;;;;;;;;;;;;;;;;;;;;;;;;;;;;;;;;;;;;;;;;;;;;;;;;;;;;;;;;;;;;..............@@@@@@@++++++++++++++++++++++++++++++++++++++++++$$$$$$$.......**************&&&&&&&-------------->>>>>>>.......@@@@@@@@@@@@@@@@@@@@@++++++++++++++++++++++++++++.......;;;;;;;===================================.......;;;;;;;============================.......;;;;;;;;;;;;;;;;;;;;;.......                                                 ",
"                                                                                                                                                                        ..............;;;;;;;;;;;;;;;;;;;;;=============================================================================,,,,,,,,,,,,,,==============,,,,,,,==============;;;;;;;.......;;;;;;;;;;;;;;;;;;;;;;;;;;;;;;;;;;;;;;;;;;;;;;;;;..............       .......@@@@@@@+++++++++++++++++++++++++++++++++++%%%%%%%.......**************---------------------&&&&&&&&&&&&&&.......@@@@@@@@@@@@@@@@@@@@@+++++++++++++++++++++.......===================================.......;;;;;;;;;;;;;;============================.......;;;;;;;;;;;;;;==============.......                                          ",
"                                                                                                                                                                        ..............;;;;;;;;;;;;;;;;;;;;;=============================================================================,,,,,,,,,,,,,,==============,,,,,,,==============;;;;;;;.......;;;;;;;;;;;;;;;;;;;;;;;;;;;;;;;;;;;;;;;;;;;;;;;;;..............       .......@@@@@@@+++++++++++++++++++++++++++++++++++%%%%%%%.......**************---------------------&&&&&&&&&&&&&&.......@@@@@@@@@@@@@@@@@@@@@+++++++++++++++++++++.......===================================.......;;;;;;;;;;;;;;============================.......;;;;;;;;;;;;;;==============.......                                          ",
"                                                                                                                                                                        ..............;;;;;;;;;;;;;;;;;;;;;=============================================================================,,,,,,,,,,,,,,==============,,,,,,,==============;;;;;;;.......;;;;;;;;;;;;;;;;;;;;;;;;;;;;;;;;;;;;;;;;;;;;;;;;;..............       .......@@@@@@@+++++++++++++++++++++++++++++++++++%%%%%%%.......**************---------------------&&&&&&&&&&&&&&.......@@@@@@@@@@@@@@@@@@@@@+++++++++++++++++++++.......===================================.......;;;;;;;;;;;;;;============================.......;;;;;;;;;;;;;;==============.......                                          ",
"                                                                                                                                                                        ..............;;;;;;;;;;;;;;;;;;;;;=============================================================================,,,,,,,,,,,,,,==============,,,,,,,==============;;;;;;;.......;;;;;;;;;;;;;;;;;;;;;;;;;;;;;;;;;;;;;;;;;;;;;;;;;..............       .......@@@@@@@+++++++++++++++++++++++++++++++++++%%%%%%%.......**************---------------------&&&&&&&&&&&&&&.......@@@@@@@@@@@@@@@@@@@@@+++++++++++++++++++++.......===================================.......;;;;;;;;;;;;;;============================.......;;;;;;;;;;;;;;==============.......                                          ",
"                                                                                                                                                                        ..............;;;;;;;;;;;;;;;;;;;;;=============================================================================,,,,,,,,,,,,,,==============,,,,,,,==============;;;;;;;.......;;;;;;;;;;;;;;;;;;;;;;;;;;;;;;;;;;;;;;;;;;;;;;;;;..............       .......@@@@@@@+++++++++++++++++++++++++++++++++++%%%%%%%.......**************---------------------&&&&&&&&&&&&&&.......@@@@@@@@@@@@@@@@@@@@@+++++++++++++++++++++.......===================================.......;;;;;;;;;;;;;;============================.......;;;;;;;;;;;;;;==============.......                                          ",
"                                                                                                                                                                        ..............;;;;;;;;;;;;;;;;;;;;;=============================================================================,,,,,,,,,,,,,,==============,,,,,,,==============;;;;;;;.......;;;;;;;;;;;;;;;;;;;;;;;;;;;;;;;;;;;;;;;;;;;;;;;;;..............       .......@@@@@@@+++++++++++++++++++++++++++++++++++%%%%%%%.......**************---------------------&&&&&&&&&&&&&&.......@@@@@@@@@@@@@@@@@@@@@+++++++++++++++++++++.......===================================.......;;;;;;;;;;;;;;============================.......;;;;;;;;;;;;;;==============.......                                          ",
"                                                                                                                                                                        ..............;;;;;;;;;;;;;;;;;;;;;=============================================================================,,,,,,,,,,,,,,==============,,,,,,,==============;;;;;;;.......;;;;;;;;;;;;;;;;;;;;;;;;;;;;;;;;;;;;;;;;;;;;;;;;;..............       .......@@@@@@@+++++++++++++++++++++++++++++++++++%%%%%%%.......**************---------------------&&&&&&&&&&&&&&.......@@@@@@@@@@@@@@@@@@@@@+++++++++++++++++++++.......===================================.......;;;;;;;;;;;;;;============================.......;;;;;;;;;;;;;;==============.......                                          ",
"                                                                                                                                                                 ..............;;;;;;;;;;;;;;;;;;;;;=============================================================================,,,,,,,,,,,,,,==========================================;;;;;;;;;;;;;;;;;;;;;;;;;;;;;;;;;;;;;;;;;;;;;;;;;.....................                     .......@@@@@@@++++++++++++++++++++++++++++$$$$$$$.......**************>>>>>>>--------------&&&&&&&&&&&&&&&&&&&&&.......@@@@@@@@@@@@@@@@@@@@@+++++++.......;;;;;;;============================.......;;;;;;;;;;;;;;============================.......;;;;;;;;;;;;;;=====================.......                                          ",
"                                                                                                                                                                 ..............;;;;;;;;;;;;;;;;;;;;;=============================================================================,,,,,,,,,,,,,,==========================================;;;;;;;;;;;;;;;;;;;;;;;;;;;;;;;;;;;;;;;;;;;;;;;;;.....................                     .......@@@@@@@++++++++++++++++++++++++++++$$$$$$$.......**************>>>>>>>--------------&&&&&&&&&&&&&&&&&&&&&.......@@@@@@@@@@@@@@@@@@@@@+++++++.......;;;;;;;============================.......;;;;;;;;;;;;;;============================.......;;;;;;;;;;;;;;=====================.......                                          ",
"                                                                                                                                                                 ..............;;;;;;;;;;;;;;;;;;;;;=============================================================================,,,,,,,,,,,,,,==========================================;;;;;;;;;;;;;;;;;;;;;;;;;;;;;;;;;;;;;;;;;;;;;;;;;.....................                     .......@@@@@@@++++++++++++++++++++++++++++$$$$$$$.......**************>>>>>>>--------------&&&&&&&&&&&&&&&&&&&&&.......@@@@@@@@@@@@@@@@@@@@@+++++++.......;;;;;;;============================.......;;;;;;;;;;;;;;============================.......;;;;;;;;;;;;;;=====================.......                                          ",
"                                                                                                                                                                 ..............;;;;;;;;;;;;;;;;;;;;;=============================================================================,,,,,,,,,,,,,,==========================================;;;;;;;;;;;;;;;;;;;;;;;;;;;;;;;;;;;;;;;;;;;;;;;;;.....................                     .......@@@@@@@++++++++++++++++++++++++++++$$$$$$$.......**************>>>>>>>--------------&&&&&&&&&&&&&&&&&&&&&.......@@@@@@@@@@@@@@@@@@@@@+++++++.......;;;;;;;============================.......;;;;;;;;;;;;;;============================.......;;;;;;;;;;;;;;=====================.......                                          ",
"                                                                                                                                                                 ..............;;;;;;;;;;;;;;;;;;;;;=============================================================================,,,,,,,,,,,,,,==========================================;;;;;;;;;;;;;;;;;;;;;;;;;;;;;;;;;;;;;;;;;;;;;;;;;.....................                     .......@@@@@@@++++++++++++++++++++++++++++$$$$$$$.......**************>>>>>>>--------------&&&&&&&&&&&&&&&&&&&&&.......@@@@@@@@@@@@@@@@@@@@@+++++++.......;;;;;;;============================.......;;;;;;;;;;;;;;============================.......;;;;;;;;;;;;;;=====================.......                                          ",
"                                                                                                                                                                 ..............;;;;;;;;;;;;;;;;;;;;;=============================================================================,,,,,,,,,,,,,,==========================================;;;;;;;;;;;;;;;;;;;;;;;;;;;;;;;;;;;;;;;;;;;;;;;;;.....................                     .......@@@@@@@++++++++++++++++++++++++++++$$$$$$$.......**************>>>>>>>--------------&&&&&&&&&&&&&&&&&&&&&.......@@@@@@@@@@@@@@@@@@@@@+++++++.......;;;;;;;============================.......;;;;;;;;;;;;;;============================.......;;;;;;;;;;;;;;=====================.......                                          ",
"                                                                                                                                                                 ..............;;;;;;;;;;;;;;;;;;;;;=============================================================================,,,,,,,,,,,,,,==========================================;;;;;;;;;;;;;;;;;;;;;;;;;;;;;;;;;;;;;;;;;;;;;;;;;.....................                     .......@@@@@@@++++++++++++++++++++++++++++$$$$$$$.......**************>>>>>>>--------------&&&&&&&&&&&&&&&&&&&&&.......@@@@@@@@@@@@@@@@@@@@@+++++++.......;;;;;;;============================.......;;;;;;;;;;;;;;============================.......;;;;;;;;;;;;;;=====================.......                                          ",
"                                                                                                                                                          ..............;;;;;;;;;;;;;;;;;;;;;=============================================================================,,,,,,,,,,,,,,;;;;;;;==========================================;;;;;;;;;;;;;;;;;;;;;;;;;;;;;;;;;;;..............                                                 .......@@@@@@@++++++++++++++++++++++++++++.......*********************>>>>>>>--------------&&&&&&&&&&&&&&&&&&&&&.......@@@@@@@@@@@@@@@@@@@@@.......;;;;;;;=====================.......;;;;;;;;;;;;;;============================.......;;;;;;;;;;;;;;============================..............                                   ",
"                                                                                                                                                          ..............;;;;;;;;;;;;;;;;;;;;;=============================================================================,,,,,,,,,,,,,,;;;;;;;==========================================;;;;;;;;;;;;;;;;;;;;;;;;;;;;;;;;;;;..............                                                 .......@@@@@@@++++++++++++++++++++++++++++.......*********************>>>>>>>--------------&&&&&&&&&&&&&&&&&&&&&.......@@@@@@@@@@@@@@@@@@@@@.......;;;;;;;=====================.......;;;;;;;;;;;;;;============================.......;;;;;;;;;;;;;;============================..............                                   ",
"                                                                                                                                                          ..............;;;;;;;;;;;;;;;;;;;;;=============================================================================,,,,,,,,,,,,,,;;;;;;;==========================================;;;;;;;;;;;;;;;;;;;;;;;;;;;;;;;;;;;..............                                                 .......@@@@@@@++++++++++++++++++++++++++++.......*********************>>>>>>>--------------&&&&&&&&&&&&&&&&&&&&&.......@@@@@@@@@@@@@@@@@@@@@.......;;;;;;;=====================.......;;;;;;;;;;;;;;============================.......;;;;;;;;;;;;;;============================..............                                   ",
"                                                                                                                                                          ..............;;;;;;;;;;;;;;;;;;;;;=============================================================================,,,,,,,,,,,,,,;;;;;;;==========================================;;;;;;;;;;;;;;;;;;;;;;;;;;;;;;;;;;;..............                                                 .......@@@@@@@++++++++++++++++++++++++++++.......*********************>>>>>>>--------------&&&&&&&&&&&&&&&&&&&&&.......@@@@@@@@@@@@@@@@@@@@@.......;;;;;;;=====================.......;;;;;;;;;;;;;;============================.......;;;;;;;;;;;;;;============================..............                                   ",
"                                                                                                                                                          ..............;;;;;;;;;;;;;;;;;;;;;=============================================================================,,,,,,,,,,,,,,;;;;;;;==========================================;;;;;;;;;;;;;;;;;;;;;;;;;;;;;;;;;;;..............                                                 .......@@@@@@@++++++++++++++++++++++++++++.......*********************>>>>>>>--------------&&&&&&&&&&&&&&&&&&&&&.......@@@@@@@@@@@@@@@@@@@@@.......;;;;;;;=====================.......;;;;;;;;;;;;;;============================.......;;;;;;;;;;;;;;============================..............                                   ",
"                                                                                                                                                          ..............;;;;;;;;;;;;;;;;;;;;;=============================================================================,,,,,,,,,,,,,,;;;;;;;==========================================;;;;;;;;;;;;;;;;;;;;;;;;;;;;;;;;;;;..............                                                 .......@@@@@@@++++++++++++++++++++++++++++.......*********************>>>>>>>--------------&&&&&&&&&&&&&&&&&&&&&.......@@@@@@@@@@@@@@@@@@@@@.......;;;;;;;=====================.......;;;;;;;;;;;;;;============================.......;;;;;;;;;;;;;;============================..............                                   ",
"                                                                                                                                                          ..............;;;;;;;;;;;;;;;;;;;;;=============================================================================,,,,,,,,,,,,,,;;;;;;;==========================================;;;;;;;;;;;;;;;;;;;;;;;;;;;;;;;;;;;..............                                                 .......@@@@@@@++++++++++++++++++++++++++++.......*********************>>>>>>>--------------&&&&&&&&&&&&&&&&&&&&&.......@@@@@@@@@@@@@@@@@@@@@.......;;;;;;;=====================.......;;;;;;;;;;;;;;============================.......;;;;;;;;;;;;;;============================..............                                   ",
"                                                                                                                                                   ..............;;;;;;;;;;;;;;;;;;;;;=============================================================================,,,,,,,,,,,,,,;;;;;;;=================================================;;;;;;;;;;;;;;;;;;;;;;;;;;;;.......                                                                      .......@@@@@@@+++++++++++++++++++++.......****************************>>>>>>>---------------------&&&&&&&>>>>>>>.......@@@@@@@.......;;;;;;;============================;;;;;;;;;;;;;;===================================.......;;;;;;;============================..............;;;;;;;.......                            ",
"                                                                                                                                                   ..............;;;;;;;;;;;;;;;;;;;;;=============================================================================,,,,,,,,,,,,,,;;;;;;;=================================================;;;;;;;;;;;;;;;;;;;;;;;;;;;;.......                                                                      .......@@@@@@@+++++++++++++++++++++.......****************************>>>>>>>---------------------&&&&&&&>>>>>>>.......@@@@@@@.......;;;;;;;============================;;;;;;;;;;;;;;===================================.......;;;;;;;============================..............;;;;;;;.......                            ",
"                                                                                                                                                   ..............;;;;;;;;;;;;;;;;;;;;;=============================================================================,,,,,,,,,,,,,,;;;;;;;=================================================;;;;;;;;;;;;;;;;;;;;;;;;;;;;.......                                                                      .......@@@@@@@+++++++++++++++++++++.......****************************>>>>>>>---------------------&&&&&&&>>>>>>>.......@@@@@@@.......;;;;;;;============================;;;;;;;;;;;;;;===================================.......;;;;;;;============================..............;;;;;;;.......                            ",
"                                                                                                                                                   ..............;;;;;;;;;;;;;;;;;;;;;=============================================================================,,,,,,,,,,,,,,;;;;;;;=================================================;;;;;;;;;;;;;;;;;;;;;;;;;;;;.......                                                                      .......@@@@@@@+++++++++++++++++++++.......****************************>>>>>>>---------------------&&&&&&&>>>>>>>.......@@@@@@@.......;;;;;;;============================;;;;;;;;;;;;;;===================================.......;;;;;;;============================..............;;;;;;;.......                            ",
"                                                                                                                                                   ..............;;;;;;;;;;;;;;;;;;;;;=============================================================================,,,,,,,,,,,,,,;;;;;;;=================================================;;;;;;;;;;;;;;;;;;;;;;;;;;;;.......                                                                      .......@@@@@@@+++++++++++++++++++++.......****************************>>>>>>>---------------------&&&&&&&>>>>>>>.......@@@@@@@.......;;;;;;;============================;;;;;;;;;;;;;;===================================.......;;;;;;;============================..............;;;;;;;.......                            ",
"                                                                                                                                                   ..............;;;;;;;;;;;;;;;;;;;;;=============================================================================,,,,,,,,,,,,,,;;;;;;;=================================================;;;;;;;;;;;;;;;;;;;;;;;;;;;;.......                                                                      .......@@@@@@@+++++++++++++++++++++.......****************************>>>>>>>---------------------&&&&&&&>>>>>>>.......@@@@@@@.......;;;;;;;============================;;;;;;;;;;;;;;===================================.......;;;;;;;============================..............;;;;;;;.......                            ",
"                                                                                                                                                   ..............;;;;;;;;;;;;;;;;;;;;;=============================================================================,,,,,,,,,,,,,,;;;;;;;=================================================;;;;;;;;;;;;;;;;;;;;;;;;;;;;.......                                                                      .......@@@@@@@+++++++++++++++++++++.......****************************>>>>>>>---------------------&&&&&&&>>>>>>>.......@@@@@@@.......;;;;;;;============================;;;;;;;;;;;;;;===================================.......;;;;;;;============================..............;;;;;;;.......                            ",
"                                                                                                                                            ..............;;;;;;;;;;;;;;;;;;;;;====================================================================================,,,,,,,;;;;;;;=================================================;;;;;;;;;;;;;;;;;;;;;;;;;;;;.......                                                                      .......;;;;;;;.......@@@@@@@++++++++++++++$$$$$$$.......****************************>>>>>>>--------------&&&&&&&>>>>>>>'''''''.......;;;;;;;=============================================================================.......;;;;;;;===================================.......;;;;;;;;;;;;;;.......                            ",
"                                                                                                                                            ..............;;;;;;;;;;;;;;;;;;;;;====================================================================================,,,,,,,;;;;;;;=================================================;;;;;;;;;;;;;;;;;;;;;;;;;;;;.......                                                                      .......;;;;;;;.......@@@@@@@++++++++++++++$$$$$$$.......****************************>>>>>>>--------------&&&&&&&>>>>>>>'''''''.......;;;;;;;=============================================================================.......;;;;;;;===================================.......;;;;;;;;;;;;;;.......                            ",
"                                                                                                                                            ..............;;;;;;;;;;;;;;;;;;;;;====================================================================================,,,,,,,;;;;;;;=================================================;;;;;;;;;;;;;;;;;;;;;;;;;;;;.......                                                                      .......;;;;;;;.......@@@@@@@++++++++++++++$$$$$$$.......****************************>>>>>>>--------------&&&&&&&>>>>>>>'''''''.......;;;;;;;=============================================================================.......;;;;;;;===================================.......;;;;;;;;;;;;;;.......                            ",
"                                                                                                                                            ..............;;;;;;;;;;;;;;;;;;;;;====================================================================================,,,,,,,;;;;;;;=================================================;;;;;;;;;;;;;;;;;;;;;;;;;;;;.......                                                                      .......;;;;;;;.......@@@@@@@++++++++++++++$$$$$$$.......****************************>>>>>>>--------------&&&&&&&>>>>>>>'''''''.......;;;;;;;=============================================================================.......;;;;;;;===================================.......;;;;;;;;;;;;;;.......                            ",
"                                                                                                                                            ..............;;;;;;;;;;;;;;;;;;;;;====================================================================================,,,,,,,;;;;;;;=================================================;;;;;;;;;;;;;;;;;;;;;;;;;;;;.......                                                                      .......;;;;;;;.......@@@@@@@++++++++++++++$$$$$$$.......****************************>>>>>>>--------------&&&&&&&>>>>>>>'''''''.......;;;;;;;=============================================================================.......;;;;;;;===================================.......;;;;;;;;;;;;;;.......                            ",
"                                                                                                                                            ..............;;;;;;;;;;;;;;;;;;;;;====================================================================================,,,,,,,;;;;;;;=================================================;;;;;;;;;;;;;;;;;;;;;;;;;;;;.......                                                                      .......;;;;;;;.......@@@@@@@++++++++++++++$$$$$$$.......****************************>>>>>>>--------------&&&&&&&>>>>>>>'''''''.......;;;;;;;=============================================================================.......;;;;;;;===================================.......;;;;;;;;;;;;;;.......                            ",
"                                                                                                                                            ..............;;;;;;;;;;;;;;;;;;;;;====================================================================================,,,,,,,;;;;;;;=================================================;;;;;;;;;;;;;;;;;;;;;;;;;;;;.......                                                                      .......;;;;;;;.......@@@@@@@++++++++++++++$$$$$$$.......****************************>>>>>>>--------------&&&&&&&>>>>>>>'''''''.......;;;;;;;=============================================================================.......;;;;;;;===================================.......;;;;;;;;;;;;;;.......                            ",
"                                                                                                                                     ..............;;;;;;;;;;;;;;;;;;;;;====================================================================================,,,,,,,,,,,,,,;;;;;;;=================================================;;;;;;;;;;;;;;;;;;;;;.......                                                                             .......;;;;;;;;;;;;;;.......@@@@@@@+++++++%%%%%%%.......*********************)))))))*******>>>>>>>--------------..............;;;;;;;===================================,,,,,,,;;;;;;;============================.......;;;;;;;===================================..............;;;;;;;==============.......                     ",
"                                                                                                                                     ..............;;;;;;;;;;;;;;;;;;;;;====================================================================================,,,,,,,,,,,,,,;;;;;;;=================================================;;;;;;;;;;;;;;;;;;;;;.......                                                                             .......;;;;;;;;;;;;;;.......@@@@@@@+++++++%%%%%%%.......*********************)))))))*******>>>>>>>--------------..............;;;;;;;===================================,,,,,,,;;;;;;;============================.......;;;;;;;===================================..............;;;;;;;==============.......                     ",
"                                                                                                                                     ..............;;;;;;;;;;;;;;;;;;;;;====================================================================================,,,,,,,,,,,,,,;;;;;;;=================================================;;;;;;;;;;;;;;;;;;;;;.......                                                                             .......;;;;;;;;;;;;;;.......@@@@@@@+++++++%%%%%%%.......*********************)))))))*******>>>>>>>--------------..............;;;;;;;===================================,,,,,,,;;;;;;;============================.......;;;;;;;===================================..............;;;;;;;==============.......                     ",
"                                                                                                                                     ..............;;;;;;;;;;;;;;;;;;;;;====================================================================================,,,,,,,,,,,,,,;;;;;;;=================================================;;;;;;;;;;;;;;;;;;;;;.......                                                                             .......;;;;;;;;;;;;;;.......@@@@@@@+++++++%%%%%%%.......*********************)))))))*******>>>>>>>--------------..............;;;;;;;===================================,,,,,,,;;;;;;;============================.......;;;;;;;===================================..............;;;;;;;==============.......                     ",
"                                                                                                                                     ..............;;;;;;;;;;;;;;;;;;;;;====================================================================================,,,,,,,,,,,,,,;;;;;;;=================================================;;;;;;;;;;;;;;;;;;;;;.......                                                                             .......;;;;;;;;;;;;;;.......@@@@@@@+++++++%%%%%%%.......*********************)))))))*******>>>>>>>--------------..............;;;;;;;===================================,,,,,,,;;;;;;;============================.......;;;;;;;===================================..............;;;;;;;==============.......                     ",
"                                                                                                                                     ..............;;;;;;;;;;;;;;;;;;;;;====================================================================================,,,,,,,,,,,,,,;;;;;;;=================================================;;;;;;;;;;;;;;;;;;;;;.......                                                                             .......;;;;;;;;;;;;;;.......@@@@@@@+++++++%%%%%%%.......*********************)))))))*******>>>>>>>--------------..............;;;;;;;===================================,,,,,,,;;;;;;;============================.......;;;;;;;===================================..............;;;;;;;==============.......                     ",
"                                                                                                                                     ..............;;;;;;;;;;;;;;;;;;;;;====================================================================================,,,,,,,,,,,,,,;;;;;;;=================================================;;;;;;;;;;;;;;;;;;;;;.......                                                                             .......;;;;;;;;;;;;;;.......@@@@@@@+++++++%%%%%%%.......*********************)))))))*******>>>>>>>--------------..............;;;;;;;===================================,,,,,,,;;;;;;;============================.......;;;;;;;===================================..............;;;;;;;==============.......                     ",
"                                                                                                                              ..............;;;;;;;;;;;;;;;;;;;;;===========================================================================================,,,,,,,;;;;;;;=================================================;;;;;;;;;;;;;;;;;;;;;;;;;;;;.......                                                                      .......;;;;;;;;;;;;;;;;;;;;;;;;;;;;.......@@@@@@@+++++++$$$$$$$.......*********************))))))).....................;;;;;;;;;;;;;;==========================================,,,,,,,;;;;;;;============================;;;;;;;;;;;;;;============================.......;;;;;;;;;;;;;;;;;;;;;==============.......                     ",
"                                                                                                                              ..............;;;;;;;;;;;;;;;;;;;;;===========================================================================================,,,,,,,;;;;;;;=================================================;;;;;;;;;;;;;;;;;;;;;;;;;;;;.......                                                                      .......;;;;;;;;;;;;;;;;;;;;;;;;;;;;.......@@@@@@@+++++++$$$$$$$.......*********************))))))).....................;;;;;;;;;;;;;;==========================================,,,,,,,;;;;;;;============================;;;;;;;;;;;;;;============================.......;;;;;;;;;;;;;;;;;;;;;==============.......                     ",
"                                                                                                                              ..............;;;;;;;;;;;;;;;;;;;;;===========================================================================================,,,,,,,;;;;;;;=================================================;;;;;;;;;;;;;;;;;;;;;;;;;;;;.......                                                                      .......;;;;;;;;;;;;;;;;;;;;;;;;;;;;.......@@@@@@@+++++++$$$$$$$.......*********************))))))).....................;;;;;;;;;;;;;;==========================================,,,,,,,;;;;;;;============================;;;;;;;;;;;;;;============================.......;;;;;;;;;;;;;;;;;;;;;==============.......                     ",
"                                                                                                                              ..............;;;;;;;;;;;;;;;;;;;;;===========================================================================================,,,,,,,;;;;;;;=================================================;;;;;;;;;;;;;;;;;;;;;;;;;;;;.......                                                                      .......;;;;;;;;;;;;;;;;;;;;;;;;;;;;.......@@@@@@@+++++++$$$$$$$.......*********************))))))).....................;;;;;;;;;;;;;;==========================================,,,,,,,;;;;;;;============================;;;;;;;;;;;;;;============================.......;;;;;;;;;;;;;;;;;;;;;==============.......                     ",
"                                                                                                                              ..............;;;;;;;;;;;;;;;;;;;;;===========================================================================================,,,,,,,;;;;;;;=================================================;;;;;;;;;;;;;;;;;;;;;;;;;;;;.......                                                                      .......;;;;;;;;;;;;;;;;;;;;;;;;;;;;.......@@@@@@@+++++++$$$$$$$.......*********************))))))).....................;;;;;;;;;;;;;;==========================================,,,,,,,;;;;;;;============================;;;;;;;;;;;;;;============================.......;;;;;;;;;;;;;;;;;;;;;==============.......                     ",
"                                                                                                                              ..............;;;;;;;;;;;;;;;;;;;;;===========================================================================================,,,,,,,;;;;;;;=================================================;;;;;;;;;;;;;;;;;;;;;;;;;;;;.......                                                                      .......;;;;;;;;;;;;;;;;;;;;;;;;;;;;.......@@@@@@@+++++++$$$$$$$.......*********************))))))).....................;;;;;;;;;;;;;;==========================================,,,,,,,;;;;;;;============================;;;;;;;;;;;;;;============================.......;;;;;;;;;;;;;;;;;;;;;==============.......                     ",
"                                                                                                                              ..............;;;;;;;;;;;;;;;;;;;;;===========================================================================================,,,,,,,;;;;;;;=================================================;;;;;;;;;;;;;;;;;;;;;;;;;;;;.......                                                                      .......;;;;;;;;;;;;;;;;;;;;;;;;;;;;.......@@@@@@@+++++++$$$$$$$.......*********************))))))).....................;;;;;;;;;;;;;;==========================================,,,,,,,;;;;;;;============================;;;;;;;;;;;;;;============================.......;;;;;;;;;;;;;;;;;;;;;==============.......                     ",
"                                                                                                                       ..............;;;;;;;;;;;;;;=========================================================================================================;;;;;;;========================================================;;;;;;;;;;;;;;;;;;;;;.......                                                                             .......;;;;;;;;;;;;;;;;;;;;;;;;;;;;;;;;;;;.......@@@@@@@++++++++++++++............................;;;;;;;;;;;;;;;;;;;;;;;;;;;;==========================================,,,,,,,;;;;;;;=============================================================================.......;;;;;;;=====================.......                            ",
"                                                                                                                       ..............;;;;;;;;;;;;;;=========================================================================================================;;;;;;;========================================================;;;;;;;;;;;;;;;;;;;;;.......                                                                             .......;;;;;;;;;;;;;;;;;;;;;;;;;;;;;;;;;;;.......@@@@@@@++++++++++++++............................;;;;;;;;;;;;;;;;;;;;;;;;;;;;==========================================,,,,,,,;;;;;;;=============================================================================.......;;;;;;;=====================.......                            ",
"                                                                                                                       ..............;;;;;;;;;;;;;;=========================================================================================================;;;;;;;========================================================;;;;;;;;;;;;;;;;;;;;;.......                                                                             .......;;;;;;;;;;;;;;;;;;;;;;;;;;;;;;;;;;;.......@@@@@@@++++++++++++++............................;;;;;;;;;;;;;;;;;;;;;;;;;;;;==========================================,,,,,,,;;;;;;;=============================================================================.......;;;;;;;=====================.......                            ",
"                                                                                                                       ..............;;;;;;;;;;;;;;=========================================================================================================;;;;;;;========================================================;;;;;;;;;;;;;;;;;;;;;.......                                                                             .......;;;;;;;;;;;;;;;;;;;;;;;;;;;;;;;;;;;.......@@@@@@@++++++++++++++............................;;;;;;;;;;;;;;;;;;;;;;;;;;;;==========================================,,,,,,,;;;;;;;=============================================================================.......;;;;;;;=====================.......                            ",
"                                                                                                                       ..............;;;;;;;;;;;;;;=========================================================================================================;;;;;;;========================================================;;;;;;;;;;;;;;;;;;;;;.......                                                                             .......;;;;;;;;;;;;;;;;;;;;;;;;;;;;;;;;;;;.......@@@@@@@++++++++++++++............................;;;;;;;;;;;;;;;;;;;;;;;;;;;;==========================================,,,,,,,;;;;;;;=============================================================================.......;;;;;;;=====================.......                            ",
"                                                                                                                       ..............;;;;;;;;;;;;;;=========================================================================================================;;;;;;;========================================================;;;;;;;;;;;;;;;;;;;;;.......                                                                             .......;;;;;;;;;;;;;;;;;;;;;;;;;;;;;;;;;;;.......@@@@@@@++++++++++++++............................;;;;;;;;;;;;;;;;;;;;;;;;;;;;==========================================,,,,,,,;;;;;;;=============================================================================.......;;;;;;;=====================.......                            ",
"                                                                                                                       ..............;;;;;;;;;;;;;;=========================================================================================================;;;;;;;========================================================;;;;;;;;;;;;;;;;;;;;;.......                                                                             .......;;;;;;;;;;;;;;;;;;;;;;;;;;;;;;;;;;;.......@@@@@@@++++++++++++++............................;;;;;;;;;;;;;;;;;;;;;;;;;;;;==========================================,,,,,,,;;;;;;;=============================================================================.......;;;;;;;=====================.......                            ",
"                                                                                                         .....................;;;;;;;;;;;;;;========================================================================================================================================================================;;;;;;;;;;;;;;;;;;;;;..............                                                                      .......;;;;;;;;;;;;;;;;;;;;;;;;;;;;==============;;;;;;;.....................;;;;;;;;;;;;;;;;;;;;;;;;;;;;;;;;;;;;;;;;;;;;;;;;;=================================================;;;;;;;============================,,,,,,,==========================================.......;;;;;;;=====================.......                                   ",
"                                                                                                         .....................;;;;;;;;;;;;;;========================================================================================================================================================================;;;;;;;;;;;;;;;;;;;;;..............                                                                      .......;;;;;;;;;;;;;;;;;;;;;;;;;;;;==============;;;;;;;.....................;;;;;;;;;;;;;;;;;;;;;;;;;;;;;;;;;;;;;;;;;;;;;;;;;=================================================;;;;;;;============================,,,,,,,==========================================.......;;;;;;;=====================.......                                   ",
"                                                                                                         .....................;;;;;;;;;;;;;;========================================================================================================================================================================;;;;;;;;;;;;;;;;;;;;;..............                                                                      .......;;;;;;;;;;;;;;;;;;;;;;;;;;;;==============;;;;;;;.....................;;;;;;;;;;;;;;;;;;;;;;;;;;;;;;;;;;;;;;;;;;;;;;;;;=================================================;;;;;;;============================,,,,,,,==========================================.......;;;;;;;=====================.......                                   ",
"                                                                                                         .....................;;;;;;;;;;;;;;========================================================================================================================================================================;;;;;;;;;;;;;;;;;;;;;..............                                                                      .......;;;;;;;;;;;;;;;;;;;;;;;;;;;;==============;;;;;;;.....................;;;;;;;;;;;;;;;;;;;;;;;;;;;;;;;;;;;;;;;;;;;;;;;;;=================================================;;;;;;;============================,,,,,,,==========================================.......;;;;;;;=====================.......                                   ",
"                                                                                                         .....................;;;;;;;;;;;;;;========================================================================================================================================================================;;;;;;;;;;;;;;;;;;;;;..............                                                                      .......;;;;;;;;;;;;;;;;;;;;;;;;;;;;==============;;;;;;;.....................;;;;;;;;;;;;;;;;;;;;;;;;;;;;;;;;;;;;;;;;;;;;;;;;;=================================================;;;;;;;============================,,,,,,,==========================================.......;;;;;;;=====================.......                                   ",
"                                                                                                         .....................;;;;;;;;;;;;;;========================================================================================================================================================================;;;;;;;;;;;;;;;;;;;;;..............                                                                      .......;;;;;;;;;;;;;;;;;;;;;;;;;;;;==============;;;;;;;.....................;;;;;;;;;;;;;;;;;;;;;;;;;;;;;;;;;;;;;;;;;;;;;;;;;=================================================;;;;;;;============================,,,,,,,==========================================.......;;;;;;;=====================.......                                   ",
"                                                                                                         .....................;;;;;;;;;;;;;;========================================================================================================================================================================;;;;;;;;;;;;;;;;;;;;;..............                                                                      .......;;;;;;;;;;;;;;;;;;;;;;;;;;;;==============;;;;;;;.....................;;;;;;;;;;;;;;;;;;;;;;;;;;;;;;;;;;;;;;;;;;;;;;;;;=================================================;;;;;;;============================,,,,,,,==========================================.......;;;;;;;=====================.......                                   ",
"                                                                                                  ..............;;;;;;;;;;;;;;;;;;;;;===============================================================================================================================================================================;;;;;;;;;;;;;;;;;;;;;.......                                                                             .......;;;;;;;;;;;;;;;;;;;;;=====================;;;;;;;,,,,,,,.......;;;;;;;;;;;;;;;;;;;;;;;;;;;;;;;;;;;;;;;;;;;;;;;;;;;;;;;;====================================================================================,,,,,,,;;;;;;;============================.......;;;;;;;;;;;;;;==============.......                                          ",
"                                                                                                  ..............;;;;;;;;;;;;;;;;;;;;;===============================================================================================================================================================================;;;;;;;;;;;;;;;;;;;;;.......                                                                             .......;;;;;;;;;;;;;;;;;;;;;=====================;;;;;;;,,,,,,,.......;;;;;;;;;;;;;;;;;;;;;;;;;;;;;;;;;;;;;;;;;;;;;;;;;;;;;;;;====================================================================================,,,,,,,;;;;;;;============================.......;;;;;;;;;;;;;;==============.......                                          ",
"                                                                                                  ..............;;;;;;;;;;;;;;;;;;;;;===============================================================================================================================================================================;;;;;;;;;;;;;;;;;;;;;.......                                                                             .......;;;;;;;;;;;;;;;;;;;;;=====================;;;;;;;,,,,,,,.......;;;;;;;;;;;;;;;;;;;;;;;;;;;;;;;;;;;;;;;;;;;;;;;;;;;;;;;;====================================================================================,,,,,,,;;;;;;;============================.......;;;;;;;;;;;;;;==============.......                                          ",
"                                                                                                  ..............;;;;;;;;;;;;;;;;;;;;;===============================================================================================================================================================================;;;;;;;;;;;;;;;;;;;;;.......                                                                             .......;;;;;;;;;;;;;;;;;;;;;=====================;;;;;;;,,,,,,,.......;;;;;;;;;;;;;;;;;;;;;;;;;;;;;;;;;;;;;;;;;;;;;;;;;;;;;;;;====================================================================================,,,,,,,;;;;;;;============================.......;;;;;;;;;;;;;;==============.......                                          ",
"                                                                                                  ..............;;;;;;;;;;;;;;;;;;;;;===============================================================================================================================================================================;;;;;;;;;;;;;;;;;;;;;.......                                                                             .......;;;;;;;;;;;;;;;;;;;;;=====================;;;;;;;,,,,,,,.......;;;;;;;;;;;;;;;;;;;;;;;;;;;;;;;;;;;;;;;;;;;;;;;;;;;;;;;;====================================================================================,,,,,,,;;;;;;;============================.......;;;;;;;;;;;;;;==============.......                                          ",
"                                                                                                  ..............;;;;;;;;;;;;;;;;;;;;;===============================================================================================================================================================================;;;;;;;;;;;;;;;;;;;;;.......                                                                             .......;;;;;;;;;;;;;;;;;;;;;=====================;;;;;;;,,,,,,,.......;;;;;;;;;;;;;;;;;;;;;;;;;;;;;;;;;;;;;;;;;;;;;;;;;;;;;;;;====================================================================================,,,,,,,;;;;;;;============================.......;;;;;;;;;;;;;;==============.......                                          ",
"                                                                                                  ..............;;;;;;;;;;;;;;;;;;;;;===============================================================================================================================================================================;;;;;;;;;;;;;;;;;;;;;.......                                                                             .......;;;;;;;;;;;;;;;;;;;;;=====================;;;;;;;,,,,,,,.......;;;;;;;;;;;;;;;;;;;;;;;;;;;;;;;;;;;;;;;;;;;;;;;;;;;;;;;;====================================================================================,,,,,,,;;;;;;;============================.......;;;;;;;;;;;;;;==============.......                                          ",
"                                                                                           ..............;;;;;;;;;;;;;;=============================================================================================================================================================================================;;;;;;;;;;;;;;.......                                                                                           .......;;;;;;;;;;;;;;============================;;;;;;;,,,,,,,.......;;;;;;;;;;;;;;;;;;;;;;;;;;;;;;;;;;;;;;;;;;====================================================================================,,,,,,,;;;;;;;===============================================================.......                                                 ",
"                                                                                           ..............;;;;;;;;;;;;;;=============================================================================================================================================================================================;;;;;;;;;;;;;;.......                                                                                           .......;;;;;;;;;;;;;;============================;;;;;;;,,,,,,,.......;;;;;;;;;;;;;;;;;;;;;;;;;;;;;;;;;;;;;;;;;;====================================================================================,,,,,,,;;;;;;;===============================================================.......                                                 ",
"                                                                                           ..............;;;;;;;;;;;;;;=============================================================================================================================================================================================;;;;;;;;;;;;;;.......                                                                                           .......;;;;;;;;;;;;;;============================;;;;;;;,,,,,,,.......;;;;;;;;;;;;;;;;;;;;;;;;;;;;;;;;;;;;;;;;;;====================================================================================,,,,,,,;;;;;;;===============================================================.......                                                 ",
"                                                                                           ..............;;;;;;;;;;;;;;=============================================================================================================================================================================================;;;;;;;;;;;;;;.......                                                                                           .......;;;;;;;;;;;;;;============================;;;;;;;,,,,,,,.......;;;;;;;;;;;;;;;;;;;;;;;;;;;;;;;;;;;;;;;;;;====================================================================================,,,,,,,;;;;;;;===============================================================.......                                                 ",
"                                                                                           ..............;;;;;;;;;;;;;;=============================================================================================================================================================================================;;;;;;;;;;;;;;.......                                                                                           .......;;;;;;;;;;;;;;============================;;;;;;;,,,,,,,.......;;;;;;;;;;;;;;;;;;;;;;;;;;;;;;;;;;;;;;;;;;====================================================================================,,,,,,,;;;;;;;===============================================================.......                                                 ",
"                                                                                           ..............;;;;;;;;;;;;;;=============================================================================================================================================================================================;;;;;;;;;;;;;;.......                                                                                           .......;;;;;;;;;;;;;;============================;;;;;;;,,,,,,,.......;;;;;;;;;;;;;;;;;;;;;;;;;;;;;;;;;;;;;;;;;;====================================================================================,,,,,,,;;;;;;;===============================================================.......                                                 ",
"                                                                                           ..............;;;;;;;;;;;;;;=============================================================================================================================================================================================;;;;;;;;;;;;;;.......                                                                                           .......;;;;;;;;;;;;;;============================;;;;;;;,,,,,,,.......;;;;;;;;;;;;;;;;;;;;;;;;;;;;;;;;;;;;;;;;;;====================================================================================,,,,,,,;;;;;;;===============================================================.......                                                 ",
"                                                                                    ..............;;;;;;;;;;;;;;=============================================================================================================================================================================================;;;;;;;;;;;;;;.......                                                                                                         .......;;;;;;;;;;;;;;============================;;;;;;;,,,,,,,;;;;;;;;;;;;;;;;;;;;;;;;;;;;;;;;;;;;;;;;;;==============================================================================================================================,,,,,,,=====================.......                                                        ",
"                                                                                    ..............;;;;;;;;;;;;;;=============================================================================================================================================================================================;;;;;;;;;;;;;;.......                                                                                                         .......;;;;;;;;;;;;;;============================;;;;;;;,,,,,,,;;;;;;;;;;;;;;;;;;;;;;;;;;;;;;;;;;;;;;;;;;==============================================================================================================================,,,,,,,=====================.......                                                        ",
"                                                                                    ..............;;;;;;;;;;;;;;=============================================================================================================================================================================================;;;;;;;;;;;;;;.......                                                                                                         .......;;;;;;;;;;;;;;============================;;;;;;;,,,,,,,;;;;;;;;;;;;;;;;;;;;;;;;;;;;;;;;;;;;;;;;;;==============================================================================================================================,,,,,,,=====================.......                                                        ",
"                                                                                    ..............;;;;;;;;;;;;;;=============================================================================================================================================================================================;;;;;;;;;;;;;;.......                                                                                                         .......;;;;;;;;;;;;;;============================;;;;;;;,,,,,,,;;;;;;;;;;;;;;;;;;;;;;;;;;;;;;;;;;;;;;;;;;==============================================================================================================================,,,,,,,=====================.......                                                        ",
"                                                                                    ..............;;;;;;;;;;;;;;=============================================================================================================================================================================================;;;;;;;;;;;;;;.......                                                                                                         .......;;;;;;;;;;;;;;============================;;;;;;;,,,,,,,;;;;;;;;;;;;;;;;;;;;;;;;;;;;;;;;;;;;;;;;;;==============================================================================================================================,,,,,,,=====================.......                                                        ",
"                                                                                    ..............;;;;;;;;;;;;;;=============================================================================================================================================================================================;;;;;;;;;;;;;;.......                                                                                                         .......;;;;;;;;;;;;;;============================;;;;;;;,,,,,,,;;;;;;;;;;;;;;;;;;;;;;;;;;;;;;;;;;;;;;;;;;==============================================================================================================================,,,,,,,=====================.......                                                        ",
"                                                                                    ..............;;;;;;;;;;;;;;=============================================================================================================================================================================================;;;;;;;;;;;;;;.......                                                                                                         .......;;;;;;;;;;;;;;============================;;;;;;;,,,,,,,;;;;;;;;;;;;;;;;;;;;;;;;;;;;;;;;;;;;;;;;;;==============================================================================================================================,,,,,,,=====================.......                                                        ",
"                                                                             ..............;;;;;;;;;;;;;;=============================================================================================================================================================================================;;;;;;;;;;;;;;..............                                                                                                                .......;;;;;;;;;;;;;;============================;;;;;;;,,,,,,,,,,,,,,;;;;;;;;;;;;;;;;;;;;;==============================================================================================================================,,,,,,,;;;;;;;==============.......                                                               ",
"                                                                             ..............;;;;;;;;;;;;;;=============================================================================================================================================================================================;;;;;;;;;;;;;;..............                                                                                                                .......;;;;;;;;;;;;;;============================;;;;;;;,,,,,,,,,,,,,,;;;;;;;;;;;;;;;;;;;;;==============================================================================================================================,,,,,,,;;;;;;;==============.......                                                               ",
"                                                                             ..............;;;;;;;;;;;;;;=============================================================================================================================================================================================;;;;;;;;;;;;;;..............                                                                                                                .......;;;;;;;;;;;;;;============================;;;;;;;,,,,,,,,,,,,,,;;;;;;;;;;;;;;;;;;;;;==============================================================================================================================,,,,,,,;;;;;;;==============.......                                                               ",
"                                                                             ..............;;;;;;;;;;;;;;=============================================================================================================================================================================================;;;;;;;;;;;;;;..............                                                                                                                .......;;;;;;;;;;;;;;============================;;;;;;;,,,,,,,,,,,,,,;;;;;;;;;;;;;;;;;;;;;==============================================================================================================================,,,,,,,;;;;;;;==============.......                                                               ",
"                                                                             ..............;;;;;;;;;;;;;;=============================================================================================================================================================================================;;;;;;;;;;;;;;..............                                                                                                                .......;;;;;;;;;;;;;;============================;;;;;;;,,,,,,,,,,,,,,;;;;;;;;;;;;;;;;;;;;;==============================================================================================================================,,,,,,,;;;;;;;==============.......                                                               ",
"                                                                             ..............;;;;;;;;;;;;;;=============================================================================================================================================================================================;;;;;;;;;;;;;;..............                                                                                                                .......;;;;;;;;;;;;;;============================;;;;;;;,,,,,,,,,,,,,,;;;;;;;;;;;;;;;;;;;;;==============================================================================================================================,,,,,,,;;;;;;;==============.......                                                               ",
"                                                                             ..............;;;;;;;;;;;;;;=============================================================================================================================================================================================;;;;;;;;;;;;;;..............                                                                                                                .......;;;;;;;;;;;;;;============================;;;;;;;,,,,,,,,,,,,,,;;;;;;;;;;;;;;;;;;;;;==============================================================================================================================,,,,,,,;;;;;;;==============.......                                                               ",
"                                                                      ..............;;;;;;;;;;;;;;=============================================================================================================================================================================================;;;;;;;;;;;;;;;;;;;;;.......                                                                                                                              .......;;;;;;;;;;;;;;============================;;;;;;;;;;;;;;,,,,,,,,,,,,,,;;;;;;;==========================================================================================================================================================.......                                                               ",
"                                                                      ..............;;;;;;;;;;;;;;=============================================================================================================================================================================================;;;;;;;;;;;;;;;;;;;;;.......                                                                                                                              .......;;;;;;;;;;;;;;============================;;;;;;;;;;;;;;,,,,,,,,,,,,,,;;;;;;;==========================================================================================================================================================.......                                                               ",
"                                                                      ..............;;;;;;;;;;;;;;=============================================================================================================================================================================================;;;;;;;;;;;;;;;;;;;;;.......                                                                                                                              .......;;;;;;;;;;;;;;============================;;;;;;;;;;;;;;,,,,,,,,,,,,,,;;;;;;;==========================================================================================================================================================.......                                                               ",
"                                                                      ..............;;;;;;;;;;;;;;=============================================================================================================================================================================================;;;;;;;;;;;;;;;;;;;;;.......                                                                                                                              .......;;;;;;;;;;;;;;============================;;;;;;;;;;;;;;,,,,,,,,,,,,,,;;;;;;;==========================================================================================================================================================.......                                                               ",
"                                                                      ..............;;;;;;;;;;;;;;=============================================================================================================================================================================================;;;;;;;;;;;;;;;;;;;;;.......                                                                                                                              .......;;;;;;;;;;;;;;============================;;;;;;;;;;;;;;,,,,,,,,,,,,,,;;;;;;;==========================================================================================================================================================.......                                                               ",
"                                                                      ..............;;;;;;;;;;;;;;=============================================================================================================================================================================================;;;;;;;;;;;;;;;;;;;;;.......                                                                                                                              .......;;;;;;;;;;;;;;============================;;;;;;;;;;;;;;,,,,,,,,,,,,,,;;;;;;;==========================================================================================================================================================.......                                                               ",
"                                                                      ..............;;;;;;;;;;;;;;=============================================================================================================================================================================================;;;;;;;;;;;;;;;;;;;;;.......                                                                                                                              .......;;;;;;;;;;;;;;============================;;;;;;;;;;;;;;,,,,,,,,,,,,,,;;;;;;;==========================================================================================================================================================.......                                                               ",
"                                                               ..............;;;;;;;===========================================================================================================================================================================================================;;;;;;;;;;;;;;..............                                                                                                                                     .......;;;;;;;;;;;;;;===================================;;;;;;;;;;;;;;=================================================================================================================================================================.......                                                               ",
"                                                               ..............;;;;;;;===========================================================================================================================================================================================================;;;;;;;;;;;;;;..............                                                                                                                                     .......;;;;;;;;;;;;;;===================================;;;;;;;;;;;;;;=================================================================================================================================================================.......                                                               ",
"                                                               ..............;;;;;;;===========================================================================================================================================================================================================;;;;;;;;;;;;;;..............                                                                                                                                     .......;;;;;;;;;;;;;;===================================;;;;;;;;;;;;;;=================================================================================================================================================================.......                                                               ",
"                                                               ..............;;;;;;;===========================================================================================================================================================================================================;;;;;;;;;;;;;;..............                                                                                                                                     .......;;;;;;;;;;;;;;===================================;;;;;;;;;;;;;;=================================================================================================================================================================.......                                                               ",
"                                                               ..............;;;;;;;===========================================================================================================================================================================================================;;;;;;;;;;;;;;..............                                                                                                                                     .......;;;;;;;;;;;;;;===================================;;;;;;;;;;;;;;=================================================================================================================================================================.......                                                               ",
"                                                               ..............;;;;;;;===========================================================================================================================================================================================================;;;;;;;;;;;;;;..............                                                                                                                                     .......;;;;;;;;;;;;;;===================================;;;;;;;;;;;;;;=================================================================================================================================================================.......                                                               ",
"                                                               ..............;;;;;;;===========================================================================================================================================================================================================;;;;;;;;;;;;;;..............                                                                                                                                     .......;;;;;;;;;;;;;;===================================;;;;;;;;;;;;;;=================================================================================================================================================================.......                                                               ",
"                                                        ..............==================================================================================================================================================================================================================;;;;;;;;;;;;;;;;;;;;;.......                                                                                                                                                   .......;;;;;;;;;;;;;;===================================;;;;;;;=================================================================================================================================================================.......                                                               ",
"                                                        ..............==================================================================================================================================================================================================================;;;;;;;;;;;;;;;;;;;;;.......                                                                                                                                                   .......;;;;;;;;;;;;;;===================================;;;;;;;=================================================================================================================================================================.......                                                               ",
"                                                        ..............==================================================================================================================================================================================================================;;;;;;;;;;;;;;;;;;;;;.......                                                                                                                                                   .......;;;;;;;;;;;;;;===================================;;;;;;;=================================================================================================================================================================.......                                                               ",
"                                                        ..............==================================================================================================================================================================================================================;;;;;;;;;;;;;;;;;;;;;.......                                                                                                                                                   .......;;;;;;;;;;;;;;===================================;;;;;;;=================================================================================================================================================================.......                                                               ",
"                                                        ..............==================================================================================================================================================================================================================;;;;;;;;;;;;;;;;;;;;;.......                                                                                                                                                   .......;;;;;;;;;;;;;;===================================;;;;;;;=================================================================================================================================================================.......                                                               ",
"                                                        ..............==================================================================================================================================================================================================================;;;;;;;;;;;;;;;;;;;;;.......                                                                                                                                                   .......;;;;;;;;;;;;;;===================================;;;;;;;=================================================================================================================================================================.......                                                               ",
"                                                        ..............==================================================================================================================================================================================================================;;;;;;;;;;;;;;;;;;;;;.......                                                                                                                                                   .......;;;;;;;;;;;;;;===================================;;;;;;;=================================================================================================================================================================.......                                                               ",
"                                          ..............================================================================================================================================================================================================================================;;;;;;;;;;;;;;;;;;;;;.......                                                                                                                                                          .......;;;;;;;;;;;;;;====================================================================================================================================================================================================;;;;;;;.......                                                        ",
"                                          ..............================================================================================================================================================================================================================================;;;;;;;;;;;;;;;;;;;;;.......                                                                                                                                                          .......;;;;;;;;;;;;;;====================================================================================================================================================================================================;;;;;;;.......                                                        ",
"                                          ..............================================================================================================================================================================================================================================;;;;;;;;;;;;;;;;;;;;;.......                                                                                                                                                          .......;;;;;;;;;;;;;;====================================================================================================================================================================================================;;;;;;;.......                                                        ",
"                                          ..............================================================================================================================================================================================================================================;;;;;;;;;;;;;;;;;;;;;.......                                                                                                                                                          .......;;;;;;;;;;;;;;====================================================================================================================================================================================================;;;;;;;.......                                                        ",
"                                          ..............================================================================================================================================================================================================================================;;;;;;;;;;;;;;;;;;;;;.......                                                                                                                                                          .......;;;;;;;;;;;;;;====================================================================================================================================================================================================;;;;;;;.......                                                        ",
"                                          ..............================================================================================================================================================================================================================================;;;;;;;;;;;;;;;;;;;;;.......                                                                                                                                                          .......;;;;;;;;;;;;;;====================================================================================================================================================================================================;;;;;;;.......                                                        ",
"                                          ..............================================================================================================================================================================================================================================;;;;;;;;;;;;;;;;;;;;;.......                                                                                                                                                          .......;;;;;;;;;;;;;;====================================================================================================================================================================================================;;;;;;;.......                                                        ",
"                                   ..............=======================================================================================================================================================================================================================================;;;;;;;;;;;;;;.......                                                                                                                                                                        .......;;;;;;;;;;;;;;=============================================================================================================================================================================================;;;;;;;.......                                                        ",
"                                   ..............=======================================================================================================================================================================================================================================;;;;;;;;;;;;;;.......                                                                                                                                                                        .......;;;;;;;;;;;;;;=============================================================================================================================================================================================;;;;;;;.......                                                        ",
"                                   ..............=======================================================================================================================================================================================================================================;;;;;;;;;;;;;;.......                                                                                                                                                                        .......;;;;;;;;;;;;;;=============================================================================================================================================================================================;;;;;;;.......                                                        ",
"                                   ..............=======================================================================================================================================================================================================================================;;;;;;;;;;;;;;.......                                                                                                                                                                        .......;;;;;;;;;;;;;;=============================================================================================================================================================================================;;;;;;;.......                                                        ",
"                                   ..............=======================================================================================================================================================================================================================================;;;;;;;;;;;;;;.......                                                                                                                                                                        .......;;;;;;;;;;;;;;=============================================================================================================================================================================================;;;;;;;.......                                                        ",
"                                   ..............=======================================================================================================================================================================================================================================;;;;;;;;;;;;;;.......                                                                                                                                                                        .......;;;;;;;;;;;;;;=============================================================================================================================================================================================;;;;;;;.......                                                        ",
"                                   ..............=======================================================================================================================================================================================================================================;;;;;;;;;;;;;;.......                                                                                                                                                                        .......;;;;;;;;;;;;;;=============================================================================================================================================================================================;;;;;;;.......                                                        ",
"                            ..............=======================================================================================================================================================================================================================================;;;;;;;;;;;;;;;;;;;;;.......                                                                                                                                                                               .......;;;;;;;;;;;;;;;;;;;;;===============================================================================================================================================================================;;;;;;;.......                                                        ",
"                            ..............=======================================================================================================================================================================================================================================;;;;;;;;;;;;;;;;;;;;;.......                                                                                                                                                                               .......;;;;;;;;;;;;;;;;;;;;;===============================================================================================================================================================================;;;;;;;.......                                                        ",
"                            ..............=======================================================================================================================================================================================================================================;;;;;;;;;;;;;;;;;;;;;.......                                                                                                                                                                               .......;;;;;;;;;;;;;;;;;;;;;===============================================================================================================================================================================;;;;;;;.......                                                        ",
"                            ..............=======================================================================================================================================================================================================================================;;;;;;;;;;;;;;;;;;;;;.......                                                                                                                                                                               .......;;;;;;;;;;;;;;;;;;;;;===============================================================================================================================================================================;;;;;;;.......                                                        ",
"                            ..............=======================================================================================================================================================================================================================================;;;;;;;;;;;;;;;;;;;;;.......                                                                                                                                                                               .......;;;;;;;;;;;;;;;;;;;;;===============================================================================================================================================================================;;;;;;;.......                                                        ",
"                            ..............=======================================================================================================================================================================================================================================;;;;;;;;;;;;;;;;;;;;;.......                                                                                                                                                                               .......;;;;;;;;;;;;;;;;;;;;;===============================================================================================================================================================================;;;;;;;.......                                                        ",
"                            ..............=======================================================================================================================================================================================================================================;;;;;;;;;;;;;;;;;;;;;.......                                                                                                                                                                               .......;;;;;;;;;;;;;;;;;;;;;===============================================================================================================================================================================;;;;;;;.......                                                        ",
"                     ..............==============================================================================================================================================================================================================================================;;;;;;;;;;;;;;.......                                                                                                                                                                                             .......;;;;;;;;;;;;;;;;;;;;;========================================================================================================================================================================;;;;;;;;;;;;;;.......                                                 ",
"                     ..............==============================================================================================================================================================================================================================================;;;;;;;;;;;;;;.......                                                                                                                                                                                             .......;;;;;;;;;;;;;;;;;;;;;========================================================================================================================================================================;;;;;;;;;;;;;;.......                                                 ",
"                     ..............==============================================================================================================================================================================================================================================;;;;;;;;;;;;;;.......                                                                                                                                                                                             .......;;;;;;;;;;;;;;;;;;;;;========================================================================================================================================================================;;;;;;;;;;;;;;.......                                                 ",
"                     ..............==============================================================================================================================================================================================================================================;;;;;;;;;;;;;;.......                                                                                                                                                                                             .......;;;;;;;;;;;;;;;;;;;;;========================================================================================================================================================================;;;;;;;;;;;;;;.......                                                 ",
"                     ..............==============================================================================================================================================================================================================================================;;;;;;;;;;;;;;.......                                                                                                                                                                                             .......;;;;;;;;;;;;;;;;;;;;;========================================================================================================================================================================;;;;;;;;;;;;;;.......                                                 ",
"                     ..............==============================================================================================================================================================================================================================================;;;;;;;;;;;;;;.......                                                                                                                                                                                             .......;;;;;;;;;;;;;;;;;;;;;========================================================================================================================================================================;;;;;;;;;;;;;;.......                                                 ",
"                     ..............==============================================================================================================================================================================================================================================;;;;;;;;;;;;;;.......                                                                                                                                                                                             .......;;;;;;;;;;;;;;;;;;;;;========================================================================================================================================================================;;;;;;;;;;;;;;.......                                                 ",
"              ..............==============================================================================================================================================================================================================================================;;;;;;;;;;;;;;.......                                                                                                                                                                                                           .......;;;;;;;;;;;;;;===============================================================================================================================================================================;;;;;;;.......                                                 ",
"              ..............==============================================================================================================================================================================================================================================;;;;;;;;;;;;;;.......                                                                                                                                                                                                           .......;;;;;;;;;;;;;;===============================================================================================================================================================================;;;;;;;.......                                                 ",
"              ..............==============================================================================================================================================================================================================================================;;;;;;;;;;;;;;.......                                                                                                                                                                                                           .......;;;;;;;;;;;;;;===============================================================================================================================================================================;;;;;;;.......                                                 ",
"              ..............==============================================================================================================================================================================================================================================;;;;;;;;;;;;;;.......                                                                                                                                                                                                           .......;;;;;;;;;;;;;;===============================================================================================================================================================================;;;;;;;.......                                                 ",
"              ..............==============================================================================================================================================================================================================================================;;;;;;;;;;;;;;.......                                                                                                                                                                                                           .......;;;;;;;;;;;;;;===============================================================================================================================================================================;;;;;;;.......                                                 ",
"              ..............==============================================================================================================================================================================================================================================;;;;;;;;;;;;;;.......                                                                                                                                                                                                           .......;;;;;;;;;;;;;;===============================================================================================================================================================================;;;;;;;.......                                                 ",
"              ..............==============================================================================================================================================================================================================================================;;;;;;;;;;;;;;.......                                                                                                                                                                                                           .......;;;;;;;;;;;;;;===============================================================================================================================================================================;;;;;;;.......                                                 ",
"       ..............=====================================================================================================================================================================================================================================================;;;;;;;..............                                                                                                                                                                                                                  .......;;;;;;;;;;;;;;;;;;;;;=================================================================================================================================================================;;;;;;;.......                                                 ",
"       ..............=====================================================================================================================================================================================================================================================;;;;;;;..............                                                                                                                                                                                                                  .......;;;;;;;;;;;;;;;;;;;;;=================================================================================================================================================================;;;;;;;.......                                                 ",
"       ..............=====================================================================================================================================================================================================================================================;;;;;;;..............                                                                                                                                                                                                                  .......;;;;;;;;;;;;;;;;;;;;;=================================================================================================================================================================;;;;;;;.......                                                 ",
"       ..............=====================================================================================================================================================================================================================================================;;;;;;;..............                                                                                                                                                                                                                  .......;;;;;;;;;;;;;;;;;;;;;=================================================================================================================================================================;;;;;;;.......                                                 ",
"       ..............=====================================================================================================================================================================================================================================================;;;;;;;..............                                                                                                                                                                                                                  .......;;;;;;;;;;;;;;;;;;;;;=================================================================================================================================================================;;;;;;;.......                                                 ",
"       ..............=====================================================================================================================================================================================================================================================;;;;;;;..............                                                                                                                                                                                                                  .......;;;;;;;;;;;;;;;;;;;;;=================================================================================================================================================================;;;;;;;.......                                                 ",
"       ..............=====================================================================================================================================================================================================================================================;;;;;;;..............                                                                                                                                                                                                                  .......;;;;;;;;;;;;;;;;;;;;;=================================================================================================================================================================;;;;;;;.......                                                 ",
"..............============================================================================================================================================================================================================================================================;;;;;;;.......                                                                                                                                                                                                                                .......;;;;;;;;;;;;;;;;;;;;;;;;;;;;===================================================================================================================================================;;;;;;;;;;;;;;.......                                          ",
"..............============================================================================================================================================================================================================================================================;;;;;;;.......                                                                                                                                                                                                                                .......;;;;;;;;;;;;;;;;;;;;;;;;;;;;===================================================================================================================================================;;;;;;;;;;;;;;.......                                          ",
"..............============================================================================================================================================================================================================================================================;;;;;;;.......                                                                                                                                                                                                                                .......;;;;;;;;;;;;;;;;;;;;;;;;;;;;===================================================================================================================================================;;;;;;;;;;;;;;.......                                          ",
"..............============================================================================================================================================================================================================================================================;;;;;;;.......                                                                                                                                                                                                                                .......;;;;;;;;;;;;;;;;;;;;;;;;;;;;===================================================================================================================================================;;;;;;;;;;;;;;.......                                          ",
"..............============================================================================================================================================================================================================================================================;;;;;;;.......                                                                                                                                                                                                                                .......;;;;;;;;;;;;;;;;;;;;;;;;;;;;===================================================================================================================================================;;;;;;;;;;;;;;.......                                          ",
"..............============================================================================================================================================================================================================================================================;;;;;;;.......                                                                                                                                                                                                                                .......;;;;;;;;;;;;;;;;;;;;;;;;;;;;===================================================================================================================================================;;;;;;;;;;;;;;.......                                          ",
"..............============================================================================================================================================================================================================================================================;;;;;;;.......                                                                                                                                                                                                                                .......;;;;;;;;;;;;;;;;;;;;;;;;;;;;===================================================================================================================================================;;;;;;;;;;;;;;.......                                          ",
".......===================================================================================================================================================================================================================================================================;;;;;;;.......                                                                                                                                                                                                                                       ..............;;;;;;;;;;;;;;;;;;;;;=====================================================================================================================================,,,,,,,;;;;;;;;;;;;;;.......                                          ",
".......===================================================================================================================================================================================================================================================================;;;;;;;.......                                                                                                                                                                                                                                       ..............;;;;;;;;;;;;;;;;;;;;;=====================================================================================================================================,,,,,,,;;;;;;;;;;;;;;.......                                          ",
".......===================================================================================================================================================================================================================================================================;;;;;;;.......                                                                                                                                                                                                                                       ..............;;;;;;;;;;;;;;;;;;;;;=====================================================================================================================================,,,,,,,;;;;;;;;;;;;;;.......                                          ",
".......===================================================================================================================================================================================================================================================================;;;;;;;.......                                                                                                                                                                                                                                       ..............;;;;;;;;;;;;;;;;;;;;;=====================================================================================================================================,,,,,,,;;;;;;;;;;;;;;.......                                          ",
".......===================================================================================================================================================================================================================================================================;;;;;;;.......                                                                                                                                                                                                                                       ..............;;;;;;;;;;;;;;;;;;;;;=====================================================================================================================================,,,,,,,;;;;;;;;;;;;;;.......                                          ",
".......===================================================================================================================================================================================================================================================================;;;;;;;.......                                                                                                                                                                                                                                       ..............;;;;;;;;;;;;;;;;;;;;;=====================================================================================================================================,,,,,,,;;;;;;;;;;;;;;.......                                          ",
".......===================================================================================================================================================================================================================================================================;;;;;;;.......                                                                                                                                                                                                                                       ..............;;;;;;;;;;;;;;;;;;;;;=====================================================================================================================================,,,,,,,;;;;;;;;;;;;;;.......                                          ",
"                                                                                                                                                                                                                                                                                                                                                                                                                                                                                                                                             .......;;;;;;;;;;;;;;;;;;;;;=====================================================================================================================================,,,,,,,;;;;;;;;;;;;;;.......                                   ",
"                                                                                                                                                                                                                                                                                                                                                                                                                                                                                                                                             .......;;;;;;;;;;;;;;;;;;;;;=====================================================================================================================================,,,,,,,;;;;;;;;;;;;;;.......                                   ",
"                                                                                                                                                                                                                                                                                                                                                                                                                                                                                                                                             .......;;;;;;;;;;;;;;;;;;;;;=====================================================================================================================================,,,,,,,;;;;;;;;;;;;;;.......                                   ",
"                                                                                                                                                                                                                                                                                                                                                                                                                                                                                                                                             .......;;;;;;;;;;;;;;;;;;;;;=====================================================================================================================================,,,,,,,;;;;;;;;;;;;;;.......                                   ",
"                                                                                                                                                                                                                                                                                                                                                                                                                                                                                                                                             .......;;;;;;;;;;;;;;;;;;;;;=====================================================================================================================================,,,,,,,;;;;;;;;;;;;;;.......                                   ",
"                                                                                                                                                                                                                                                                                                                                                                                                                                                                                                                                             .......;;;;;;;;;;;;;;;;;;;;;=====================================================================================================================================,,,,,,,;;;;;;;;;;;;;;.......                                   ",
"                                                                                                                                                                                                                                                                                                                                                                                                                                                                                                                                             .......;;;;;;;;;;;;;;;;;;;;;=====================================================================================================================================,,,,,,,;;;;;;;;;;;;;;.......                                   ",
"                                                                                                                                                                                                                                                                                                                                                                                                                                                                                                                                                    .......;;;;;;;;;;;;;;===================================================================================================================================================;;;;;;;;;;;;;;.......                            ",
"                                                                                                                                                                                                                                                                                                                                                                                                                                                                                                                                                    .......;;;;;;;;;;;;;;===================================================================================================================================================;;;;;;;;;;;;;;.......                            ",
"                                                                                                                                                                                                                                                                                                                                                                                                                                                                                                                                                    .......;;;;;;;;;;;;;;===================================================================================================================================================;;;;;;;;;;;;;;.......                            ",
"                                                                                                                                                                                                                                                                                                                                                                                                                                                                                                                                                    .......;;;;;;;;;;;;;;===================================================================================================================================================;;;;;;;;;;;;;;.......                            ",
"                                                                                                                                                                                                                                                                                                                                                                                                                                                                                                                                                    .......;;;;;;;;;;;;;;===================================================================================================================================================;;;;;;;;;;;;;;.......                            ",
"                                                                                                                                                                                                                                                                                                                                                                                                                                                                                                                                                    .......;;;;;;;;;;;;;;===================================================================================================================================================;;;;;;;;;;;;;;.......                            ",
"                                                                                                                                                                                                                                                                                                                                                                                                                                                                                                                                                    .......;;;;;;;;;;;;;;===================================================================================================================================================;;;;;;;;;;;;;;.......                            ",
"                                                                                                                                                                                                                                                                                                                                                                                                                                                                                                                                                           .......;;;;;;;;;;;;;;============================================================================================================================================;;;;;;;;;;;;;;.......                            ",
"                                                                                                                                                                                                                                                                                                                                                                                                                                                                                                                                                           .......;;;;;;;;;;;;;;============================================================================================================================================;;;;;;;;;;;;;;.......                            ",
"                                                                                                                                                                                                                                                                                                                                                                                                                                                                                                                                                           .......;;;;;;;;;;;;;;============================================================================================================================================;;;;;;;;;;;;;;.......                            ",
"                                                                                                                                                                                                                                                                                                                                                                                                                                                                                                                                                           .......;;;;;;;;;;;;;;============================================================================================================================================;;;;;;;;;;;;;;.......                            ",
"                                                                                                                                                                                                                                                                                                                                                                                                                                                                                                                                                           .......;;;;;;;;;;;;;;============================================================================================================================================;;;;;;;;;;;;;;.......                            ",
"                                                                                                                                                                                                                                                                                                                                                                                                                                                                                                                                                           .......;;;;;;;;;;;;;;============================================================================================================================================;;;;;;;;;;;;;;.......                            ",
"                                                                                                                                                                                                                                                                                                                                                                                                                                                                                                                                                           .......;;;;;;;;;;;;;;============================================================================================================================================;;;;;;;;;;;;;;.......                            ",
"                                                                                                                                                                                                                                                                                                                                                                                                                                                                                                                                                                  .......;;;;;;;============================================================================================================================================;;;;;;;;;;;;;;;;;;;;;.......                     ",
"                                                                                                                                                                                                                                                                                                                                                                                                                                                                                                                                                                  .......;;;;;;;============================================================================================================================================;;;;;;;;;;;;;;;;;;;;;.......                     ",
"                                                                                                                                                                                                                                                                                                                                                                                                                                                                                                                                                                  .......;;;;;;;============================================================================================================================================;;;;;;;;;;;;;;;;;;;;;.......                     ",
"                                                                                                                                                                                                                                                                                                                                                                                                                                                                                                                                                                  .......;;;;;;;============================================================================================================================================;;;;;;;;;;;;;;;;;;;;;.......                     ",
"                                                                                                                                                                                                                                                                                                                                                                                                                                                                                                                                                                  .......;;;;;;;============================================================================================================================================;;;;;;;;;;;;;;;;;;;;;.......                     ",
"                                                                                                                                                                                                                                                                                                                                                                                                                                                                                                                                                                  .......;;;;;;;============================================================================================================================================;;;;;;;;;;;;;;;;;;;;;.......                     ",
"                                                                                                                                                                                                                                                                                                                                                                                                                                                                                                                                                                  .......;;;;;;;============================================================================================================================================;;;;;;;;;;;;;;;;;;;;;.......                     ",
"                                                                                                                                                                                                                                                                                                                                                                                                                                                                                                                                                                  .......;;;;;;;;;;;;;;=====================================================================================================================================;;;;;;;;;;;;;;;;;;;;;;;;;;;;.......              ",
"                                                                                                                                                                                                                                                                                                                                                                                                                                                                                                                                                                  .......;;;;;;;;;;;;;;=====================================================================================================================================;;;;;;;;;;;;;;;;;;;;;;;;;;;;.......              ",
"                                                                                                                                                                                                                                                                                                                                                                                                                                                                                                                                                                  .......;;;;;;;;;;;;;;=====================================================================================================================================;;;;;;;;;;;;;;;;;;;;;;;;;;;;.......              ",
"                                                                                                                                                                                                                                                                                                                                                                                                                                                                                                                                                                  .......;;;;;;;;;;;;;;=====================================================================================================================================;;;;;;;;;;;;;;;;;;;;;;;;;;;;.......              ",
"                                                                                                                                                                                                                                                                                                                                                                                                                                                                                                                                                                  .......;;;;;;;;;;;;;;=====================================================================================================================================;;;;;;;;;;;;;;;;;;;;;;;;;;;;.......              ",
"                                                                                                                                                                                                                                                                                                                                                                                                                                                                                                                                                                  .......;;;;;;;;;;;;;;=====================================================================================================================================;;;;;;;;;;;;;;;;;;;;;;;;;;;;.......              ",
"                                                                                                                                                                                                                                                                                                                                                                                                                                                                                                                                                                  .......;;;;;;;;;;;;;;=====================================================================================================================================;;;;;;;;;;;;;;;;;;;;;;;;;;;;.......              ",
"                                                                                                                                                                                                                                                                                                                                                                                                                                                                                                                                                                         .......;;;;;;;============================================================================================================================================;;;;;;;;;;;;;;;;;;;;;.......              ",
"                                                                                                                                                                                                                                                                                                                                                                                                                                                                                                                                                                         .......;;;;;;;============================================================================================================================================;;;;;;;;;;;;;;;;;;;;;.......              ",
"                                                                                                                                                                                                                                                                                                                                                                                                                                                                                                                                                                         .......;;;;;;;============================================================================================================================================;;;;;;;;;;;;;;;;;;;;;.......              ",
"                                                                                                                                                                                                                                                                                                                                                                                                                                                                                                                                                                         .......;;;;;;;============================================================================================================================================;;;;;;;;;;;;;;;;;;;;;.......              ",
"                                                                                                                                                                                                                                                                                                                                                                                                                                                                                                                                                                         .......;;;;;;;============================================================================================================================================;;;;;;;;;;;;;;;;;;;;;.......              ",
"                                                                                                                                                                                                                                                                                                                                                                                                                                                                                                                                                                         .......;;;;;;;============================================================================================================================================;;;;;;;;;;;;;;;;;;;;;.......              ",
"                                                                                                                                                                                                                                                                                                                                                                                                                                                                                                                                                                         .......;;;;;;;============================================================================================================================================;;;;;;;;;;;;;;;;;;;;;.......              ",
"                                                                                                                                                                                                                                                                                                                                                                                                                                                                                                                                                                                .......;;;;;;;=====================================================================================================================================;;;;;;;;;;;;;;;;;;;;;;;;;;;;.......       ",
"                                                                                                                                                                                                                                                                                                                                                                                                                                                                                                                                                                                .......;;;;;;;=====================================================================================================================================;;;;;;;;;;;;;;;;;;;;;;;;;;;;.......       ",
"                                                                                                                                                                                                                                                                                                                                                                                                                                                                                                                                                                                .......;;;;;;;=====================================================================================================================================;;;;;;;;;;;;;;;;;;;;;;;;;;;;.......       ",
"                                                                                                                                                                                                                                                                                                                                                                                                                                                                                                                                                                                .......;;;;;;;=====================================================================================================================================;;;;;;;;;;;;;;;;;;;;;;;;;;;;.......       ",
"                                                                                                                                                                                                                                                                                                                                                                                                                                                                                                                                                                                .......;;;;;;;=====================================================================================================================================;;;;;;;;;;;;;;;;;;;;;;;;;;;;.......       ",
"                                                                                                                                                                                                                                                                                                                                                                                                                                                                                                                                                                                .......;;;;;;;=====================================================================================================================================;;;;;;;;;;;;;;;;;;;;;;;;;;;;.......       ",
"                                                                                                                                                                                                                                                                                                                                                                                                                                                                                                                                                                                .......;;;;;;;=====================================================================================================================================;;;;;;;;;;;;;;;;;;;;;;;;;;;;.......       ",
"                                                                                                                                                                                                                                                                                                                                                                                                                                                                                                                                                                                .......;;;;;;;,,,,,,,,,,,,,,=======================================================================================================================;;;;;;;;;;;;;;;;;;;;;;;;;;;;;;;;;;;.......",
"                                                                                                                                                                                                                                                                                                                                                                                                                                                                                                                                                                                .......;;;;;;;,,,,,,,,,,,,,,=======================================================================================================================;;;;;;;;;;;;;;;;;;;;;;;;;;;;;;;;;;;.......",
"                                                                                                                                                                                                                                                                                                                                                                                                                                                                                                                                                                                .......;;;;;;;,,,,,,,,,,,,,,=======================================================================================================================;;;;;;;;;;;;;;;;;;;;;;;;;;;;;;;;;;;.......",
"                                                                                                                                                                                                                                                                                                                                                                                                                                                                                                                                                                                .......;;;;;;;,,,,,,,,,,,,,,=======================================================================================================================;;;;;;;;;;;;;;;;;;;;;;;;;;;;;;;;;;;.......",
"                                                                                                                                                                                                                                                                                                                                                                                                                                                                                                                                                                                .......;;;;;;;,,,,,,,,,,,,,,=======================================================================================================================;;;;;;;;;;;;;;;;;;;;;;;;;;;;;;;;;;;.......",
"                                                                                                                                                                                                                                                                                                                                                                                                                                                                                                                                                                                .......;;;;;;;,,,,,,,,,,,,,,=======================================================================================================================;;;;;;;;;;;;;;;;;;;;;;;;;;;;;;;;;;;.......",
"                                                                                                                                                                                                                                                                                                                                                                                                                                                                                                                                                                                .......;;;;;;;,,,,,,,,,,,,,,=======================================================================================================================;;;;;;;;;;;;;;;;;;;;;;;;;;;;;;;;;;;.......",
"                                                                                                                                                                                                                                                                                                                                                                                                                                                                                                                                                                                       .......;;;;;;;;;;;;;;=======================================================================================================================;;;;;;;;;;;;;;;;;;;;;;;;;;;;;;;;;;;.......",
"                                                                                                                                                                                                                                                                                                                                                                                                                                                                                                                                                                                       .......;;;;;;;;;;;;;;=======================================================================================================================;;;;;;;;;;;;;;;;;;;;;;;;;;;;;;;;;;;.......",
"                                                                                                                                                                                                                                                                                                                                                                                                                                                                                                                                                                                       .......;;;;;;;;;;;;;;=======================================================================================================================;;;;;;;;;;;;;;;;;;;;;;;;;;;;;;;;;;;.......",
"                                                                                                                                                                                                                                                                                                                                                                                                                                                                                                                                                                                       .......;;;;;;;;;;;;;;=======================================================================================================================;;;;;;;;;;;;;;;;;;;;;;;;;;;;;;;;;;;.......",
"                                                                                                                                                                                                                                                                                                                                                                                                                                                                                                                                                                                       .......;;;;;;;;;;;;;;=======================================================================================================================;;;;;;;;;;;;;;;;;;;;;;;;;;;;;;;;;;;.......",
"                                                                                                                                                                                                                                                                                                                                                                                                                                                                                                                                                                                       .......;;;;;;;;;;;;;;=======================================================================================================================;;;;;;;;;;;;;;;;;;;;;;;;;;;;;;;;;;;.......",
"                                                                                                                                                                                                                                                                                                                                                                                                                                                                                                                                                                                       .......;;;;;;;;;;;;;;=======================================================================================================================;;;;;;;;;;;;;;;;;;;;;;;;;;;;;;;;;;;......."};
