/* XPM */
static char * nsfw_left_arm1_xpm[] = {
"561 628 10 1",
" 	c #FF00FF",
".	c #000000",
"+	c #6C6C6C",
"@	c #FD0201",
"#	c #B0B0B0",
"$	c #00BAE8",
"%	c #FBB813",
"&	c #CE9E7F",
"*	c #74443B",
"=	c #BD826A",
"                                                                                                                                                                                                                                                                                                                                                                                                                                                                                                                                                                                 ",
"                                                                                                                                                                                                                                                                                                                                                                                                                                                                                                                                                                                 ",
"                                                                                                                                                                                                                                                                                                                                                                                                                                                                                                                                                                                 ",
"                                                                                                                                                                                                                                                                                                                                                                                                                                                                                                                                                                                 ",
"                                                                                                                                                                                                                                                                                                                                                                                                                                                                                                                                                                                 ",
"                                                                                                                                                                                                                                                                                                                                                                                                                                                                                                                                                                                 ",
"                                                                                                                                                                                                                                                                                                                                                                                                                                                                                                                                                                                 ",
"                                                                                                                                                                                                                                                                                                                                                                                                                                                                                                                                                                                 ",
"                                                                                                                                                                                                                                                                                                                                                                                                                                                                                                                                                                                 ",
"                                                                                                                                                                                                                                                                                                                                                                                                                                                                                                                                                                                 ",
"                                                                                                                                                                                                                                                                                                                                                                                                                                                                                                                                                                                 ",
"                                                                                                                                                                                                                                                                                                                                                                                                                                                                                                                                                                                 ",
"                                                                                                                                                                                                                                                                                                                                                                                                                                                                                                                                                                                 ",
"                                                                                                                                                                                                                                                                                                                                                                                                                                                                                                                                                                                 ",
"                                                                                                                                                                                                                                                                                                                                                                                                                                                                                                                                                                                 ",
"                                                                                                                                                                                                                                                                                                                                                                                                                                                                                                                                                                                 ",
"                                                                                                                                                                                                                                                                                                                                                                                                                                                                                                                                                                                 ",
"                                                                                                                                                                                                                                                                                                                                                                                                                                                                                                                                                                                 ",
"                                                                                                                                                                                                                                                                                                                                                                                                                                                                                                                                                                                 ",
"                                                                                                                                                                                                                                                                                                                                                                                                                                                                                                                                                                                 ",
"                                                                                                                                                                                                                                                                                                                                                                                                                                                                                                                                                                                 ",
"                                                                                                                                                                                                                                                                                                                                                                                                                                                                                                                                                                                 ",
"                                                                                                                                                                                                                                                                                                                                                                                                                                                                                                                                                                                 ",
"                                                                                                                                                                                                                                                                                                                                                                                                                                                                                                                                                                                 ",
"                                                                                                                                                                                                                                                                                                                                                                                                                                                                                                                                                                                 ",
"                                                                                                                                                                                                                                                                                                                                                                                                                                                                                                                                                                                 ",
"                                                                                                                                                                                                                                                                                                                                                                                                                                                                                                                                                                                 ",
"                                                                                                                                                                                                                                                                                                                                                                                                                                                                                                                                                                                 ",
"                                                                                                                                                                                                                                                                                                                                                                                                                                                                                                                                                                                 ",
"                                                                                                                                                                                                                                                                                                                                                                                                                                                                                                                                                                                 ",
"                                                                                                                                                                                                                                                                                                                                                                                                                                                                                                                                                                                 ",
"                                                                                                                                                                                                                                                                                                                                                                                                                                                                                                                                                                                 ",
"                                                                                                                                                                                                                                                                                                                                                                                                                                                                                                                                                                                 ",
"                                                                                                                                                                                                                                                                                                                                                                                                                                                                                                                                                                                 ",
"                                                                                                                                                                                                                                                                                                                                                                                                                                                                                                                                                                                 ",
"                                                                                                                                                                                                                                                                                                                                                                                                                                                                                                                                                                                 ",
"                                                                                                                                                                                                                                                                                                                                                                                                                                                                                                                                                                                 ",
"                                                                                                                                                                                                                                                                                                                                                                                                                                                                                                                                                                                 ",
"                                                                                                                                                                                                                                                                                                                                                                                                                                                                                                                                                                                 ",
"                                                                                                                                                                                                                                                                                                                                                                                                                                                                                                                                                                                 ",
"                                                                                                                                                                                                                                                                                                                                                                                                                                                                                                                                                                                 ",
"                                                                                                                                                                                                                                                                                                                                                                                                                                                                                                                                                                                 ",
"                                                                                                                                                                                                                                                                                                                                                                                                                                                                                                                                                                                 ",
"                                                                                                                                                                                                                                                                                                                                                                                                                                                                                                                                                                                 ",
"                                                                                                                                                                                                                                                                                                                                                                                                                                                                                                                                                                                 ",
"                                                                                                                                                                                                                                                                                                                                                                                                                                                                                                                                                                                 ",
"                                                                                                                                                                                                                                                                                                                                                                                                                                                                                                                                                                                 ",
"                                                                                                                                                                                                                                                                                                                                                                                                                                                                                                                                                                                 ",
"                                                                                                                                                                                                                                                                                                                                                                                                                                                                                                                                                                                 ",
"                                                                                                                                                                                                                                                                                                                                                                                                                                                                                                                                                                                 ",
"                                                                                                                                                                                                                                                                                                                                                                                                                                                                                                                                                                                 ",
"                                                                                                                                                                                                                                                                                                                                                                                                                                                                                                                                                                                 ",
"                                                                                                                                                                                                                                                                                                                                                                                                                                                                                                                                                                                 ",
"                                                                                                                                                                                                                                                                                                                                                                                                                                                                                                                                                                                 ",
"                                                                                                                                                                                                                                                                                                                                                                                                                                                                                                                                                                                 ",
"                                                                                                                                                                                                                                                                                                                                                                                                                                                                                                                                                                                 ",
"                                                                                                                                                                                                                                                                                                                                                                                                                                                                                                                                                                                 ",
"                                                                                                                                                                                                                                                                                                                                                                                                                                                                                                                                                                                 ",
"                                                                                                                                                                                                                                                                                                                                                                                                                                                                                                                                                                                 ",
"                                                                                                                                                                                                                                                                                                                                                                                                                                                                                                                                                                                 ",
"                                                                                                                                                                                                                                                                                                                                                                                                                                                                                                                                                                                 ",
"                                                                                                                                                                                                                                                                                                                                                                                                                                                                                                                                                                                 ",
"                                                                                                                                                                                                                                                                                                                                                                                                                                                                                                                                                                                 ",
"                                                                                                                                                                                                                                                                                                                                                                                                                                                                                                                                                                                 ",
"                                                                                                                                                                                                                                                                                                                                                                                                                                                                                                                                                                                 ",
"                                                                                                                                                                                                                                                                                                                                                                                                                                                                                                                                                                                 ",
"                                                                                                                                                                                                                                                                                                                                                                                                                                                                                                                                                                                 ",
"                                                                                                                                                                                                                                                                                                                                                                                                                                                                                                                                                                                 ",
"                                                                                                                                                                                                                                                                                                                                                                                                                                                                                                                                                                                 ",
"                                                                                                                                                                                                                                                                                                                                                                                                                                                                                                                                                                                 ",
"                                                                                                                                                                                                                                                                                                                                                                                                                                                                                                                                                                                 ",
"                                                                                                                                                                                                                                                                                                                                                                                                                                                                                                                                                                                 ",
"                                                                                                                                                                                                                                                                                                                                                                                                                                                                                                                                                                                 ",
"                                                                                                                                                                                                                                                                                                                                                                                                                                                                                                                                                                                 ",
"                                                                                                                                                                                                                                                                                                                                                                                                                                                                                                                                                                                 ",
"                                                                                                                                                                                                                                                                                                                                           .......                                                                                                                                                                                                                               ",
"                                                                                                                                                                                                                                                                                                                                           .......                                                                                                                                                                                                                               ",
"                                                                                                                                                                                                                                                                                                                                           .......                                                                                                                                                                                                                               ",
"                                                                                                                                                                                                                                                                                                                                           .......                                                                                                                                                                                                                               ",
"                                                                                                                                                                                                                                                                                                                                           .......                                                                                                                                                                                                                               ",
"                                                                                                                                                                                                                                                                                                                                           .......                                                                                                                                                                                                                               ",
"                                                                                                                                                                                                                                                                                                                                           .......                                                                                                                                                                                                                               ",
"                                                                                                                                                                                                                                                                                                                                    .......+++++++.......       .......                                                                                                                                                                                                          ",
"                                                                                                                                                                                                                                                                                                                                    .......+++++++.......       .......                                                                                                                                                                                                          ",
"                                                                                                                                                                                                                                                                                                                                    .......+++++++.......       .......                                                                                                                                                                                                          ",
"                                                                                                                                                                                                                                                                                                                                    .......+++++++.......       .......                                                                                                                                                                                                          ",
"                                                                                                                                                                                                                                                                                                                                    .......+++++++.......       .......                                                                                                                                                                                                          ",
"                                                                                                                                                                                                                                                                                                                                    .......+++++++.......       .......                                                                                                                                                                                                          ",
"                                                                                                                                                                                                                                                                                                                                    .......+++++++.......       .......                                                                                                                                                                                                          ",
"                                                                                                                                                                                                                                                                                                                             .......+++++++++++++++++++++.......@@@@@@@.......                                                                                                                                                                                                   ",
"                                                                                                                                                                                                                                                                                                                             .......+++++++++++++++++++++.......@@@@@@@.......                                                                                                                                                                                                   ",
"                                                                                                                                                                                                                                                                                                                             .......+++++++++++++++++++++.......@@@@@@@.......                                                                                                                                                                                                   ",
"                                                                                                                                                                                                                                                                                                                             .......+++++++++++++++++++++.......@@@@@@@.......                                                                                                                                                                                                   ",
"                                                                                                                                                                                                                                                                                                                             .......+++++++++++++++++++++.......@@@@@@@.......                                                                                                                                                                                                   ",
"                                                                                                                                                                                                                                                                                                                             .......+++++++++++++++++++++.......@@@@@@@.......                                                                                                                                                                                                   ",
"                                                                                                                                                                                                                                                                                                                             .......+++++++++++++++++++++.......@@@@@@@.......                                                                                                                                                                                                   ",
"                                                                                                                                                                                                                                                                                                                             .......##############+++++++@@@@@@@@@@@@@@@@@@@@@.......                                                                                                                                                                                            ",
"                                                                                                                                                                                                                                                                                                                             .......##############+++++++@@@@@@@@@@@@@@@@@@@@@.......                                                                                                                                                                                            ",
"                                                                                                                                                                                                                                                                                                                             .......##############+++++++@@@@@@@@@@@@@@@@@@@@@.......                                                                                                                                                                                            ",
"                                                                                                                                                                                                                                                                                                                             .......##############+++++++@@@@@@@@@@@@@@@@@@@@@.......                                                                                                                                                                                            ",
"                                                                                                                                                                                                                                                                                                                             .......##############+++++++@@@@@@@@@@@@@@@@@@@@@.......                                                                                                                                                                                            ",
"                                                                                                                                                                                                                                                                                                                             .......##############+++++++@@@@@@@@@@@@@@@@@@@@@.......                                                                                                                                                                                            ",
"                                                                                                                                                                                                                                                                                                                             .......##############+++++++@@@@@@@@@@@@@@@@@@@@@.......                                                                                                                                                                                            ",
"                                                                                                                                                                                                                                                                                                                      .......############################@@@@@@@@@@@@@@.......$$$$$$$.......                                                                                                                                                                                     ",
"                                                                                                                                                                                                                                                                                                                      .......############################@@@@@@@@@@@@@@.......$$$$$$$.......                                                                                                                                                                                     ",
"                                                                                                                                                                                                                                                                                                                      .......############################@@@@@@@@@@@@@@.......$$$$$$$.......                                                                                                                                                                                     ",
"                                                                                                                                                                                                                                                                                                                      .......############################@@@@@@@@@@@@@@.......$$$$$$$.......                                                                                                                                                                                     ",
"                                                                                                                                                                                                                                                                                                                      .......############################@@@@@@@@@@@@@@.......$$$$$$$.......                                                                                                                                                                                     ",
"                                                                                                                                                                                                                                                                                                                      .......############################@@@@@@@@@@@@@@.......$$$$$$$.......                                                                                                                                                                                     ",
"                                                                                                                                                                                                                                                                                                                      .......############################@@@@@@@@@@@@@@.......$$$$$$$.......                                                                                                                                                                                     ",
"                                                                                                                                                                                                                                                                                                               .......##########################################.......$$$$$$$$$$$$$$$$$$$$$.......                                                                                                                                                                              ",
"                                                                                                                                                                                                                                                                                                               .......##########################################.......$$$$$$$$$$$$$$$$$$$$$.......                                                                                                                                                                              ",
"                                                                                                                                                                                                                                                                                                               .......##########################################.......$$$$$$$$$$$$$$$$$$$$$.......                                                                                                                                                                              ",
"                                                                                                                                                                                                                                                                                                               .......##########################################.......$$$$$$$$$$$$$$$$$$$$$.......                                                                                                                                                                              ",
"                                                                                                                                                                                                                                                                                                               .......##########################################.......$$$$$$$$$$$$$$$$$$$$$.......                                                                                                                                                                              ",
"                                                                                                                                                                                                                                                                                                               .......##########################################.......$$$$$$$$$$$$$$$$$$$$$.......                                                                                                                                                                              ",
"                                                                                                                                                                                                                                                                                                               .......##########################################.......$$$$$$$$$$$$$$$$$$$$$.......                                                                                                                                                                              ",
"                                                                                                                                                                                                                                                                                                               .......###################################.......$$$$$$$$$$$$$$$$$$$$$$$$$$$$$$$$$$$.......                            .................................................                                                                                          ",
"                                                                                                                                                                                                                                                                                                               .......###################################.......$$$$$$$$$$$$$$$$$$$$$$$$$$$$$$$$$$$.......                            .................................................                                                                                          ",
"                                                                                                                                                                                                                                                                                                               .......###################################.......$$$$$$$$$$$$$$$$$$$$$$$$$$$$$$$$$$$.......                            .................................................                                                                                          ",
"                                                                                                                                                                                                                                                                                                               .......###################################.......$$$$$$$$$$$$$$$$$$$$$$$$$$$$$$$$$$$.......                            .................................................                                                                                          ",
"                                                                                                                                                                                                                                                                                                               .......###################################.......$$$$$$$$$$$$$$$$$$$$$$$$$$$$$$$$$$$.......                            .................................................                                                                                          ",
"                                                                                                                                                                                                                                                                                                               .......###################################.......$$$$$$$$$$$$$$$$$$$$$$$$$$$$$$$$$$$.......                            .................................................                                                                                          ",
"                                                                                                                                                                                                                                                                                                               .......###################################.......$$$$$$$$$$$$$$$$$$$$$$$$$$$$$$$$$$$.......                            .................................................                                                                                          ",
"                                                                                                                                                                                                                                                                                                                      .......#####################.......$$$$$$$$$$$$$$%%%%%%%$$$$$$$$$$$$$$$$$$$$$$$$$$$$.......              .......&&&&&&&&&&&&&&&&&&&&&&&&&&&&&&&&&&&&&&&&&&&&&&&&&.......                                                                                   ",
"                                                                                                                                                                                                                                                                                                                      .......#####################.......$$$$$$$$$$$$$$%%%%%%%$$$$$$$$$$$$$$$$$$$$$$$$$$$$.......              .......&&&&&&&&&&&&&&&&&&&&&&&&&&&&&&&&&&&&&&&&&&&&&&&&&.......                                                                                   ",
"                                                                                                                                                                                                                                                                                                                      .......#####################.......$$$$$$$$$$$$$$%%%%%%%$$$$$$$$$$$$$$$$$$$$$$$$$$$$.......              .......&&&&&&&&&&&&&&&&&&&&&&&&&&&&&&&&&&&&&&&&&&&&&&&&&.......                                                                                   ",
"                                                                                                                                                                                                                                                                                                                      .......#####################.......$$$$$$$$$$$$$$%%%%%%%$$$$$$$$$$$$$$$$$$$$$$$$$$$$.......              .......&&&&&&&&&&&&&&&&&&&&&&&&&&&&&&&&&&&&&&&&&&&&&&&&&.......                                                                                   ",
"                                                                                                                                                                                                                                                                                                                      .......#####################.......$$$$$$$$$$$$$$%%%%%%%$$$$$$$$$$$$$$$$$$$$$$$$$$$$.......              .......&&&&&&&&&&&&&&&&&&&&&&&&&&&&&&&&&&&&&&&&&&&&&&&&&.......                                                                                   ",
"                                                                                                                                                                                                                                                                                                                      .......#####################.......$$$$$$$$$$$$$$%%%%%%%$$$$$$$$$$$$$$$$$$$$$$$$$$$$.......              .......&&&&&&&&&&&&&&&&&&&&&&&&&&&&&&&&&&&&&&&&&&&&&&&&&.......                                                                                   ",
"                                                                                                                                                                                                                                                                                                                      .......#####################.......$$$$$$$$$$$$$$%%%%%%%$$$$$$$$$$$$$$$$$$$$$$$$$$$$.......              .......&&&&&&&&&&&&&&&&&&&&&&&&&&&&&&&&&&&&&&&&&&&&&&&&&.......                                                                                   ",
"                                                                                                                                                                                                                                                                                                                             .......#######.......$$$$$$$$$$$$$$%%%%%%%$$$$$$$$$$$$$$$$$$$$$$$$$$$$$$$$$$$$$$$$$$...................................&&&&&&&&&&&&&&&&&&&&&&&&&&&&&&&&&&&&&&&&&&.......                                                                            ",
"                                                                                                                                                                                                                                                                                                                             .......#######.......$$$$$$$$$$$$$$%%%%%%%$$$$$$$$$$$$$$$$$$$$$$$$$$$$$$$$$$$$$$$$$$...................................&&&&&&&&&&&&&&&&&&&&&&&&&&&&&&&&&&&&&&&&&&.......                                                                            ",
"                                                                                                                                                                                                                                                                                                                             .......#######.......$$$$$$$$$$$$$$%%%%%%%$$$$$$$$$$$$$$$$$$$$$$$$$$$$$$$$$$$$$$$$$$...................................&&&&&&&&&&&&&&&&&&&&&&&&&&&&&&&&&&&&&&&&&&.......                                                                            ",
"                                                                                                                                                                                                                                                                                                                             .......#######.......$$$$$$$$$$$$$$%%%%%%%$$$$$$$$$$$$$$$$$$$$$$$$$$$$$$$$$$$$$$$$$$...................................&&&&&&&&&&&&&&&&&&&&&&&&&&&&&&&&&&&&&&&&&&.......                                                                            ",
"                                                                                                                                                                                                                                                                                                                             .......#######.......$$$$$$$$$$$$$$%%%%%%%$$$$$$$$$$$$$$$$$$$$$$$$$$$$$$$$$$$$$$$$$$...................................&&&&&&&&&&&&&&&&&&&&&&&&&&&&&&&&&&&&&&&&&&.......                                                                            ",
"                                                                                                                                                                                                                                                                                                                             .......#######.......$$$$$$$$$$$$$$%%%%%%%$$$$$$$$$$$$$$$$$$$$$$$$$$$$$$$$$$$$$$$$$$...................................&&&&&&&&&&&&&&&&&&&&&&&&&&&&&&&&&&&&&&&&&&.......                                                                            ",
"                                                                                                                                                                                                                                                                                                                             .......#######.......$$$$$$$$$$$$$$%%%%%%%$$$$$$$$$$$$$$$$$$$$$$$$$$$$$$$$$$$$$$$$$$...................................&&&&&&&&&&&&&&&&&&&&&&&&&&&&&&&&&&&&&&&&&&.......                                                                            ",
"                                                                                                                                                                                                                                                                                                                                    .......$$$$$$$$$$$$$$$$$$$$$$$$$$$$$$$$$$$$$$$$$$$$$$$$$$$$$$$$$$$$$$$.......&&&&&&&&&&&&&&&&&&&&&&&&&&&&..............&&&&&&&&&&&&&&&&&&&&&&&&&&&&&&&&&&&..............                                                                     ",
"                                                                                                                                                                                                                                                                                                                                    .......$$$$$$$$$$$$$$$$$$$$$$$$$$$$$$$$$$$$$$$$$$$$$$$$$$$$$$$$$$$$$$$.......&&&&&&&&&&&&&&&&&&&&&&&&&&&&..............&&&&&&&&&&&&&&&&&&&&&&&&&&&&&&&&&&&..............                                                                     ",
"                                                                                                                                                                                                                                                                                                                                    .......$$$$$$$$$$$$$$$$$$$$$$$$$$$$$$$$$$$$$$$$$$$$$$$$$$$$$$$$$$$$$$$.......&&&&&&&&&&&&&&&&&&&&&&&&&&&&..............&&&&&&&&&&&&&&&&&&&&&&&&&&&&&&&&&&&..............                                                                     ",
"                                                                                                                                                                                                                                                                                                                                    .......$$$$$$$$$$$$$$$$$$$$$$$$$$$$$$$$$$$$$$$$$$$$$$$$$$$$$$$$$$$$$$$.......&&&&&&&&&&&&&&&&&&&&&&&&&&&&..............&&&&&&&&&&&&&&&&&&&&&&&&&&&&&&&&&&&..............                                                                     ",
"                                                                                                                                                                                                                                                                                                                                    .......$$$$$$$$$$$$$$$$$$$$$$$$$$$$$$$$$$$$$$$$$$$$$$$$$$$$$$$$$$$$$$$.......&&&&&&&&&&&&&&&&&&&&&&&&&&&&..............&&&&&&&&&&&&&&&&&&&&&&&&&&&&&&&&&&&..............                                                                     ",
"                                                                                                                                                                                                                                                                                                                                    .......$$$$$$$$$$$$$$$$$$$$$$$$$$$$$$$$$$$$$$$$$$$$$$$$$$$$$$$$$$$$$$$.......&&&&&&&&&&&&&&&&&&&&&&&&&&&&..............&&&&&&&&&&&&&&&&&&&&&&&&&&&&&&&&&&&..............                                                                     ",
"                                                                                                                                                                                                                                                                                                                                    .......$$$$$$$$$$$$$$$$$$$$$$$$$$$$$$$$$$$$$$$$$$$$$$$$$$$$$$$$$$$$$$$.......&&&&&&&&&&&&&&&&&&&&&&&&&&&&..............&&&&&&&&&&&&&&&&&&&&&&&&&&&&&&&&&&&..............                                                                     ",
"                                                                                                                                                                                                                                                                                                                                           .......$$$$$$$$$$$$$$$$$$$$$$$$$$$$$$$$$$$$$$$$$$$$$$$$$.......&&&&&&&&&&&&&&&&&&&&&&&&&&&&&&&&&&&&&&&&&&&&&&&&&..............&&&&&&&&&&&&&&&&&&&&&.......&&&&&&&.......                                                              ",
"                                                                                                                                                                                                                                                                                                                                           .......$$$$$$$$$$$$$$$$$$$$$$$$$$$$$$$$$$$$$$$$$$$$$$$$$.......&&&&&&&&&&&&&&&&&&&&&&&&&&&&&&&&&&&&&&&&&&&&&&&&&..............&&&&&&&&&&&&&&&&&&&&&.......&&&&&&&.......                                                              ",
"                                                                                                                                                                                                                                                                                                                                           .......$$$$$$$$$$$$$$$$$$$$$$$$$$$$$$$$$$$$$$$$$$$$$$$$$.......&&&&&&&&&&&&&&&&&&&&&&&&&&&&&&&&&&&&&&&&&&&&&&&&&..............&&&&&&&&&&&&&&&&&&&&&.......&&&&&&&.......                                                              ",
"                                                                                                                                                                                                                                                                                                                                           .......$$$$$$$$$$$$$$$$$$$$$$$$$$$$$$$$$$$$$$$$$$$$$$$$$.......&&&&&&&&&&&&&&&&&&&&&&&&&&&&&&&&&&&&&&&&&&&&&&&&&..............&&&&&&&&&&&&&&&&&&&&&.......&&&&&&&.......                                                              ",
"                                                                                                                                                                                                                                                                                                                                           .......$$$$$$$$$$$$$$$$$$$$$$$$$$$$$$$$$$$$$$$$$$$$$$$$$.......&&&&&&&&&&&&&&&&&&&&&&&&&&&&&&&&&&&&&&&&&&&&&&&&&..............&&&&&&&&&&&&&&&&&&&&&.......&&&&&&&.......                                                              ",
"                                                                                                                                                                                                                                                                                                                                           .......$$$$$$$$$$$$$$$$$$$$$$$$$$$$$$$$$$$$$$$$$$$$$$$$$.......&&&&&&&&&&&&&&&&&&&&&&&&&&&&&&&&&&&&&&&&&&&&&&&&&..............&&&&&&&&&&&&&&&&&&&&&.......&&&&&&&.......                                                              ",
"                                                                                                                                                                                                                                                                                                                                           .......$$$$$$$$$$$$$$$$$$$$$$$$$$$$$$$$$$$$$$$$$$$$$$$$$.......&&&&&&&&&&&&&&&&&&&&&&&&&&&&&&&&&&&&&&&&&&&&&&&&&..............&&&&&&&&&&&&&&&&&&&&&.......&&&&&&&.......                                                              ",
"                                                                                                                                                                                                                                                                                                                                                  .......$$$$$$$$$$$$$$$$$$$$$$$$$$$$$$$$$$$.......&&&&&&&&&&&&&&&&&&&&&&&&&&&&&&&&&&&&&&&&&&&&&&&&&&&&&&&&&&&&&&&..............&&&&&&&.......&&&&&&&&&&&&&&&&&&&&&.......                                                       ",
"                                                                                                                                                                                                                                                                                                                                                  .......$$$$$$$$$$$$$$$$$$$$$$$$$$$$$$$$$$$.......&&&&&&&&&&&&&&&&&&&&&&&&&&&&&&&&&&&&&&&&&&&&&&&&&&&&&&&&&&&&&&&..............&&&&&&&.......&&&&&&&&&&&&&&&&&&&&&.......                                                       ",
"                                                                                                                                                                                                                                                                                                                                                  .......$$$$$$$$$$$$$$$$$$$$$$$$$$$$$$$$$$$.......&&&&&&&&&&&&&&&&&&&&&&&&&&&&&&&&&&&&&&&&&&&&&&&&&&&&&&&&&&&&&&&..............&&&&&&&.......&&&&&&&&&&&&&&&&&&&&&.......                                                       ",
"                                                                                                                                                                                                                                                                                                                                                  .......$$$$$$$$$$$$$$$$$$$$$$$$$$$$$$$$$$$.......&&&&&&&&&&&&&&&&&&&&&&&&&&&&&&&&&&&&&&&&&&&&&&&&&&&&&&&&&&&&&&&..............&&&&&&&.......&&&&&&&&&&&&&&&&&&&&&.......                                                       ",
"                                                                                                                                                                                                                                                                                                                                                  .......$$$$$$$$$$$$$$$$$$$$$$$$$$$$$$$$$$$.......&&&&&&&&&&&&&&&&&&&&&&&&&&&&&&&&&&&&&&&&&&&&&&&&&&&&&&&&&&&&&&&..............&&&&&&&.......&&&&&&&&&&&&&&&&&&&&&.......                                                       ",
"                                                                                                                                                                                                                                                                                                                                                  .......$$$$$$$$$$$$$$$$$$$$$$$$$$$$$$$$$$$.......&&&&&&&&&&&&&&&&&&&&&&&&&&&&&&&&&&&&&&&&&&&&&&&&&&&&&&&&&&&&&&&..............&&&&&&&.......&&&&&&&&&&&&&&&&&&&&&.......                                                       ",
"                                                                                                                                                                                                                                                                                                                                                  .......$$$$$$$$$$$$$$$$$$$$$$$$$$$$$$$$$$$.......&&&&&&&&&&&&&&&&&&&&&&&&&&&&&&&&&&&&&&&&&&&&&&&&&&&&&&&&&&&&&&&..............&&&&&&&.......&&&&&&&&&&&&&&&&&&&&&.......                                                       ",
"                                                                                                                                                                                                                                                                                                                                                         .......$$$$$$$$$$$$$$..............&&&&&&&&&&&&&&&&&&&&&&&&&&&&&&&&&&&&&&&&&&&&&&&&&&&&&&&&&&&&&&&&&&&&&&*******=======.....................&&&&&&&&&&&&&&&&&&&&&.......                                                ",
"                                                                                                                                                                                                                                                                                                                                                         .......$$$$$$$$$$$$$$..............&&&&&&&&&&&&&&&&&&&&&&&&&&&&&&&&&&&&&&&&&&&&&&&&&&&&&&&&&&&&&&&&&&&&&&*******=======.....................&&&&&&&&&&&&&&&&&&&&&.......                                                ",
"                                                                                                                                                                                                                                                                                                                                                         .......$$$$$$$$$$$$$$..............&&&&&&&&&&&&&&&&&&&&&&&&&&&&&&&&&&&&&&&&&&&&&&&&&&&&&&&&&&&&&&&&&&&&&&*******=======.....................&&&&&&&&&&&&&&&&&&&&&.......                                                ",
"                                                                                                                                                                                                                                                                                                                                                         .......$$$$$$$$$$$$$$..............&&&&&&&&&&&&&&&&&&&&&&&&&&&&&&&&&&&&&&&&&&&&&&&&&&&&&&&&&&&&&&&&&&&&&&*******=======.....................&&&&&&&&&&&&&&&&&&&&&.......                                                ",
"                                                                                                                                                                                                                                                                                                                                                         .......$$$$$$$$$$$$$$..............&&&&&&&&&&&&&&&&&&&&&&&&&&&&&&&&&&&&&&&&&&&&&&&&&&&&&&&&&&&&&&&&&&&&&&*******=======.....................&&&&&&&&&&&&&&&&&&&&&.......                                                ",
"                                                                                                                                                                                                                                                                                                                                                         .......$$$$$$$$$$$$$$..............&&&&&&&&&&&&&&&&&&&&&&&&&&&&&&&&&&&&&&&&&&&&&&&&&&&&&&&&&&&&&&&&&&&&&&*******=======.....................&&&&&&&&&&&&&&&&&&&&&.......                                                ",
"                                                                                                                                                                                                                                                                                                                                                         .......$$$$$$$$$$$$$$..............&&&&&&&&&&&&&&&&&&&&&&&&&&&&&&&&&&&&&&&&&&&&&&&&&&&&&&&&&&&&&&&&&&&&&&*******=======.....................&&&&&&&&&&&&&&&&&&&&&.......                                                ",
"                                                                                                                                                                                                                                                                                                                                                                ..............&&&&&&&&&&&&&&&&&&&&&&&&&&&&&&&&&&&&&&&&&&==============&&&&&&&&&&&&&&&&&&&&&&&&&&&&*******============================..............&&&&&&&&&&&&&&.......                                         ",
"                                                                                                                                                                                                                                                                                                                                                                ..............&&&&&&&&&&&&&&&&&&&&&&&&&&&&&&&&&&&&&&&&&&==============&&&&&&&&&&&&&&&&&&&&&&&&&&&&*******============================..............&&&&&&&&&&&&&&.......                                         ",
"                                                                                                                                                                                                                                                                                                                                                                ..............&&&&&&&&&&&&&&&&&&&&&&&&&&&&&&&&&&&&&&&&&&==============&&&&&&&&&&&&&&&&&&&&&&&&&&&&*******============================..............&&&&&&&&&&&&&&.......                                         ",
"                                                                                                                                                                                                                                                                                                                                                                ..............&&&&&&&&&&&&&&&&&&&&&&&&&&&&&&&&&&&&&&&&&&==============&&&&&&&&&&&&&&&&&&&&&&&&&&&&*******============================..............&&&&&&&&&&&&&&.......                                         ",
"                                                                                                                                                                                                                                                                                                                                                                ..............&&&&&&&&&&&&&&&&&&&&&&&&&&&&&&&&&&&&&&&&&&==============&&&&&&&&&&&&&&&&&&&&&&&&&&&&*******============================..............&&&&&&&&&&&&&&.......                                         ",
"                                                                                                                                                                                                                                                                                                                                                                ..............&&&&&&&&&&&&&&&&&&&&&&&&&&&&&&&&&&&&&&&&&&==============&&&&&&&&&&&&&&&&&&&&&&&&&&&&*******============================..............&&&&&&&&&&&&&&.......                                         ",
"                                                                                                                                                                                                                                                                                                                                                                ..............&&&&&&&&&&&&&&&&&&&&&&&&&&&&&&&&&&&&&&&&&&==============&&&&&&&&&&&&&&&&&&&&&&&&&&&&*******============================..............&&&&&&&&&&&&&&.......                                         ",
"                                                                                                                                                                                                                                                                                                                                                         .......&&&&&&&&&&&&&&&&&&&&&&&&&&&&&&&&&&&&&&&&&&&&&&&&&&&&&&&&=======.......&&&&&&&&&&&&&&&&&&&&&&&&&&&&&&&&&&&****************************&&&&&&&.......&&&&&&&&&&&&&&&&&&&&&.......                                  ",
"                                                                                                                                                                                                                                                                                                                                                         .......&&&&&&&&&&&&&&&&&&&&&&&&&&&&&&&&&&&&&&&&&&&&&&&&&&&&&&&&=======.......&&&&&&&&&&&&&&&&&&&&&&&&&&&&&&&&&&&****************************&&&&&&&.......&&&&&&&&&&&&&&&&&&&&&.......                                  ",
"                                                                                                                                                                                                                                                                                                                                                         .......&&&&&&&&&&&&&&&&&&&&&&&&&&&&&&&&&&&&&&&&&&&&&&&&&&&&&&&&=======.......&&&&&&&&&&&&&&&&&&&&&&&&&&&&&&&&&&&****************************&&&&&&&.......&&&&&&&&&&&&&&&&&&&&&.......                                  ",
"                                                                                                                                                                                                                                                                                                                                                         .......&&&&&&&&&&&&&&&&&&&&&&&&&&&&&&&&&&&&&&&&&&&&&&&&&&&&&&&&=======.......&&&&&&&&&&&&&&&&&&&&&&&&&&&&&&&&&&&****************************&&&&&&&.......&&&&&&&&&&&&&&&&&&&&&.......                                  ",
"                                                                                                                                                                                                                                                                                                                                                         .......&&&&&&&&&&&&&&&&&&&&&&&&&&&&&&&&&&&&&&&&&&&&&&&&&&&&&&&&=======.......&&&&&&&&&&&&&&&&&&&&&&&&&&&&&&&&&&&****************************&&&&&&&.......&&&&&&&&&&&&&&&&&&&&&.......                                  ",
"                                                                                                                                                                                                                                                                                                                                                         .......&&&&&&&&&&&&&&&&&&&&&&&&&&&&&&&&&&&&&&&&&&&&&&&&&&&&&&&&=======.......&&&&&&&&&&&&&&&&&&&&&&&&&&&&&&&&&&&****************************&&&&&&&.......&&&&&&&&&&&&&&&&&&&&&.......                                  ",
"                                                                                                                                                                                                                                                                                                                                                         .......&&&&&&&&&&&&&&&&&&&&&&&&&&&&&&&&&&&&&&&&&&&&&&&&&&&&&&&&=======.......&&&&&&&&&&&&&&&&&&&&&&&&&&&&&&&&&&&****************************&&&&&&&.......&&&&&&&&&&&&&&&&&&&&&.......                                  ",
"                                                                                                                                                                                                                                                                                                                                                  .......&&&&&&&&&&&&&&&&&&&&&&&&&&&&&&&&&&&&&&&&&&&&&&&&&=====================.......&&&&&&&&&&&&&&&&&&&&&&&&&&&&&&&&&&&&&&&&&&&&&&&&&&&&&&&&&&&&&&&&&&&&&&.......&&&&&&&&&&&&&&&&&&&&&.......                                  ",
"                                                                                                                                                                                                                                                                                                                                                  .......&&&&&&&&&&&&&&&&&&&&&&&&&&&&&&&&&&&&&&&&&&&&&&&&&=====================.......&&&&&&&&&&&&&&&&&&&&&&&&&&&&&&&&&&&&&&&&&&&&&&&&&&&&&&&&&&&&&&&&&&&&&&.......&&&&&&&&&&&&&&&&&&&&&.......                                  ",
"                                                                                                                                                                                                                                                                                                                                                  .......&&&&&&&&&&&&&&&&&&&&&&&&&&&&&&&&&&&&&&&&&&&&&&&&&=====================.......&&&&&&&&&&&&&&&&&&&&&&&&&&&&&&&&&&&&&&&&&&&&&&&&&&&&&&&&&&&&&&&&&&&&&&.......&&&&&&&&&&&&&&&&&&&&&.......                                  ",
"                                                                                                                                                                                                                                                                                                                                                  .......&&&&&&&&&&&&&&&&&&&&&&&&&&&&&&&&&&&&&&&&&&&&&&&&&=====================.......&&&&&&&&&&&&&&&&&&&&&&&&&&&&&&&&&&&&&&&&&&&&&&&&&&&&&&&&&&&&&&&&&&&&&&.......&&&&&&&&&&&&&&&&&&&&&.......                                  ",
"                                                                                                                                                                                                                                                                                                                                                  .......&&&&&&&&&&&&&&&&&&&&&&&&&&&&&&&&&&&&&&&&&&&&&&&&&=====================.......&&&&&&&&&&&&&&&&&&&&&&&&&&&&&&&&&&&&&&&&&&&&&&&&&&&&&&&&&&&&&&&&&&&&&&.......&&&&&&&&&&&&&&&&&&&&&.......                                  ",
"                                                                                                                                                                                                                                                                                                                                                  .......&&&&&&&&&&&&&&&&&&&&&&&&&&&&&&&&&&&&&&&&&&&&&&&&&=====================.......&&&&&&&&&&&&&&&&&&&&&&&&&&&&&&&&&&&&&&&&&&&&&&&&&&&&&&&&&&&&&&&&&&&&&&.......&&&&&&&&&&&&&&&&&&&&&.......                                  ",
"                                                                                                                                                                                                                                                                                                                                                  .......&&&&&&&&&&&&&&&&&&&&&&&&&&&&&&&&&&&&&&&&&&&&&&&&&=====================.......&&&&&&&&&&&&&&&&&&&&&&&&&&&&&&&&&&&&&&&&&&&&&&&&&&&&&&&&&&&&&&&&&&&&&&.......&&&&&&&&&&&&&&&&&&&&&.......                                  ",
"                                                                                                                                                                                                                                                                                                                                           .......&&&&&&&&&&&&&&&&&&&&&&&&&&&&&&&&&&&&&&&&&&&&&&&&&============================.......&&&&&&&&&&&&&&&&&&&&&&&&&&&&&&&&&&&&&&&&&&&&&&&&&&&&&&&&&&&&&&&&&&&&&&.......&&&&&&&&&&&&&&&&&&&&&.......                                  ",
"                                                                                                                                                                                                                                                                                                                                           .......&&&&&&&&&&&&&&&&&&&&&&&&&&&&&&&&&&&&&&&&&&&&&&&&&============================.......&&&&&&&&&&&&&&&&&&&&&&&&&&&&&&&&&&&&&&&&&&&&&&&&&&&&&&&&&&&&&&&&&&&&&&.......&&&&&&&&&&&&&&&&&&&&&.......                                  ",
"                                                                                                                                                                                                                                                                                                                                           .......&&&&&&&&&&&&&&&&&&&&&&&&&&&&&&&&&&&&&&&&&&&&&&&&&============================.......&&&&&&&&&&&&&&&&&&&&&&&&&&&&&&&&&&&&&&&&&&&&&&&&&&&&&&&&&&&&&&&&&&&&&&.......&&&&&&&&&&&&&&&&&&&&&.......                                  ",
"                                                                                                                                                                                                                                                                                                                                           .......&&&&&&&&&&&&&&&&&&&&&&&&&&&&&&&&&&&&&&&&&&&&&&&&&============================.......&&&&&&&&&&&&&&&&&&&&&&&&&&&&&&&&&&&&&&&&&&&&&&&&&&&&&&&&&&&&&&&&&&&&&&.......&&&&&&&&&&&&&&&&&&&&&.......                                  ",
"                                                                                                                                                                                                                                                                                                                                           .......&&&&&&&&&&&&&&&&&&&&&&&&&&&&&&&&&&&&&&&&&&&&&&&&&============================.......&&&&&&&&&&&&&&&&&&&&&&&&&&&&&&&&&&&&&&&&&&&&&&&&&&&&&&&&&&&&&&&&&&&&&&.......&&&&&&&&&&&&&&&&&&&&&.......                                  ",
"                                                                                                                                                                                                                                                                                                                                           .......&&&&&&&&&&&&&&&&&&&&&&&&&&&&&&&&&&&&&&&&&&&&&&&&&============================.......&&&&&&&&&&&&&&&&&&&&&&&&&&&&&&&&&&&&&&&&&&&&&&&&&&&&&&&&&&&&&&&&&&&&&&.......&&&&&&&&&&&&&&&&&&&&&.......                                  ",
"                                                                                                                                                                                                                                                                                                                                           .......&&&&&&&&&&&&&&&&&&&&&&&&&&&&&&&&&&&&&&&&&&&&&&&&&============================.......&&&&&&&&&&&&&&&&&&&&&&&&&&&&&&&&&&&&&&&&&&&&&&&&&&&&&&&&&&&&&&&&&&&&&&.......&&&&&&&&&&&&&&..............                                  ",
"                                                                                                                                                                                                                                                                                                                                    .......&&&&&&&&&&&&&&&&&&&&&&&&&&&&&&&&&&&&&&&&&&&&&&&&&==========================================.......&&&&&&&&&&&&&&&&&&&&&&&&&&&&&&&&&&&&&&&&&&&&&&&&&.....................&&&&&&&&&&&&&&..............                                  ",
"                                                                                                                                                                                                                                                                                                                                    .......&&&&&&&&&&&&&&&&&&&&&&&&&&&&&&&&&&&&&&&&&&&&&&&&&==========================================.......&&&&&&&&&&&&&&&&&&&&&&&&&&&&&&&&&&&&&&&&&&&&&&&&&.....................&&&&&&&&&&&&&&..............                                  ",
"                                                                                                                                                                                                                                                                                                                                    .......&&&&&&&&&&&&&&&&&&&&&&&&&&&&&&&&&&&&&&&&&&&&&&&&&==========================================.......&&&&&&&&&&&&&&&&&&&&&&&&&&&&&&&&&&&&&&&&&&&&&&&&&.....................&&&&&&&&&&&&&&..............                                  ",
"                                                                                                                                                                                                                                                                                                                                    .......&&&&&&&&&&&&&&&&&&&&&&&&&&&&&&&&&&&&&&&&&&&&&&&&&==========================================.......&&&&&&&&&&&&&&&&&&&&&&&&&&&&&&&&&&&&&&&&&&&&&&&&&.....................&&&&&&&&&&&&&&..............                                  ",
"                                                                                                                                                                                                                                                                                                                                    .......&&&&&&&&&&&&&&&&&&&&&&&&&&&&&&&&&&&&&&&&&&&&&&&&&==========================================.......&&&&&&&&&&&&&&&&&&&&&&&&&&&&&&&&&&&&&&&&&&&&&&&&&.....................&&&&&&&&&&&&&&..............                                  ",
"                                                                                                                                                                                                                                                                                                                                    .......&&&&&&&&&&&&&&&&&&&&&&&&&&&&&&&&&&&&&&&&&&&&&&&&&==========================================.......&&&&&&&&&&&&&&&&&&&&&&&&&&&&&&&&&&&&&&&&&&&&&&&&&.....................&&&&&&&&&&&&&&..............                                  ",
"                                                                                                                                                                                                                                                                                                                                    .......&&&&&&&&&&&&&&&&&&&&&&&&&&&&&&&&&&&&&&&&&&&&&&&&&==========================================.......&&&&&&&&&&&&&&&&&&&&&&&&&&&&&&&&&&&&&&&&&&&&&&&&&.....................&&&&&&&&&&&&&&..............                                  ",
"                                                                                                                                                                                                                                                                                                                             .......=======&&&&&&&&&&&&&&&&&&&&&&&&&&&&&&&&&&&&&&&&&&==========================================...............................................................=====================&&&&&&&.......&&&&&&&&&&&&&&.......                           ",
"                                                                                                                                                                                                                                                                                                                             .......=======&&&&&&&&&&&&&&&&&&&&&&&&&&&&&&&&&&&&&&&&&&==========================================...............................................................=====================&&&&&&&.......&&&&&&&&&&&&&&.......                           ",
"                                                                                                                                                                                                                                                                                                                             .......=======&&&&&&&&&&&&&&&&&&&&&&&&&&&&&&&&&&&&&&&&&&==========================================...............................................................=====================&&&&&&&.......&&&&&&&&&&&&&&.......                           ",
"                                                                                                                                                                                                                                                                                                                             .......=======&&&&&&&&&&&&&&&&&&&&&&&&&&&&&&&&&&&&&&&&&&==========================================...............................................................=====================&&&&&&&.......&&&&&&&&&&&&&&.......                           ",
"                                                                                                                                                                                                                                                                                                                             .......=======&&&&&&&&&&&&&&&&&&&&&&&&&&&&&&&&&&&&&&&&&&==========================================...............................................................=====================&&&&&&&.......&&&&&&&&&&&&&&.......                           ",
"                                                                                                                                                                                                                                                                                                                             .......=======&&&&&&&&&&&&&&&&&&&&&&&&&&&&&&&&&&&&&&&&&&==========================================...............................................................=====================&&&&&&&.......&&&&&&&&&&&&&&.......                           ",
"                                                                                                                                                                                                                                                                                                                             .......=======&&&&&&&&&&&&&&&&&&&&&&&&&&&&&&&&&&&&&&&&&&==========================================...............................................................=====================&&&&&&&.......&&&&&&&&&&&&&&.......                           ",
"                                                                                                                                                                                                                                                                                                                             .......=======&&&&&&&&&&&&&&&&&&&&&&&&&&&&&&&&&&&===================================.....................=======&&&&&&&.......==========================================&&&&&&&&&&&&&&..............&&&&&&&&&&&&&&&&&&&&&.......                    ",
"                                                                                                                                                                                                                                                                                                                             .......=======&&&&&&&&&&&&&&&&&&&&&&&&&&&&&&&&&&&===================================.....................=======&&&&&&&.......==========================================&&&&&&&&&&&&&&..............&&&&&&&&&&&&&&&&&&&&&.......                    ",
"                                                                                                                                                                                                                                                                                                                             .......=======&&&&&&&&&&&&&&&&&&&&&&&&&&&&&&&&&&&===================================.....................=======&&&&&&&.......==========================================&&&&&&&&&&&&&&..............&&&&&&&&&&&&&&&&&&&&&.......                    ",
"                                                                                                                                                                                                                                                                                                                             .......=======&&&&&&&&&&&&&&&&&&&&&&&&&&&&&&&&&&&===================================.....................=======&&&&&&&.......==========================================&&&&&&&&&&&&&&..............&&&&&&&&&&&&&&&&&&&&&.......                    ",
"                                                                                                                                                                                                                                                                                                                             .......=======&&&&&&&&&&&&&&&&&&&&&&&&&&&&&&&&&&&===================================.....................=======&&&&&&&.......==========================================&&&&&&&&&&&&&&..............&&&&&&&&&&&&&&&&&&&&&.......                    ",
"                                                                                                                                                                                                                                                                                                                             .......=======&&&&&&&&&&&&&&&&&&&&&&&&&&&&&&&&&&&===================================.....................=======&&&&&&&.......==========================================&&&&&&&&&&&&&&..............&&&&&&&&&&&&&&&&&&&&&.......                    ",
"                                                                                                                                                                                                                                                                                                                             .......=======&&&&&&&&&&&&&&&&&&&&&&&&&&&&&&&&&&&===================================.....................=======&&&&&&&.......==========================================&&&&&&&&&&&&&&..............&&&&&&&&&&&&&&&&&&&&&.......                    ",
"                                                                                                                                                                                                                                                                                                                             .......=======&&&&&&&&&&&&&&&&&&&&&&&&&&&&===================================..............==============&&&&&&&.......============================&&&&&&&&&&&&&&&&&&&&&&&&&&&&..............&&&&&&&&&&&&&&&&&&&&&&&&&&&&&&&&&&&.......             ",
"                                                                                                                                                                                                                                                                                                                             .......=======&&&&&&&&&&&&&&&&&&&&&&&&&&&&===================================..............==============&&&&&&&.......============================&&&&&&&&&&&&&&&&&&&&&&&&&&&&..............&&&&&&&&&&&&&&&&&&&&&&&&&&&&&&&&&&&.......             ",
"                                                                                                                                                                                                                                                                                                                             .......=======&&&&&&&&&&&&&&&&&&&&&&&&&&&&===================================..............==============&&&&&&&.......============================&&&&&&&&&&&&&&&&&&&&&&&&&&&&..............&&&&&&&&&&&&&&&&&&&&&&&&&&&&&&&&&&&.......             ",
"                                                                                                                                                                                                                                                                                                                             .......=======&&&&&&&&&&&&&&&&&&&&&&&&&&&&===================================..............==============&&&&&&&.......============================&&&&&&&&&&&&&&&&&&&&&&&&&&&&..............&&&&&&&&&&&&&&&&&&&&&&&&&&&&&&&&&&&.......             ",
"                                                                                                                                                                                                                                                                                                                             .......=======&&&&&&&&&&&&&&&&&&&&&&&&&&&&===================================..............==============&&&&&&&.......============================&&&&&&&&&&&&&&&&&&&&&&&&&&&&..............&&&&&&&&&&&&&&&&&&&&&&&&&&&&&&&&&&&.......             ",
"                                                                                                                                                                                                                                                                                                                             .......=======&&&&&&&&&&&&&&&&&&&&&&&&&&&&===================================..............==============&&&&&&&.......============================&&&&&&&&&&&&&&&&&&&&&&&&&&&&..............&&&&&&&&&&&&&&&&&&&&&&&&&&&&&&&&&&&.......             ",
"                                                                                                                                                                                                                                                                                                                             .......=======&&&&&&&&&&&&&&&&&&&&&&&&&&&&===================================..............==============&&&&&&&.......============================&&&&&&&&&&&&&&&&&&&&&&&&&&&&..............&&&&&&&&&&&&&&&&&&&&&&&&&&&&&&&&&&&.......             ",
"                                                                                                                                                                                                                                                                                                                             .......=======&&&&&&&&&&&&&&&&&&&&&&&&&&&&===================================.....................&&&&&&&.......=====================&&&&&&&&&&&&&&&&&&&&&&&&&&&&&&&&&&&..............=======&&&&&&&&&&&&&&&&&&&&&&&&&&&&&&&&&&&.......             ",
"                                                                                                                                                                                                                                                                                                                             .......=======&&&&&&&&&&&&&&&&&&&&&&&&&&&&===================================.....................&&&&&&&.......=====================&&&&&&&&&&&&&&&&&&&&&&&&&&&&&&&&&&&..............=======&&&&&&&&&&&&&&&&&&&&&&&&&&&&&&&&&&&.......             ",
"                                                                                                                                                                                                                                                                                                                             .......=======&&&&&&&&&&&&&&&&&&&&&&&&&&&&===================================.....................&&&&&&&.......=====================&&&&&&&&&&&&&&&&&&&&&&&&&&&&&&&&&&&..............=======&&&&&&&&&&&&&&&&&&&&&&&&&&&&&&&&&&&.......             ",
"                                                                                                                                                                                                                                                                                                                             .......=======&&&&&&&&&&&&&&&&&&&&&&&&&&&&===================================.....................&&&&&&&.......=====================&&&&&&&&&&&&&&&&&&&&&&&&&&&&&&&&&&&..............=======&&&&&&&&&&&&&&&&&&&&&&&&&&&&&&&&&&&.......             ",
"                                                                                                                                                                                                                                                                                                                             .......=======&&&&&&&&&&&&&&&&&&&&&&&&&&&&===================================.....................&&&&&&&.......=====================&&&&&&&&&&&&&&&&&&&&&&&&&&&&&&&&&&&..............=======&&&&&&&&&&&&&&&&&&&&&&&&&&&&&&&&&&&.......             ",
"                                                                                                                                                                                                                                                                                                                             .......=======&&&&&&&&&&&&&&&&&&&&&&&&&&&&===================================.....................&&&&&&&.......=====================&&&&&&&&&&&&&&&&&&&&&&&&&&&&&&&&&&&..............=======&&&&&&&&&&&&&&&&&&&&&&&&&&&&&&&&&&&.......             ",
"                                                                                                                                                                                                                                                                                                                             .......=======&&&&&&&&&&&&&&&&&&&&&&&&&&&&===================================.....................&&&&&&&.......=====================&&&&&&&&&&&&&&&&&&&&&&&&&&&&&&&&&&&..............=======&&&&&&&&&&&&&&&&&&&&&&&&&&&&&&&&&&&.......             ",
"                                                                                                                                                                                                                                                                                                                             .......=======&&&&&&&&&&&&&&&&&&&&&&&&&&&&=======***********************************.....................=====================&&&&&&&&&&&&&&&&&&&&&&&&&&&&&&&&&&&..............=======&&&&&&&&&&&&&&&&&&&&&&&&&&&&&&&&&&&&&&&&&&.......             ",
"                                                                                                                                                                                                                                                                                                                             .......=======&&&&&&&&&&&&&&&&&&&&&&&&&&&&=======***********************************.....................=====================&&&&&&&&&&&&&&&&&&&&&&&&&&&&&&&&&&&..............=======&&&&&&&&&&&&&&&&&&&&&&&&&&&&&&&&&&&&&&&&&&.......             ",
"                                                                                                                                                                                                                                                                                                                             .......=======&&&&&&&&&&&&&&&&&&&&&&&&&&&&=======***********************************.....................=====================&&&&&&&&&&&&&&&&&&&&&&&&&&&&&&&&&&&..............=======&&&&&&&&&&&&&&&&&&&&&&&&&&&&&&&&&&&&&&&&&&.......             ",
"                                                                                                                                                                                                                                                                                                                             .......=======&&&&&&&&&&&&&&&&&&&&&&&&&&&&=======***********************************.....................=====================&&&&&&&&&&&&&&&&&&&&&&&&&&&&&&&&&&&..............=======&&&&&&&&&&&&&&&&&&&&&&&&&&&&&&&&&&&&&&&&&&.......             ",
"                                                                                                                                                                                                                                                                                                                             .......=======&&&&&&&&&&&&&&&&&&&&&&&&&&&&=======***********************************.....................=====================&&&&&&&&&&&&&&&&&&&&&&&&&&&&&&&&&&&..............=======&&&&&&&&&&&&&&&&&&&&&&&&&&&&&&&&&&&&&&&&&&.......             ",
"                                                                                                                                                                                                                                                                                                                             .......=======&&&&&&&&&&&&&&&&&&&&&&&&&&&&=======***********************************.....................=====================&&&&&&&&&&&&&&&&&&&&&&&&&&&&&&&&&&&..............=======&&&&&&&&&&&&&&&&&&&&&&&&&&&&&&&&&&&&&&&&&&.......             ",
"                                                                                                                                                                                                                                                                                                                             .......=======&&&&&&&&&&&&&&&&&&&&&&&&&&&&=======***********************************.....................=====================&&&&&&&&&&&&&&&&&&&&&&&&&&&&&&&&&&&..............=======&&&&&&&&&&&&&&&&&&&&&&&&&&&&&&&&&&&&&&&&&&.......             ",
"                                                                                                                                                                                                                                                                                                                             .......=======&&&&&&&&&&&&&&&&&&&&&&&&&&&&&&&&&&&&&&&&&&============================.....................=======&&&&&&&&&&&&&&&&&&&&&&&&&&&&&&&&&&&&&&&&&&..............=======&&&&&&&&&&&&&&&&&&&&&&&&&&&&&&&&&&&&&&&&&&.......                    ",
"                                                                                                                                                                                                                                                                                                                             .......=======&&&&&&&&&&&&&&&&&&&&&&&&&&&&&&&&&&&&&&&&&&============================.....................=======&&&&&&&&&&&&&&&&&&&&&&&&&&&&&&&&&&&&&&&&&&..............=======&&&&&&&&&&&&&&&&&&&&&&&&&&&&&&&&&&&&&&&&&&.......                    ",
"                                                                                                                                                                                                                                                                                                                             .......=======&&&&&&&&&&&&&&&&&&&&&&&&&&&&&&&&&&&&&&&&&&============================.....................=======&&&&&&&&&&&&&&&&&&&&&&&&&&&&&&&&&&&&&&&&&&..............=======&&&&&&&&&&&&&&&&&&&&&&&&&&&&&&&&&&&&&&&&&&.......                    ",
"                                                                                                                                                                                                                                                                                                                             .......=======&&&&&&&&&&&&&&&&&&&&&&&&&&&&&&&&&&&&&&&&&&============================.....................=======&&&&&&&&&&&&&&&&&&&&&&&&&&&&&&&&&&&&&&&&&&..............=======&&&&&&&&&&&&&&&&&&&&&&&&&&&&&&&&&&&&&&&&&&.......                    ",
"                                                                                                                                                                                                                                                                                                                             .......=======&&&&&&&&&&&&&&&&&&&&&&&&&&&&&&&&&&&&&&&&&&============================.....................=======&&&&&&&&&&&&&&&&&&&&&&&&&&&&&&&&&&&&&&&&&&..............=======&&&&&&&&&&&&&&&&&&&&&&&&&&&&&&&&&&&&&&&&&&.......                    ",
"                                                                                                                                                                                                                                                                                                                             .......=======&&&&&&&&&&&&&&&&&&&&&&&&&&&&&&&&&&&&&&&&&&============================.....................=======&&&&&&&&&&&&&&&&&&&&&&&&&&&&&&&&&&&&&&&&&&..............=======&&&&&&&&&&&&&&&&&&&&&&&&&&&&&&&&&&&&&&&&&&.......                    ",
"                                                                                                                                                                                                                                                                                                                             .......=======&&&&&&&&&&&&&&&&&&&&&&&&&&&&&&&&&&&&&&&&&&============================.....................=======&&&&&&&&&&&&&&&&&&&&&&&&&&&&&&&&&&&&&&&&&&..............=======&&&&&&&&&&&&&&&&&&&&&&&&&&&&&&&&&&&&&&&&&&.......                    ",
"                                                                                                                                                                                                                                                                                                                             .......=======&&&&&&&&&&&&&&&&&&&&&&&&&&&&&&&&&&&&&&&&&&===================================.....................&&&&&&&&&&&&&&&&&&&&&&&&&&&&&&&&&&&..............=======&&&&&&&&&&&&&&&&&&&&&&&&&&&&&&&&&&&.....................                    ",
"                                                                                                                                                                                                                                                                                                                             .......=======&&&&&&&&&&&&&&&&&&&&&&&&&&&&&&&&&&&&&&&&&&===================================.....................&&&&&&&&&&&&&&&&&&&&&&&&&&&&&&&&&&&..............=======&&&&&&&&&&&&&&&&&&&&&&&&&&&&&&&&&&&.....................                    ",
"                                                                                                                                                                                                                                                                                                                             .......=======&&&&&&&&&&&&&&&&&&&&&&&&&&&&&&&&&&&&&&&&&&===================================.....................&&&&&&&&&&&&&&&&&&&&&&&&&&&&&&&&&&&..............=======&&&&&&&&&&&&&&&&&&&&&&&&&&&&&&&&&&&.....................                    ",
"                                                                                                                                                                                                                                                                                                                             .......=======&&&&&&&&&&&&&&&&&&&&&&&&&&&&&&&&&&&&&&&&&&===================================.....................&&&&&&&&&&&&&&&&&&&&&&&&&&&&&&&&&&&..............=======&&&&&&&&&&&&&&&&&&&&&&&&&&&&&&&&&&&.....................                    ",
"                                                                                                                                                                                                                                                                                                                             .......=======&&&&&&&&&&&&&&&&&&&&&&&&&&&&&&&&&&&&&&&&&&===================================.....................&&&&&&&&&&&&&&&&&&&&&&&&&&&&&&&&&&&..............=======&&&&&&&&&&&&&&&&&&&&&&&&&&&&&&&&&&&.....................                    ",
"                                                                                                                                                                                                                                                                                                                             .......=======&&&&&&&&&&&&&&&&&&&&&&&&&&&&&&&&&&&&&&&&&&===================================.....................&&&&&&&&&&&&&&&&&&&&&&&&&&&&&&&&&&&..............=======&&&&&&&&&&&&&&&&&&&&&&&&&&&&&&&&&&&.....................                    ",
"                                                                                                                                                                                                                                                                                                                             .......=======&&&&&&&&&&&&&&&&&&&&&&&&&&&&&&&&&&&&&&&&&&===================================.....................&&&&&&&&&&&&&&&&&&&&&&&&&&&&&&&&&&&..............=======&&&&&&&&&&&&&&&&&&&&&&&&&&&&&&&&&&&.....................                    ",
"                                                                                                                                                                                                                                                                                                                      .......==============&&&&&&&&&&&&&&&&&&&&&&&&&&&&&&&&&&&&&&&&&&&&&&&&&===================================.....................&&&&&&&&&&&&&&..............==============&&&&&&&&&&&&&&&&&&&&&&&&&&&&&&&&&&&.......=======&&&&&&&&&&&&&&..............      ",
"                                                                                                                                                                                                                                                                                                                      .......==============&&&&&&&&&&&&&&&&&&&&&&&&&&&&&&&&&&&&&&&&&&&&&&&&&===================================.....................&&&&&&&&&&&&&&..............==============&&&&&&&&&&&&&&&&&&&&&&&&&&&&&&&&&&&.......=======&&&&&&&&&&&&&&..............      ",
"                                                                                                                                                                                                                                                                                                                      .......==============&&&&&&&&&&&&&&&&&&&&&&&&&&&&&&&&&&&&&&&&&&&&&&&&&===================================.....................&&&&&&&&&&&&&&..............==============&&&&&&&&&&&&&&&&&&&&&&&&&&&&&&&&&&&.......=======&&&&&&&&&&&&&&..............      ",
"                                                                                                                                                                                                                                                                                                                      .......==============&&&&&&&&&&&&&&&&&&&&&&&&&&&&&&&&&&&&&&&&&&&&&&&&&===================================.....................&&&&&&&&&&&&&&..............==============&&&&&&&&&&&&&&&&&&&&&&&&&&&&&&&&&&&.......=======&&&&&&&&&&&&&&..............      ",
"                                                                                                                                                                                                                                                                                                                      .......==============&&&&&&&&&&&&&&&&&&&&&&&&&&&&&&&&&&&&&&&&&&&&&&&&&===================================.....................&&&&&&&&&&&&&&..............==============&&&&&&&&&&&&&&&&&&&&&&&&&&&&&&&&&&&.......=======&&&&&&&&&&&&&&..............      ",
"                                                                                                                                                                                                                                                                                                                      .......==============&&&&&&&&&&&&&&&&&&&&&&&&&&&&&&&&&&&&&&&&&&&&&&&&&===================================.....................&&&&&&&&&&&&&&..............==============&&&&&&&&&&&&&&&&&&&&&&&&&&&&&&&&&&&.......=======&&&&&&&&&&&&&&..............      ",
"                                                                                                                                                                                                                                                                                                                      .......==============&&&&&&&&&&&&&&&&&&&&&&&&&&&&&&&&&&&&&&&&&&&&&&&&&===================================.....................&&&&&&&&&&&&&&..............==============&&&&&&&&&&&&&&&&&&&&&&&&&&&&&&&&&&&.......=======&&&&&&&&&&&&&&..............      ",
"                                                                                                                                                                                                                                                                                                                      .......==============&&&&&&&&&&&&&&&&&&&&&&&&&&&&&&&&&&&&&&&&&&&&&&&&&&&&&&&&===================================...................................=======&&&&&&&&&&&&&&&&&&&&&&&&&&&&&&&&&&&&&&&&&&..............=======&&&&&&&&&&&&&&&&&&&&&.......      ",
"                                                                                                                                                                                                                                                                                                                      .......==============&&&&&&&&&&&&&&&&&&&&&&&&&&&&&&&&&&&&&&&&&&&&&&&&&&&&&&&&===================================...................................=======&&&&&&&&&&&&&&&&&&&&&&&&&&&&&&&&&&&&&&&&&&..............=======&&&&&&&&&&&&&&&&&&&&&.......      ",
"                                                                                                                                                                                                                                                                                                                      .......==============&&&&&&&&&&&&&&&&&&&&&&&&&&&&&&&&&&&&&&&&&&&&&&&&&&&&&&&&===================================...................................=======&&&&&&&&&&&&&&&&&&&&&&&&&&&&&&&&&&&&&&&&&&..............=======&&&&&&&&&&&&&&&&&&&&&.......      ",
"                                                                                                                                                                                                                                                                                                                      .......==============&&&&&&&&&&&&&&&&&&&&&&&&&&&&&&&&&&&&&&&&&&&&&&&&&&&&&&&&===================================...................................=======&&&&&&&&&&&&&&&&&&&&&&&&&&&&&&&&&&&&&&&&&&..............=======&&&&&&&&&&&&&&&&&&&&&.......      ",
"                                                                                                                                                                                                                                                                                                                      .......==============&&&&&&&&&&&&&&&&&&&&&&&&&&&&&&&&&&&&&&&&&&&&&&&&&&&&&&&&===================================...................................=======&&&&&&&&&&&&&&&&&&&&&&&&&&&&&&&&&&&&&&&&&&..............=======&&&&&&&&&&&&&&&&&&&&&.......      ",
"                                                                                                                                                                                                                                                                                                                      .......==============&&&&&&&&&&&&&&&&&&&&&&&&&&&&&&&&&&&&&&&&&&&&&&&&&&&&&&&&===================================...................................=======&&&&&&&&&&&&&&&&&&&&&&&&&&&&&&&&&&&&&&&&&&..............=======&&&&&&&&&&&&&&&&&&&&&.......      ",
"                                                                                                                                                                                                                                                                                                                      .......==============&&&&&&&&&&&&&&&&&&&&&&&&&&&&&&&&&&&&&&&&&&&&&&&&&&&&&&&&===================================...................................=======&&&&&&&&&&&&&&&&&&&&&&&&&&&&&&&&&&&&&&&&&&..............=======&&&&&&&&&&&&&&&&&&&&&.......      ",
"                                                                                                                                                                                                                                                                                                                      .......==============&&&&&&&&&&&&&&&&&&&&&&&&&&&&&&&&&&&&&&&&&&&&&&&&&&&&&&&&==========================================.....................=======&&&&&&&&&&&&&&&&&&&&&&&&&&&&&&&&&&&&&&&&&&..............=======&&&&&&&&&&&&&&&&&&&&&&&&&&&&.......      ",
"                                                                                                                                                                                                                                                                                                                      .......==============&&&&&&&&&&&&&&&&&&&&&&&&&&&&&&&&&&&&&&&&&&&&&&&&&&&&&&&&==========================================.....................=======&&&&&&&&&&&&&&&&&&&&&&&&&&&&&&&&&&&&&&&&&&..............=======&&&&&&&&&&&&&&&&&&&&&&&&&&&&.......      ",
"                                                                                                                                                                                                                                                                                                                      .......==============&&&&&&&&&&&&&&&&&&&&&&&&&&&&&&&&&&&&&&&&&&&&&&&&&&&&&&&&==========================================.....................=======&&&&&&&&&&&&&&&&&&&&&&&&&&&&&&&&&&&&&&&&&&..............=======&&&&&&&&&&&&&&&&&&&&&&&&&&&&.......      ",
"                                                                                                                                                                                                                                                                                                                      .......==============&&&&&&&&&&&&&&&&&&&&&&&&&&&&&&&&&&&&&&&&&&&&&&&&&&&&&&&&==========================================.....................=======&&&&&&&&&&&&&&&&&&&&&&&&&&&&&&&&&&&&&&&&&&..............=======&&&&&&&&&&&&&&&&&&&&&&&&&&&&.......      ",
"                                                                                                                                                                                                                                                                                                                      .......==============&&&&&&&&&&&&&&&&&&&&&&&&&&&&&&&&&&&&&&&&&&&&&&&&&&&&&&&&==========================================.....................=======&&&&&&&&&&&&&&&&&&&&&&&&&&&&&&&&&&&&&&&&&&..............=======&&&&&&&&&&&&&&&&&&&&&&&&&&&&.......      ",
"                                                                                                                                                                                                                                                                                                                      .......==============&&&&&&&&&&&&&&&&&&&&&&&&&&&&&&&&&&&&&&&&&&&&&&&&&&&&&&&&==========================================.....................=======&&&&&&&&&&&&&&&&&&&&&&&&&&&&&&&&&&&&&&&&&&..............=======&&&&&&&&&&&&&&&&&&&&&&&&&&&&.......      ",
"                                                                                                                                                                                                                                                                                                                      .......==============&&&&&&&&&&&&&&&&&&&&&&&&&&&&&&&&&&&&&&&&&&&&&&&&&&&&&&&&==========================================.....................=======&&&&&&&&&&&&&&&&&&&&&&&&&&&&&&&&&&&&&&&&&&..............=======&&&&&&&&&&&&&&&&&&&&&&&&&&&&.......      ",
"                                                                                                                                                                                                                                                                                                                      .......==============&&&&&&&&&&&&&&&&&&&&&&&&&&&&&&&&&&&&&&&&&&&&&&&&&&&&&&&&&&&&&&&==========================================..............&&&&&&&&&&&&&&&&&&&&&&&&&&&&&&&&&&&&&&&&&&..............=======&&&&&&&&&&&&&&&&&&&&&&&&&&&&&&&&&&&.......      ",
"                                                                                                                                                                                                                                                                                                                      .......==============&&&&&&&&&&&&&&&&&&&&&&&&&&&&&&&&&&&&&&&&&&&&&&&&&&&&&&&&&&&&&&&==========================================..............&&&&&&&&&&&&&&&&&&&&&&&&&&&&&&&&&&&&&&&&&&..............=======&&&&&&&&&&&&&&&&&&&&&&&&&&&&&&&&&&&.......      ",
"                                                                                                                                                                                                                                                                                                                      .......==============&&&&&&&&&&&&&&&&&&&&&&&&&&&&&&&&&&&&&&&&&&&&&&&&&&&&&&&&&&&&&&&==========================================..............&&&&&&&&&&&&&&&&&&&&&&&&&&&&&&&&&&&&&&&&&&..............=======&&&&&&&&&&&&&&&&&&&&&&&&&&&&&&&&&&&.......      ",
"                                                                                                                                                                                                                                                                                                                      .......==============&&&&&&&&&&&&&&&&&&&&&&&&&&&&&&&&&&&&&&&&&&&&&&&&&&&&&&&&&&&&&&&==========================================..............&&&&&&&&&&&&&&&&&&&&&&&&&&&&&&&&&&&&&&&&&&..............=======&&&&&&&&&&&&&&&&&&&&&&&&&&&&&&&&&&&.......      ",
"                                                                                                                                                                                                                                                                                                                      .......==============&&&&&&&&&&&&&&&&&&&&&&&&&&&&&&&&&&&&&&&&&&&&&&&&&&&&&&&&&&&&&&&==========================================..............&&&&&&&&&&&&&&&&&&&&&&&&&&&&&&&&&&&&&&&&&&..............=======&&&&&&&&&&&&&&&&&&&&&&&&&&&&&&&&&&&.......      ",
"                                                                                                                                                                                                                                                                                                                      .......==============&&&&&&&&&&&&&&&&&&&&&&&&&&&&&&&&&&&&&&&&&&&&&&&&&&&&&&&&&&&&&&&==========================================..............&&&&&&&&&&&&&&&&&&&&&&&&&&&&&&&&&&&&&&&&&&..............=======&&&&&&&&&&&&&&&&&&&&&&&&&&&&&&&&&&&.......      ",
"                                                                                                                                                                                                                                                                                                                      .......==============&&&&&&&&&&&&&&&&&&&&&&&&&&&&&&&&&&&&&&&&&&&&&&&&&&&&&&&&&&&&&&&==========================================..............&&&&&&&&&&&&&&&&&&&&&&&&&&&&&&&&&&&&&&&&&&..............=======&&&&&&&&&&&&&&&&&&&&&&&&&&&&&&&&&&&.......      ",
"                                                                                                                                                                                                                                                                                                               .......=====================&&&&&&&&&&&&&&&&&&&&&&&&&&&&&&&&&&&&&&&&&&&&&&&&&&&&&&&&&&&&&&&=================================================..............&&&&&&&&&&&&&&&&&&&&&&&&&&&&&&&&&&&.......=======&&&&&&&&&&&&&&&&&&&&&&&&&&&&&&&&&&&&&&&&&&.......      ",
"                                                                                                                                                                                                                                                                                                               .......=====================&&&&&&&&&&&&&&&&&&&&&&&&&&&&&&&&&&&&&&&&&&&&&&&&&&&&&&&&&&&&&&&=================================================..............&&&&&&&&&&&&&&&&&&&&&&&&&&&&&&&&&&&.......=======&&&&&&&&&&&&&&&&&&&&&&&&&&&&&&&&&&&&&&&&&&.......      ",
"                                                                                                                                                                                                                                                                                                               .......=====================&&&&&&&&&&&&&&&&&&&&&&&&&&&&&&&&&&&&&&&&&&&&&&&&&&&&&&&&&&&&&&&=================================================..............&&&&&&&&&&&&&&&&&&&&&&&&&&&&&&&&&&&.......=======&&&&&&&&&&&&&&&&&&&&&&&&&&&&&&&&&&&&&&&&&&.......      ",
"                                                                                                                                                                                                                                                                                                               .......=====================&&&&&&&&&&&&&&&&&&&&&&&&&&&&&&&&&&&&&&&&&&&&&&&&&&&&&&&&&&&&&&&=================================================..............&&&&&&&&&&&&&&&&&&&&&&&&&&&&&&&&&&&.......=======&&&&&&&&&&&&&&&&&&&&&&&&&&&&&&&&&&&&&&&&&&.......      ",
"                                                                                                                                                                                                                                                                                                               .......=====================&&&&&&&&&&&&&&&&&&&&&&&&&&&&&&&&&&&&&&&&&&&&&&&&&&&&&&&&&&&&&&&=================================================..............&&&&&&&&&&&&&&&&&&&&&&&&&&&&&&&&&&&.......=======&&&&&&&&&&&&&&&&&&&&&&&&&&&&&&&&&&&&&&&&&&.......      ",
"                                                                                                                                                                                                                                                                                                               .......=====================&&&&&&&&&&&&&&&&&&&&&&&&&&&&&&&&&&&&&&&&&&&&&&&&&&&&&&&&&&&&&&&=================================================..............&&&&&&&&&&&&&&&&&&&&&&&&&&&&&&&&&&&.......=======&&&&&&&&&&&&&&&&&&&&&&&&&&&&&&&&&&&&&&&&&&.......      ",
"                                                                                                                                                                                                                                                                                                               .......=====================&&&&&&&&&&&&&&&&&&&&&&&&&&&&&&&&&&&&&&&&&&&&&&&&&&&&&&&&&&&&&&&=================================================..............&&&&&&&&&&&&&&&&&&&&&&&&&&&&&&&&&&&.......=======&&&&&&&&&&&&&&&&&&&&&&&&&&&&&&&&&&&&&&&&&&.......      ",
"                                                                                                                                                                                                                                                                                                               .......=====================&&&&&&&&&&&&&&&&&&&&&&&&&&&&&&&&&&&&&&&&&&&&&&&&&&&&&&&&&&&&&&&&&&&&&&==========================================&&&&&&&..............&&&&&&&&&&&&&&..............=======&&&&&&&&&&&&&&&&&&&&&&&&&&&&&&&&&&&&&&&&&&..............      ",
"                                                                                                                                                                                                                                                                                                               .......=====================&&&&&&&&&&&&&&&&&&&&&&&&&&&&&&&&&&&&&&&&&&&&&&&&&&&&&&&&&&&&&&&&&&&&&&==========================================&&&&&&&..............&&&&&&&&&&&&&&..............=======&&&&&&&&&&&&&&&&&&&&&&&&&&&&&&&&&&&&&&&&&&..............      ",
"                                                                                                                                                                                                                                                                                                               .......=====================&&&&&&&&&&&&&&&&&&&&&&&&&&&&&&&&&&&&&&&&&&&&&&&&&&&&&&&&&&&&&&&&&&&&&&==========================================&&&&&&&..............&&&&&&&&&&&&&&..............=======&&&&&&&&&&&&&&&&&&&&&&&&&&&&&&&&&&&&&&&&&&..............      ",
"                                                                                                                                                                                                                                                                                                               .......=====================&&&&&&&&&&&&&&&&&&&&&&&&&&&&&&&&&&&&&&&&&&&&&&&&&&&&&&&&&&&&&&&&&&&&&&==========================================&&&&&&&..............&&&&&&&&&&&&&&..............=======&&&&&&&&&&&&&&&&&&&&&&&&&&&&&&&&&&&&&&&&&&..............      ",
"                                                                                                                                                                                                                                                                                                               .......=====================&&&&&&&&&&&&&&&&&&&&&&&&&&&&&&&&&&&&&&&&&&&&&&&&&&&&&&&&&&&&&&&&&&&&&&==========================================&&&&&&&..............&&&&&&&&&&&&&&..............=======&&&&&&&&&&&&&&&&&&&&&&&&&&&&&&&&&&&&&&&&&&..............      ",
"                                                                                                                                                                                                                                                                                                               .......=====================&&&&&&&&&&&&&&&&&&&&&&&&&&&&&&&&&&&&&&&&&&&&&&&&&&&&&&&&&&&&&&&&&&&&&&==========================================&&&&&&&..............&&&&&&&&&&&&&&..............=======&&&&&&&&&&&&&&&&&&&&&&&&&&&&&&&&&&&&&&&&&&..............      ",
"                                                                                                                                                                                                                                                                                                               .......=====================&&&&&&&&&&&&&&&&&&&&&&&&&&&&&&&&&&&&&&&&&&&&&&&&&&&&&&&&&&&&&&&&&&&&&&==========================================&&&&&&&..............&&&&&&&&&&&&&&..............=======&&&&&&&&&&&&&&&&&&&&&&&&&&&&&&&&&&&&&&&&&&..............      ",
"                                                                                                                                                                                                                                                                                                               .......=====================&&&&&&&&&&&&&&&&&&&&&&&&&&&&&&&&&&&&&&&&&&&&&&&&&&&&&&&&&&&&&&&&&&&&&&==========================================&&&&&&&&&&&&&&............................=======&&&&&&&&&&&&&&&&&&&&&&&&&&&&&&&&&&&&&&&&&&..............             ",
"                                                                                                                                                                                                                                                                                                               .......=====================&&&&&&&&&&&&&&&&&&&&&&&&&&&&&&&&&&&&&&&&&&&&&&&&&&&&&&&&&&&&&&&&&&&&&&==========================================&&&&&&&&&&&&&&............................=======&&&&&&&&&&&&&&&&&&&&&&&&&&&&&&&&&&&&&&&&&&..............             ",
"                                                                                                                                                                                                                                                                                                               .......=====================&&&&&&&&&&&&&&&&&&&&&&&&&&&&&&&&&&&&&&&&&&&&&&&&&&&&&&&&&&&&&&&&&&&&&&==========================================&&&&&&&&&&&&&&............................=======&&&&&&&&&&&&&&&&&&&&&&&&&&&&&&&&&&&&&&&&&&..............             ",
"                                                                                                                                                                                                                                                                                                               .......=====================&&&&&&&&&&&&&&&&&&&&&&&&&&&&&&&&&&&&&&&&&&&&&&&&&&&&&&&&&&&&&&&&&&&&&&==========================================&&&&&&&&&&&&&&............................=======&&&&&&&&&&&&&&&&&&&&&&&&&&&&&&&&&&&&&&&&&&..............             ",
"                                                                                                                                                                                                                                                                                                               .......=====================&&&&&&&&&&&&&&&&&&&&&&&&&&&&&&&&&&&&&&&&&&&&&&&&&&&&&&&&&&&&&&&&&&&&&&==========================================&&&&&&&&&&&&&&............................=======&&&&&&&&&&&&&&&&&&&&&&&&&&&&&&&&&&&&&&&&&&..............             ",
"                                                                                                                                                                                                                                                                                                               .......=====================&&&&&&&&&&&&&&&&&&&&&&&&&&&&&&&&&&&&&&&&&&&&&&&&&&&&&&&&&&&&&&&&&&&&&&==========================================&&&&&&&&&&&&&&............................=======&&&&&&&&&&&&&&&&&&&&&&&&&&&&&&&&&&&&&&&&&&..............             ",
"                                                                                                                                                                                                                                                                                                               .......=====================&&&&&&&&&&&&&&&&&&&&&&&&&&&&&&&&&&&&&&&&&&&&&&&&&&&&&&&&&&&&&&&&&&&&&&==========================================&&&&&&&&&&&&&&............................=======&&&&&&&&&&&&&&&&&&&&&&&&&&&&&&&&&&&&&&&&&&..............             ",
"                                                                                                                                                                                                                                                                                                               .......============================&&&&&&&&&&&&&&&&&&&&&&&&&&&&&&&&&&&&&&&&&&&&&&&&&&&&&&&&&&&&&&&==========================================&&&&&&&&&&&&&&&&&&&&&..............=======&&&&&&&&&&&&&&&&&&&&&&&&&&&&&&&&&&&..............=======.......             ",
"                                                                                                                                                                                                                                                                                                               .......============================&&&&&&&&&&&&&&&&&&&&&&&&&&&&&&&&&&&&&&&&&&&&&&&&&&&&&&&&&&&&&&&==========================================&&&&&&&&&&&&&&&&&&&&&..............=======&&&&&&&&&&&&&&&&&&&&&&&&&&&&&&&&&&&..............=======.......             ",
"                                                                                                                                                                                                                                                                                                               .......============================&&&&&&&&&&&&&&&&&&&&&&&&&&&&&&&&&&&&&&&&&&&&&&&&&&&&&&&&&&&&&&&==========================================&&&&&&&&&&&&&&&&&&&&&..............=======&&&&&&&&&&&&&&&&&&&&&&&&&&&&&&&&&&&..............=======.......             ",
"                                                                                                                                                                                                                                                                                                               .......============================&&&&&&&&&&&&&&&&&&&&&&&&&&&&&&&&&&&&&&&&&&&&&&&&&&&&&&&&&&&&&&&==========================================&&&&&&&&&&&&&&&&&&&&&..............=======&&&&&&&&&&&&&&&&&&&&&&&&&&&&&&&&&&&..............=======.......             ",
"                                                                                                                                                                                                                                                                                                               .......============================&&&&&&&&&&&&&&&&&&&&&&&&&&&&&&&&&&&&&&&&&&&&&&&&&&&&&&&&&&&&&&&==========================================&&&&&&&&&&&&&&&&&&&&&..............=======&&&&&&&&&&&&&&&&&&&&&&&&&&&&&&&&&&&..............=======.......             ",
"                                                                                                                                                                                                                                                                                                               .......============================&&&&&&&&&&&&&&&&&&&&&&&&&&&&&&&&&&&&&&&&&&&&&&&&&&&&&&&&&&&&&&&==========================================&&&&&&&&&&&&&&&&&&&&&..............=======&&&&&&&&&&&&&&&&&&&&&&&&&&&&&&&&&&&..............=======.......             ",
"                                                                                                                                                                                                                                                                                                               .......============================&&&&&&&&&&&&&&&&&&&&&&&&&&&&&&&&&&&&&&&&&&&&&&&&&&&&&&&&&&&&&&&==========================================&&&&&&&&&&&&&&&&&&&&&..............=======&&&&&&&&&&&&&&&&&&&&&&&&&&&&&&&&&&&..............=======.......             ",
"                                                                                                                                                                                                                                                                                                        .......==========================================&&&&&&&&&&&&&&&&&&&&&&&&&&&&&&&&&&&&&&&&&&&&&&&&&===================================*******&&&&&&&&&&&&&&&&&&&&&&&&&&&&&&&&&&&.......&&&&&&&&&&&&&&&&&&&&&&&&&&&&&&&&&&&..............=======.......                    ",
"                                                                                                                                                                                                                                                                                                        .......==========================================&&&&&&&&&&&&&&&&&&&&&&&&&&&&&&&&&&&&&&&&&&&&&&&&&===================================*******&&&&&&&&&&&&&&&&&&&&&&&&&&&&&&&&&&&.......&&&&&&&&&&&&&&&&&&&&&&&&&&&&&&&&&&&..............=======.......                    ",
"                                                                                                                                                                                                                                                                                                        .......==========================================&&&&&&&&&&&&&&&&&&&&&&&&&&&&&&&&&&&&&&&&&&&&&&&&&===================================*******&&&&&&&&&&&&&&&&&&&&&&&&&&&&&&&&&&&.......&&&&&&&&&&&&&&&&&&&&&&&&&&&&&&&&&&&..............=======.......                    ",
"                                                                                                                                                                                                                                                                                                        .......==========================================&&&&&&&&&&&&&&&&&&&&&&&&&&&&&&&&&&&&&&&&&&&&&&&&&===================================*******&&&&&&&&&&&&&&&&&&&&&&&&&&&&&&&&&&&.......&&&&&&&&&&&&&&&&&&&&&&&&&&&&&&&&&&&..............=======.......                    ",
"                                                                                                                                                                                                                                                                                                        .......==========================================&&&&&&&&&&&&&&&&&&&&&&&&&&&&&&&&&&&&&&&&&&&&&&&&&===================================*******&&&&&&&&&&&&&&&&&&&&&&&&&&&&&&&&&&&.......&&&&&&&&&&&&&&&&&&&&&&&&&&&&&&&&&&&..............=======.......                    ",
"                                                                                                                                                                                                                                                                                                        .......==========================================&&&&&&&&&&&&&&&&&&&&&&&&&&&&&&&&&&&&&&&&&&&&&&&&&===================================*******&&&&&&&&&&&&&&&&&&&&&&&&&&&&&&&&&&&.......&&&&&&&&&&&&&&&&&&&&&&&&&&&&&&&&&&&..............=======.......                    ",
"                                                                                                                                                                                                                                                                                                        .......==========================================&&&&&&&&&&&&&&&&&&&&&&&&&&&&&&&&&&&&&&&&&&&&&&&&&===================================*******&&&&&&&&&&&&&&&&&&&&&&&&&&&&&&&&&&&.......&&&&&&&&&&&&&&&&&&&&&&&&&&&&&&&&&&&..............=======.......                    ",
"                                                                                                                                                                                                                                                                                                        .......=======**************===========================================================================================**************&&&&&&&&&&&&&&&&&&&&&&&&&&&&&&&&&&&&&&&&&&&&&&&&&.......&&&&&&&&&&&&&&&&&&&&&.......==============..............                    ",
"                                                                                                                                                                                                                                                                                                        .......=======**************===========================================================================================**************&&&&&&&&&&&&&&&&&&&&&&&&&&&&&&&&&&&&&&&&&&&&&&&&&.......&&&&&&&&&&&&&&&&&&&&&.......==============..............                    ",
"                                                                                                                                                                                                                                                                                                        .......=======**************===========================================================================================**************&&&&&&&&&&&&&&&&&&&&&&&&&&&&&&&&&&&&&&&&&&&&&&&&&.......&&&&&&&&&&&&&&&&&&&&&.......==============..............                    ",
"                                                                                                                                                                                                                                                                                                        .......=======**************===========================================================================================**************&&&&&&&&&&&&&&&&&&&&&&&&&&&&&&&&&&&&&&&&&&&&&&&&&.......&&&&&&&&&&&&&&&&&&&&&.......==============..............                    ",
"                                                                                                                                                                                                                                                                                                        .......=======**************===========================================================================================**************&&&&&&&&&&&&&&&&&&&&&&&&&&&&&&&&&&&&&&&&&&&&&&&&&.......&&&&&&&&&&&&&&&&&&&&&.......==============..............                    ",
"                                                                                                                                                                                                                                                                                                        .......=======**************===========================================================================================**************&&&&&&&&&&&&&&&&&&&&&&&&&&&&&&&&&&&&&&&&&&&&&&&&&.......&&&&&&&&&&&&&&&&&&&&&.......==============..............                    ",
"                                                                                                                                                                                                                                                                                                        .......=======**************===========================================================================================**************&&&&&&&&&&&&&&&&&&&&&&&&&&&&&&&&&&&&&&&&&&&&&&&&&.......&&&&&&&&&&&&&&&&&&&&&.......==============..............                    ",
"                                                                                                                                                                                                                                                                                                 .......==============&&&&&&&&&&&&&&*********************===============================================================*******&&&&&&&&&&&&&&&&&&&&&&&&&&&&&&&&&&&&&&&&&&&&&&&&&&&&&&&&&&&&&&&&&&&&&&.....................==============.......                                  ",
"                                                                                                                                                                                                                                                                                                 .......==============&&&&&&&&&&&&&&*********************===============================================================*******&&&&&&&&&&&&&&&&&&&&&&&&&&&&&&&&&&&&&&&&&&&&&&&&&&&&&&&&&&&&&&&&&&&&&&.....................==============.......                                  ",
"                                                                                                                                                                                                                                                                                                 .......==============&&&&&&&&&&&&&&*********************===============================================================*******&&&&&&&&&&&&&&&&&&&&&&&&&&&&&&&&&&&&&&&&&&&&&&&&&&&&&&&&&&&&&&&&&&&&&&.....................==============.......                                  ",
"                                                                                                                                                                                                                                                                                                 .......==============&&&&&&&&&&&&&&*********************===============================================================*******&&&&&&&&&&&&&&&&&&&&&&&&&&&&&&&&&&&&&&&&&&&&&&&&&&&&&&&&&&&&&&&&&&&&&&.....................==============.......                                  ",
"                                                                                                                                                                                                                                                                                                 .......==============&&&&&&&&&&&&&&*********************===============================================================*******&&&&&&&&&&&&&&&&&&&&&&&&&&&&&&&&&&&&&&&&&&&&&&&&&&&&&&&&&&&&&&&&&&&&&&.....................==============.......                                  ",
"                                                                                                                                                                                                                                                                                                 .......==============&&&&&&&&&&&&&&*********************===============================================================*******&&&&&&&&&&&&&&&&&&&&&&&&&&&&&&&&&&&&&&&&&&&&&&&&&&&&&&&&&&&&&&&&&&&&&&.....................==============.......                                  ",
"                                                                                                                                                                                                                                                                                                 .......==============&&&&&&&&&&&&&&*********************===============================================================*******&&&&&&&&&&&&&&&&&&&&&&&&&&&&&&&&&&&&&&&&&&&&&&&&&&&&&&&&&&&&&&&&&&&&&&.....................==============.......                                  ",
"                                                                                                                                                                                                                                                                                                 .......==============&&&&&&&&&&&&&&&&&&&&&&&&&&&&&&&&&&&*********************===================================*******&&&&&&&&&&&&&&&&&&&&&&&&&&&&&&&&&&&&&&&&&&&&&&&&&&&&&&&&&&&&&&&&&&&&&&&&&&&&&&&&&&&&&&&&&&&=====================.......                                  ",
"                                                                                                                                                                                                                                                                                                 .......==============&&&&&&&&&&&&&&&&&&&&&&&&&&&&&&&&&&&*********************===================================*******&&&&&&&&&&&&&&&&&&&&&&&&&&&&&&&&&&&&&&&&&&&&&&&&&&&&&&&&&&&&&&&&&&&&&&&&&&&&&&&&&&&&&&&&&&&=====================.......                                  ",
"                                                                                                                                                                                                                                                                                                 .......==============&&&&&&&&&&&&&&&&&&&&&&&&&&&&&&&&&&&*********************===================================*******&&&&&&&&&&&&&&&&&&&&&&&&&&&&&&&&&&&&&&&&&&&&&&&&&&&&&&&&&&&&&&&&&&&&&&&&&&&&&&&&&&&&&&&&&&&=====================.......                                  ",
"                                                                                                                                                                                                                                                                                                 .......==============&&&&&&&&&&&&&&&&&&&&&&&&&&&&&&&&&&&*********************===================================*******&&&&&&&&&&&&&&&&&&&&&&&&&&&&&&&&&&&&&&&&&&&&&&&&&&&&&&&&&&&&&&&&&&&&&&&&&&&&&&&&&&&&&&&&&&&=====================.......                                  ",
"                                                                                                                                                                                                                                                                                                 .......==============&&&&&&&&&&&&&&&&&&&&&&&&&&&&&&&&&&&*********************===================================*******&&&&&&&&&&&&&&&&&&&&&&&&&&&&&&&&&&&&&&&&&&&&&&&&&&&&&&&&&&&&&&&&&&&&&&&&&&&&&&&&&&&&&&&&&&&=====================.......                                  ",
"                                                                                                                                                                                                                                                                                                 .......==============&&&&&&&&&&&&&&&&&&&&&&&&&&&&&&&&&&&*********************===================================*******&&&&&&&&&&&&&&&&&&&&&&&&&&&&&&&&&&&&&&&&&&&&&&&&&&&&&&&&&&&&&&&&&&&&&&&&&&&&&&&&&&&&&&&&&&&=====================.......                                  ",
"                                                                                                                                                                                                                                                                                                 .......==============&&&&&&&&&&&&&&&&&&&&&&&&&&&&&&&&&&&*********************===================================*******&&&&&&&&&&&&&&&&&&&&&&&&&&&&&&&&&&&&&&&&&&&&&&&&&&&&&&&&&&&&&&&&&&&&&&&&&&&&&&&&&&&&&&&&&&&=====================.......                                  ",
"                                                                                                                                                                                                                                                                                          .......==============&&&&&&&&&&&&&&&&&&&&&&&&&&&&&&&&&&&&&&&&&&&&&&&&&&&&&&&&&&&&&&&***********************************&&&&&&&&&&&&&&&&&&&&&&&&&&&&&&&&&&&&&&&&&&&&&&&&&&&&&&&&&&&&&&&&&&&&&&&&&&&&&&&&&&&&&&&&&&&=====================.......                                         ",
"                                                                                                                                                                                                                                                                                          .......==============&&&&&&&&&&&&&&&&&&&&&&&&&&&&&&&&&&&&&&&&&&&&&&&&&&&&&&&&&&&&&&&***********************************&&&&&&&&&&&&&&&&&&&&&&&&&&&&&&&&&&&&&&&&&&&&&&&&&&&&&&&&&&&&&&&&&&&&&&&&&&&&&&&&&&&&&&&&&&&=====================.......                                         ",
"                                                                                                                                                                                                                                                                                          .......==============&&&&&&&&&&&&&&&&&&&&&&&&&&&&&&&&&&&&&&&&&&&&&&&&&&&&&&&&&&&&&&&***********************************&&&&&&&&&&&&&&&&&&&&&&&&&&&&&&&&&&&&&&&&&&&&&&&&&&&&&&&&&&&&&&&&&&&&&&&&&&&&&&&&&&&&&&&&&&&=====================.......                                         ",
"                                                                                                                                                                                                                                                                                          .......==============&&&&&&&&&&&&&&&&&&&&&&&&&&&&&&&&&&&&&&&&&&&&&&&&&&&&&&&&&&&&&&&***********************************&&&&&&&&&&&&&&&&&&&&&&&&&&&&&&&&&&&&&&&&&&&&&&&&&&&&&&&&&&&&&&&&&&&&&&&&&&&&&&&&&&&&&&&&&&&=====================.......                                         ",
"                                                                                                                                                                                                                                                                                          .......==============&&&&&&&&&&&&&&&&&&&&&&&&&&&&&&&&&&&&&&&&&&&&&&&&&&&&&&&&&&&&&&&***********************************&&&&&&&&&&&&&&&&&&&&&&&&&&&&&&&&&&&&&&&&&&&&&&&&&&&&&&&&&&&&&&&&&&&&&&&&&&&&&&&&&&&&&&&&&&&=====================.......                                         ",
"                                                                                                                                                                                                                                                                                          .......==============&&&&&&&&&&&&&&&&&&&&&&&&&&&&&&&&&&&&&&&&&&&&&&&&&&&&&&&&&&&&&&&***********************************&&&&&&&&&&&&&&&&&&&&&&&&&&&&&&&&&&&&&&&&&&&&&&&&&&&&&&&&&&&&&&&&&&&&&&&&&&&&&&&&&&&&&&&&&&&=====================.......                                         ",
"                                                                                                                                                                                                                                                                                          .......==============&&&&&&&&&&&&&&&&&&&&&&&&&&&&&&&&&&&&&&&&&&&&&&&&&&&&&&&&&&&&&&&***********************************&&&&&&&&&&&&&&&&&&&&&&&&&&&&&&&&&&&&&&&&&&&&&&&&&&&&&&&&&&&&&&&&&&&&&&&&&&&&&&&&&&&&&&&&&&&=====================.......                                         ",
"                                                                                                                                                                                                                                                                                          .......==============&&&&&&&&&&&&&&&&&&&&&&&&&&&&&&&&&&&&&&&&&&&&&&&&&&&&&&&&&&&&&&&&&&&&&&&&&&&&&&&&&&&&&&&&&&&&&&&&&&&&&&&&&&&&&&&&&&&&&&&&&&&&&&&&&&&&&&&&&&&&&&&&&&&&&&&&&&&&&&&&&&&&&&&&&&&&&&&&&&&&&&&&&&&&&==============.......                                                ",
"                                                                                                                                                                                                                                                                                          .......==============&&&&&&&&&&&&&&&&&&&&&&&&&&&&&&&&&&&&&&&&&&&&&&&&&&&&&&&&&&&&&&&&&&&&&&&&&&&&&&&&&&&&&&&&&&&&&&&&&&&&&&&&&&&&&&&&&&&&&&&&&&&&&&&&&&&&&&&&&&&&&&&&&&&&&&&&&&&&&&&&&&&&&&&&&&&&&&&&&&&&&&&&&&&&&==============.......                                                ",
"                                                                                                                                                                                                                                                                                          .......==============&&&&&&&&&&&&&&&&&&&&&&&&&&&&&&&&&&&&&&&&&&&&&&&&&&&&&&&&&&&&&&&&&&&&&&&&&&&&&&&&&&&&&&&&&&&&&&&&&&&&&&&&&&&&&&&&&&&&&&&&&&&&&&&&&&&&&&&&&&&&&&&&&&&&&&&&&&&&&&&&&&&&&&&&&&&&&&&&&&&&&&&&&&&&&==============.......                                                ",
"                                                                                                                                                                                                                                                                                          .......==============&&&&&&&&&&&&&&&&&&&&&&&&&&&&&&&&&&&&&&&&&&&&&&&&&&&&&&&&&&&&&&&&&&&&&&&&&&&&&&&&&&&&&&&&&&&&&&&&&&&&&&&&&&&&&&&&&&&&&&&&&&&&&&&&&&&&&&&&&&&&&&&&&&&&&&&&&&&&&&&&&&&&&&&&&&&&&&&&&&&&&&&&&&&&&==============.......                                                ",
"                                                                                                                                                                                                                                                                                          .......==============&&&&&&&&&&&&&&&&&&&&&&&&&&&&&&&&&&&&&&&&&&&&&&&&&&&&&&&&&&&&&&&&&&&&&&&&&&&&&&&&&&&&&&&&&&&&&&&&&&&&&&&&&&&&&&&&&&&&&&&&&&&&&&&&&&&&&&&&&&&&&&&&&&&&&&&&&&&&&&&&&&&&&&&&&&&&&&&&&&&&&&&&&&&&&==============.......                                                ",
"                                                                                                                                                                                                                                                                                          .......==============&&&&&&&&&&&&&&&&&&&&&&&&&&&&&&&&&&&&&&&&&&&&&&&&&&&&&&&&&&&&&&&&&&&&&&&&&&&&&&&&&&&&&&&&&&&&&&&&&&&&&&&&&&&&&&&&&&&&&&&&&&&&&&&&&&&&&&&&&&&&&&&&&&&&&&&&&&&&&&&&&&&&&&&&&&&&&&&&&&&&&&&&&&&&&==============.......                                                ",
"                                                                                                                                                                                                                                                                                          .......==============&&&&&&&&&&&&&&&&&&&&&&&&&&&&&&&&&&&&&&&&&&&&&&&&&&&&&&&&&&&&&&&&&&&&&&&&&&&&&&&&&&&&&&&&&&&&&&&&&&&&&&&&&&&&&&&&&&&&&&&&&&&&&&&&&&&&&&&&&&&&&&&&&&&&&&&&&&&&&&&&&&&&&&&&&&&&&&&&&&&&&&&&&&&&&==============.......                                                ",
"                                                                                                                                                                                                                                                                                   .......=====================&&&&&&&&&&&&&&&&&&&&&&&&&&&&&&&&&&&&&&&&&&&&&&&&&&&&&&&&&&&&&&&&&&&&&&&&&&&&&&&&&&&&&&&&&&&&&&&&&&&&&&&&&&&&&&&&&&&&&&&&&&&&&&&&&&&&&&&&&&&&&&&&&&&&&&&&&&&&&&&&&&&&&&&&&&&&&&&&&&&&&&==============..............                                                ",
"                                                                                                                                                                                                                                                                                   .......=====================&&&&&&&&&&&&&&&&&&&&&&&&&&&&&&&&&&&&&&&&&&&&&&&&&&&&&&&&&&&&&&&&&&&&&&&&&&&&&&&&&&&&&&&&&&&&&&&&&&&&&&&&&&&&&&&&&&&&&&&&&&&&&&&&&&&&&&&&&&&&&&&&&&&&&&&&&&&&&&&&&&&&&&&&&&&&&&&&&&&&&&==============..............                                                ",
"                                                                                                                                                                                                                                                                                   .......=====================&&&&&&&&&&&&&&&&&&&&&&&&&&&&&&&&&&&&&&&&&&&&&&&&&&&&&&&&&&&&&&&&&&&&&&&&&&&&&&&&&&&&&&&&&&&&&&&&&&&&&&&&&&&&&&&&&&&&&&&&&&&&&&&&&&&&&&&&&&&&&&&&&&&&&&&&&&&&&&&&&&&&&&&&&&&&&&&&&&&&&&==============..............                                                ",
"                                                                                                                                                                                                                                                                                   .......=====================&&&&&&&&&&&&&&&&&&&&&&&&&&&&&&&&&&&&&&&&&&&&&&&&&&&&&&&&&&&&&&&&&&&&&&&&&&&&&&&&&&&&&&&&&&&&&&&&&&&&&&&&&&&&&&&&&&&&&&&&&&&&&&&&&&&&&&&&&&&&&&&&&&&&&&&&&&&&&&&&&&&&&&&&&&&&&&&&&&&&&&==============..............                                                ",
"                                                                                                                                                                                                                                                                                   .......=====================&&&&&&&&&&&&&&&&&&&&&&&&&&&&&&&&&&&&&&&&&&&&&&&&&&&&&&&&&&&&&&&&&&&&&&&&&&&&&&&&&&&&&&&&&&&&&&&&&&&&&&&&&&&&&&&&&&&&&&&&&&&&&&&&&&&&&&&&&&&&&&&&&&&&&&&&&&&&&&&&&&&&&&&&&&&&&&&&&&&&&&==============..............                                                ",
"                                                                                                                                                                                                                                                                                   .......=====================&&&&&&&&&&&&&&&&&&&&&&&&&&&&&&&&&&&&&&&&&&&&&&&&&&&&&&&&&&&&&&&&&&&&&&&&&&&&&&&&&&&&&&&&&&&&&&&&&&&&&&&&&&&&&&&&&&&&&&&&&&&&&&&&&&&&&&&&&&&&&&&&&&&&&&&&&&&&&&&&&&&&&&&&&&&&&&&&&&&&&&==============..............                                                ",
"                                                                                                                                                                                                                                                                                   .......=====================&&&&&&&&&&&&&&&&&&&&&&&&&&&&&&&&&&&&&&&&&&&&&&&&&&&&&&&&&&&&&&&&&&&&&&&&&&&&&&&&&&&&&&&&&&&&&&&&&&&&&&&&&&&&&&&&&&&&&&&&&&&&&&&&&&&&&&&&&&&&&&&&&&&&&&&&&&&&&&&&&&&&&&&&&&&&&&&&&&&&&&==============..............                                                ",
"                                                                                                                                                                                                                                                                            .......=====================&&&&&&&&&&&&&&&&&&&&&&&&&&&&&&&&&&&&&&&&&&&&&&&&&&&&&&&&&&&&&&&&&&&&&&&&&&&&&&&&&&&&&&&&&&&&&&&&&&&&&&&&&&&&&&&&&&&&&&&&&&&&&&&&&&&&&&&&&&&&&&&&&&&&&&&&&&&&&&&&&&&&&&&&&&&&&&&&&&&&&&=====================.......                                                       ",
"                                                                                                                                                                                                                                                                            .......=====================&&&&&&&&&&&&&&&&&&&&&&&&&&&&&&&&&&&&&&&&&&&&&&&&&&&&&&&&&&&&&&&&&&&&&&&&&&&&&&&&&&&&&&&&&&&&&&&&&&&&&&&&&&&&&&&&&&&&&&&&&&&&&&&&&&&&&&&&&&&&&&&&&&&&&&&&&&&&&&&&&&&&&&&&&&&&&&&&&&&&&&=====================.......                                                       ",
"                                                                                                                                                                                                                                                                            .......=====================&&&&&&&&&&&&&&&&&&&&&&&&&&&&&&&&&&&&&&&&&&&&&&&&&&&&&&&&&&&&&&&&&&&&&&&&&&&&&&&&&&&&&&&&&&&&&&&&&&&&&&&&&&&&&&&&&&&&&&&&&&&&&&&&&&&&&&&&&&&&&&&&&&&&&&&&&&&&&&&&&&&&&&&&&&&&&&&&&&&&&&=====================.......                                                       ",
"                                                                                                                                                                                                                                                                            .......=====================&&&&&&&&&&&&&&&&&&&&&&&&&&&&&&&&&&&&&&&&&&&&&&&&&&&&&&&&&&&&&&&&&&&&&&&&&&&&&&&&&&&&&&&&&&&&&&&&&&&&&&&&&&&&&&&&&&&&&&&&&&&&&&&&&&&&&&&&&&&&&&&&&&&&&&&&&&&&&&&&&&&&&&&&&&&&&&&&&&&&&&=====================.......                                                       ",
"                                                                                                                                                                                                                                                                            .......=====================&&&&&&&&&&&&&&&&&&&&&&&&&&&&&&&&&&&&&&&&&&&&&&&&&&&&&&&&&&&&&&&&&&&&&&&&&&&&&&&&&&&&&&&&&&&&&&&&&&&&&&&&&&&&&&&&&&&&&&&&&&&&&&&&&&&&&&&&&&&&&&&&&&&&&&&&&&&&&&&&&&&&&&&&&&&&&&&&&&&&&&=====================.......                                                       ",
"                                                                                                                                                                                                                                                                            .......=====================&&&&&&&&&&&&&&&&&&&&&&&&&&&&&&&&&&&&&&&&&&&&&&&&&&&&&&&&&&&&&&&&&&&&&&&&&&&&&&&&&&&&&&&&&&&&&&&&&&&&&&&&&&&&&&&&&&&&&&&&&&&&&&&&&&&&&&&&&&&&&&&&&&&&&&&&&&&&&&&&&&&&&&&&&&&&&&&&&&&&&&=====================.......                                                       ",
"                                                                                                                                                                                                                                                                            .......=====================&&&&&&&&&&&&&&&&&&&&&&&&&&&&&&&&&&&&&&&&&&&&&&&&&&&&&&&&&&&&&&&&&&&&&&&&&&&&&&&&&&&&&&&&&&&&&&&&&&&&&&&&&&&&&&&&&&&&&&&&&&&&&&&&&&&&&&&&&&&&&&&&&&&&&&&&&&&&&&&&&&&&&&&&&&&&&&&&&&&&&&=====================.......                                                       ",
"                                                                                                                                                                                                                                                                     .......=====================&&&&&&&&&&&&&&&&&&&&&&&&&&&&&&&&&&&&&&&&&&&&&&&&&&&&&&&&&&&&&&&&&&&&&&&&&&&&&&&&&&&&&&&&&&&&&&&&&&&&&&&&&&&&&&&&&&&&&&&&&&&&&&&&&&&&&&&&&&&&&&&&&&&&&&&&&&&&&&&&&&&&&&&&&&&&&&&&&&&&&&=====================..............                                                       ",
"                                                                                                                                                                                                                                                                     .......=====================&&&&&&&&&&&&&&&&&&&&&&&&&&&&&&&&&&&&&&&&&&&&&&&&&&&&&&&&&&&&&&&&&&&&&&&&&&&&&&&&&&&&&&&&&&&&&&&&&&&&&&&&&&&&&&&&&&&&&&&&&&&&&&&&&&&&&&&&&&&&&&&&&&&&&&&&&&&&&&&&&&&&&&&&&&&&&&&&&&&&&&=====================..............                                                       ",
"                                                                                                                                                                                                                                                                     .......=====================&&&&&&&&&&&&&&&&&&&&&&&&&&&&&&&&&&&&&&&&&&&&&&&&&&&&&&&&&&&&&&&&&&&&&&&&&&&&&&&&&&&&&&&&&&&&&&&&&&&&&&&&&&&&&&&&&&&&&&&&&&&&&&&&&&&&&&&&&&&&&&&&&&&&&&&&&&&&&&&&&&&&&&&&&&&&&&&&&&&&&&=====================..............                                                       ",
"                                                                                                                                                                                                                                                                     .......=====================&&&&&&&&&&&&&&&&&&&&&&&&&&&&&&&&&&&&&&&&&&&&&&&&&&&&&&&&&&&&&&&&&&&&&&&&&&&&&&&&&&&&&&&&&&&&&&&&&&&&&&&&&&&&&&&&&&&&&&&&&&&&&&&&&&&&&&&&&&&&&&&&&&&&&&&&&&&&&&&&&&&&&&&&&&&&&&&&&&&&&&=====================..............                                                       ",
"                                                                                                                                                                                                                                                                     .......=====================&&&&&&&&&&&&&&&&&&&&&&&&&&&&&&&&&&&&&&&&&&&&&&&&&&&&&&&&&&&&&&&&&&&&&&&&&&&&&&&&&&&&&&&&&&&&&&&&&&&&&&&&&&&&&&&&&&&&&&&&&&&&&&&&&&&&&&&&&&&&&&&&&&&&&&&&&&&&&&&&&&&&&&&&&&&&&&&&&&&&&&=====================..............                                                       ",
"                                                                                                                                                                                                                                                                     .......=====================&&&&&&&&&&&&&&&&&&&&&&&&&&&&&&&&&&&&&&&&&&&&&&&&&&&&&&&&&&&&&&&&&&&&&&&&&&&&&&&&&&&&&&&&&&&&&&&&&&&&&&&&&&&&&&&&&&&&&&&&&&&&&&&&&&&&&&&&&&&&&&&&&&&&&&&&&&&&&&&&&&&&&&&&&&&&&&&&&&&&&&=====================..............                                                       ",
"                                                                                                                                                                                                                                                                     .......=====================&&&&&&&&&&&&&&&&&&&&&&&&&&&&&&&&&&&&&&&&&&&&&&&&&&&&&&&&&&&&&&&&&&&&&&&&&&&&&&&&&&&&&&&&&&&&&&&&&&&&&&&&&&&&&&&&&&&&&&&&&&&&&&&&&&&&&&&&&&&&&&&&&&&&&&&&&&&&&&&&&&&&&&&&&&&&&&&&&&&&&&=====================..............                                                       ",
"                                                                                                                                                                                                                                                              .......=====================&&&&&&&&&&&&&&&&&&&&&&&&&&&&&&&&&&&&&&&&&&&&&&&&&&&&&&&&&&&&&&&&&&&&&&&&&&&&&&&&&&&&&&&&&&&&&&&&&&&&&&&&&&&&&&&&&&&&&&&&&&&&&&&&&&&&&&&&&&&&&&&&&&&&&&&&&&&&&&&&&&&&&&&&&&&&&&&&&&&&&&=====================.......                                                                     ",
"                                                                                                                                                                                                                                                              .......=====================&&&&&&&&&&&&&&&&&&&&&&&&&&&&&&&&&&&&&&&&&&&&&&&&&&&&&&&&&&&&&&&&&&&&&&&&&&&&&&&&&&&&&&&&&&&&&&&&&&&&&&&&&&&&&&&&&&&&&&&&&&&&&&&&&&&&&&&&&&&&&&&&&&&&&&&&&&&&&&&&&&&&&&&&&&&&&&&&&&&&&&=====================.......                                                                     ",
"                                                                                                                                                                                                                                                              .......=====================&&&&&&&&&&&&&&&&&&&&&&&&&&&&&&&&&&&&&&&&&&&&&&&&&&&&&&&&&&&&&&&&&&&&&&&&&&&&&&&&&&&&&&&&&&&&&&&&&&&&&&&&&&&&&&&&&&&&&&&&&&&&&&&&&&&&&&&&&&&&&&&&&&&&&&&&&&&&&&&&&&&&&&&&&&&&&&&&&&&&&&=====================.......                                                                     ",
"                                                                                                                                                                                                                                                              .......=====================&&&&&&&&&&&&&&&&&&&&&&&&&&&&&&&&&&&&&&&&&&&&&&&&&&&&&&&&&&&&&&&&&&&&&&&&&&&&&&&&&&&&&&&&&&&&&&&&&&&&&&&&&&&&&&&&&&&&&&&&&&&&&&&&&&&&&&&&&&&&&&&&&&&&&&&&&&&&&&&&&&&&&&&&&&&&&&&&&&&&&&=====================.......                                                                     ",
"                                                                                                                                                                                                                                                              .......=====================&&&&&&&&&&&&&&&&&&&&&&&&&&&&&&&&&&&&&&&&&&&&&&&&&&&&&&&&&&&&&&&&&&&&&&&&&&&&&&&&&&&&&&&&&&&&&&&&&&&&&&&&&&&&&&&&&&&&&&&&&&&&&&&&&&&&&&&&&&&&&&&&&&&&&&&&&&&&&&&&&&&&&&&&&&&&&&&&&&&&&&=====================.......                                                                     ",
"                                                                                                                                                                                                                                                              .......=====================&&&&&&&&&&&&&&&&&&&&&&&&&&&&&&&&&&&&&&&&&&&&&&&&&&&&&&&&&&&&&&&&&&&&&&&&&&&&&&&&&&&&&&&&&&&&&&&&&&&&&&&&&&&&&&&&&&&&&&&&&&&&&&&&&&&&&&&&&&&&&&&&&&&&&&&&&&&&&&&&&&&&&&&&&&&&&&&&&&&&&&=====================.......                                                                     ",
"                                                                                                                                                                                                                                                              .......=====================&&&&&&&&&&&&&&&&&&&&&&&&&&&&&&&&&&&&&&&&&&&&&&&&&&&&&&&&&&&&&&&&&&&&&&&&&&&&&&&&&&&&&&&&&&&&&&&&&&&&&&&&&&&&&&&&&&&&&&&&&&&&&&&&&&&&&&&&&&&&&&&&&&&&&&&&&&&&&&&&&&&&&&&&&&&&&&&&&&&&&&=====================.......                                                                     ",
"                                                                                                                                                                                                                                                       .......=====================&&&&&&&&&&&&&&&&&&&&&&&&&&&&&&&&&&&&&&&&&&&&&&&&&&&&&&&&&&&&&&&&&&&&&&&&&&&&&&&&&&&&&&&&&&&&&&&&&&&&&&&&&&&&&&&&&&&&&&&&&&&&&&&&&&&&&.......&&&&&&&&&&&&&&&&&&&&&&&&&&&&&&&&&&&============================.......                                                                            ",
"                                                                                                                                                                                                                                                       .......=====================&&&&&&&&&&&&&&&&&&&&&&&&&&&&&&&&&&&&&&&&&&&&&&&&&&&&&&&&&&&&&&&&&&&&&&&&&&&&&&&&&&&&&&&&&&&&&&&&&&&&&&&&&&&&&&&&&&&&&&&&&&&&&&&&&&&&&.......&&&&&&&&&&&&&&&&&&&&&&&&&&&&&&&&&&&============================.......                                                                            ",
"                                                                                                                                                                                                                                                       .......=====================&&&&&&&&&&&&&&&&&&&&&&&&&&&&&&&&&&&&&&&&&&&&&&&&&&&&&&&&&&&&&&&&&&&&&&&&&&&&&&&&&&&&&&&&&&&&&&&&&&&&&&&&&&&&&&&&&&&&&&&&&&&&&&&&&&&&&.......&&&&&&&&&&&&&&&&&&&&&&&&&&&&&&&&&&&============================.......                                                                            ",
"                                                                                                                                                                                                                                                       .......=====================&&&&&&&&&&&&&&&&&&&&&&&&&&&&&&&&&&&&&&&&&&&&&&&&&&&&&&&&&&&&&&&&&&&&&&&&&&&&&&&&&&&&&&&&&&&&&&&&&&&&&&&&&&&&&&&&&&&&&&&&&&&&&&&&&&&&&.......&&&&&&&&&&&&&&&&&&&&&&&&&&&&&&&&&&&============================.......                                                                            ",
"                                                                                                                                                                                                                                                       .......=====================&&&&&&&&&&&&&&&&&&&&&&&&&&&&&&&&&&&&&&&&&&&&&&&&&&&&&&&&&&&&&&&&&&&&&&&&&&&&&&&&&&&&&&&&&&&&&&&&&&&&&&&&&&&&&&&&&&&&&&&&&&&&&&&&&&&&&.......&&&&&&&&&&&&&&&&&&&&&&&&&&&&&&&&&&&============================.......                                                                            ",
"                                                                                                                                                                                                                                                       .......=====================&&&&&&&&&&&&&&&&&&&&&&&&&&&&&&&&&&&&&&&&&&&&&&&&&&&&&&&&&&&&&&&&&&&&&&&&&&&&&&&&&&&&&&&&&&&&&&&&&&&&&&&&&&&&&&&&&&&&&&&&&&&&&&&&&&&&&.......&&&&&&&&&&&&&&&&&&&&&&&&&&&&&&&&&&&============================.......                                                                            ",
"                                                                                                                                                                                                                                                       .......=====================&&&&&&&&&&&&&&&&&&&&&&&&&&&&&&&&&&&&&&&&&&&&&&&&&&&&&&&&&&&&&&&&&&&&&&&&&&&&&&&&&&&&&&&&&&&&&&&&&&&&&&&&&&&&&&&&&&&&&&&&&&&&&&&&&&&&&.......&&&&&&&&&&&&&&&&&&&&&&&&&&&&&&&&&&&============================.......                                                                            ",
"                                                                                                                                                                                                                                                .......=====================&&&&&&&&&&&&&&&&&&&&&&&&&&&&&&&&&&&&&&&&&&&&&&&&&&&&&&&&&&&&&&&&&&&&&&&&&&&&&&&&&&&&&&&&&&&&&&&&&&&&&&&&&&&&&&&&&&&&&&&&&&&&&&&&&&&&&&&&&&&&=======.......&&&&&&&&&&&&&&============================..............                                                                                   ",
"                                                                                                                                                                                                                                                .......=====================&&&&&&&&&&&&&&&&&&&&&&&&&&&&&&&&&&&&&&&&&&&&&&&&&&&&&&&&&&&&&&&&&&&&&&&&&&&&&&&&&&&&&&&&&&&&&&&&&&&&&&&&&&&&&&&&&&&&&&&&&&&&&&&&&&&&&&&&&&&&=======.......&&&&&&&&&&&&&&============================..............                                                                                   ",
"                                                                                                                                                                                                                                                .......=====================&&&&&&&&&&&&&&&&&&&&&&&&&&&&&&&&&&&&&&&&&&&&&&&&&&&&&&&&&&&&&&&&&&&&&&&&&&&&&&&&&&&&&&&&&&&&&&&&&&&&&&&&&&&&&&&&&&&&&&&&&&&&&&&&&&&&&&&&&&&&=======.......&&&&&&&&&&&&&&============================..............                                                                                   ",
"                                                                                                                                                                                                                                                .......=====================&&&&&&&&&&&&&&&&&&&&&&&&&&&&&&&&&&&&&&&&&&&&&&&&&&&&&&&&&&&&&&&&&&&&&&&&&&&&&&&&&&&&&&&&&&&&&&&&&&&&&&&&&&&&&&&&&&&&&&&&&&&&&&&&&&&&&&&&&&&&=======.......&&&&&&&&&&&&&&============================..............                                                                                   ",
"                                                                                                                                                                                                                                                .......=====================&&&&&&&&&&&&&&&&&&&&&&&&&&&&&&&&&&&&&&&&&&&&&&&&&&&&&&&&&&&&&&&&&&&&&&&&&&&&&&&&&&&&&&&&&&&&&&&&&&&&&&&&&&&&&&&&&&&&&&&&&&&&&&&&&&&&&&&&&&&&=======.......&&&&&&&&&&&&&&============================..............                                                                                   ",
"                                                                                                                                                                                                                                                .......=====================&&&&&&&&&&&&&&&&&&&&&&&&&&&&&&&&&&&&&&&&&&&&&&&&&&&&&&&&&&&&&&&&&&&&&&&&&&&&&&&&&&&&&&&&&&&&&&&&&&&&&&&&&&&&&&&&&&&&&&&&&&&&&&&&&&&&&&&&&&&&=======.......&&&&&&&&&&&&&&============================..............                                                                                   ",
"                                                                                                                                                                                                                                                .......=====================&&&&&&&&&&&&&&&&&&&&&&&&&&&&&&&&&&&&&&&&&&&&&&&&&&&&&&&&&&&&&&&&&&&&&&&&&&&&&&&&&&&&&&&&&&&&&&&&&&&&&&&&&&&&&&&&&&&&&&&&&&&&&&&&&&&&&&&&&&&&=======.......&&&&&&&&&&&&&&============================..............                                                                                   ",
"                                                                                                                                                                                                                                         .......=====================&&&&&&&&&&&&&&&&&&&&&&&&&&&&&&&&&&&&&&&&&&&&&&&&&&&&&&&&&&&&&&&&&&&&&&&&&&&&&&&&&&&&&&&&&&&&&&&&&&&&&&&&&&&&&&&&&&&&&&&&&&&&&&&&&&&&&&&&&&&&&&&&&&&==============.......=====================..............                                                                                                 ",
"                                                                                                                                                                                                                                         .......=====================&&&&&&&&&&&&&&&&&&&&&&&&&&&&&&&&&&&&&&&&&&&&&&&&&&&&&&&&&&&&&&&&&&&&&&&&&&&&&&&&&&&&&&&&&&&&&&&&&&&&&&&&&&&&&&&&&&&&&&&&&&&&&&&&&&&&&&&&&&&&&&&&&&&==============.......=====================..............                                                                                                 ",
"                                                                                                                                                                                                                                         .......=====================&&&&&&&&&&&&&&&&&&&&&&&&&&&&&&&&&&&&&&&&&&&&&&&&&&&&&&&&&&&&&&&&&&&&&&&&&&&&&&&&&&&&&&&&&&&&&&&&&&&&&&&&&&&&&&&&&&&&&&&&&&&&&&&&&&&&&&&&&&&&&&&&&&&==============.......=====================..............                                                                                                 ",
"                                                                                                                                                                                                                                         .......=====================&&&&&&&&&&&&&&&&&&&&&&&&&&&&&&&&&&&&&&&&&&&&&&&&&&&&&&&&&&&&&&&&&&&&&&&&&&&&&&&&&&&&&&&&&&&&&&&&&&&&&&&&&&&&&&&&&&&&&&&&&&&&&&&&&&&&&&&&&&&&&&&&&&&==============.......=====================..............                                                                                                 ",
"                                                                                                                                                                                                                                         .......=====================&&&&&&&&&&&&&&&&&&&&&&&&&&&&&&&&&&&&&&&&&&&&&&&&&&&&&&&&&&&&&&&&&&&&&&&&&&&&&&&&&&&&&&&&&&&&&&&&&&&&&&&&&&&&&&&&&&&&&&&&&&&&&&&&&&&&&&&&&&&&&&&&&&&==============.......=====================..............                                                                                                 ",
"                                                                                                                                                                                                                                         .......=====================&&&&&&&&&&&&&&&&&&&&&&&&&&&&&&&&&&&&&&&&&&&&&&&&&&&&&&&&&&&&&&&&&&&&&&&&&&&&&&&&&&&&&&&&&&&&&&&&&&&&&&&&&&&&&&&&&&&&&&&&&&&&&&&&&&&&&&&&&&&&&&&&&&&==============.......=====================..............                                                                                                 ",
"                                                                                                                                                                                                                                         .......=====================&&&&&&&&&&&&&&&&&&&&&&&&&&&&&&&&&&&&&&&&&&&&&&&&&&&&&&&&&&&&&&&&&&&&&&&&&&&&&&&&&&&&&&&&&&&&&&&&&&&&&&&&&&&&&&&&&&&&&&&&&&&&&&&&&&&&&&&&&&&&&&&&&&&==============.......=====================..............                                                                                                 ",
"                                                                                                                                                                                                                                  .......=====================&&&&&&&&&&&&&&&&&&&&&&&&&&&&&&&&&&&&&&&&&&&&&&&&&&&&&&&&&&&&&&&&&&&&&&&&&&&&&&&&&&&&&&&&&&&&&&&&&&&&&&&&&&&&&&&&&&&&&&&&&&&&&&&&&&&&&&&&&&&&&&&&&&&&&&&&&&=====================.....................                                                                                                               ",
"                                                                                                                                                                                                                                  .......=====================&&&&&&&&&&&&&&&&&&&&&&&&&&&&&&&&&&&&&&&&&&&&&&&&&&&&&&&&&&&&&&&&&&&&&&&&&&&&&&&&&&&&&&&&&&&&&&&&&&&&&&&&&&&&&&&&&&&&&&&&&&&&&&&&&&&&&&&&&&&&&&&&&&&&&&&&&&=====================.....................                                                                                                               ",
"                                                                                                                                                                                                                                  .......=====================&&&&&&&&&&&&&&&&&&&&&&&&&&&&&&&&&&&&&&&&&&&&&&&&&&&&&&&&&&&&&&&&&&&&&&&&&&&&&&&&&&&&&&&&&&&&&&&&&&&&&&&&&&&&&&&&&&&&&&&&&&&&&&&&&&&&&&&&&&&&&&&&&&&&&&&&&&=====================.....................                                                                                                               ",
"                                                                                                                                                                                                                                  .......=====================&&&&&&&&&&&&&&&&&&&&&&&&&&&&&&&&&&&&&&&&&&&&&&&&&&&&&&&&&&&&&&&&&&&&&&&&&&&&&&&&&&&&&&&&&&&&&&&&&&&&&&&&&&&&&&&&&&&&&&&&&&&&&&&&&&&&&&&&&&&&&&&&&&&&&&&&&&=====================.....................                                                                                                               ",
"                                                                                                                                                                                                                                  .......=====================&&&&&&&&&&&&&&&&&&&&&&&&&&&&&&&&&&&&&&&&&&&&&&&&&&&&&&&&&&&&&&&&&&&&&&&&&&&&&&&&&&&&&&&&&&&&&&&&&&&&&&&&&&&&&&&&&&&&&&&&&&&&&&&&&&&&&&&&&&&&&&&&&&&&&&&&&&=====================.....................                                                                                                               ",
"                                                                                                                                                                                                                                  .......=====================&&&&&&&&&&&&&&&&&&&&&&&&&&&&&&&&&&&&&&&&&&&&&&&&&&&&&&&&&&&&&&&&&&&&&&&&&&&&&&&&&&&&&&&&&&&&&&&&&&&&&&&&&&&&&&&&&&&&&&&&&&&&&&&&&&&&&&&&&&&&&&&&&&&&&&&&&&=====================.....................                                                                                                               ",
"                                                                                                                                                                                                                                  .......=====================&&&&&&&&&&&&&&&&&&&&&&&&&&&&&&&&&&&&&&&&&&&&&&&&&&&&&&&&&&&&&&&&&&&&&&&&&&&&&&&&&&&&&&&&&&&&&&&&&&&&&&&&&&&&&&&&&&&&&&&&&&&&&&&&&&&&&&&&&&&&&&&&&&&&&&&&&&=====================.....................                                                                                                               ",
"                                                                                                                                                                                                                           .......=====================&&&&&&&&&&&&&&&&&&&&&&&&&&&&&&&&&&&&&&&&&&&&&&&&&&&&&&&&&&&&&&&&&&&&&&&&&&&&&&&&&&&&&&&&&&&&&&&&&&&&&&&&&&&&&&&&&&&&&&&&&&&&&&&&&&&&&&&&&&&&&&&&&&&&&&&&&&&&&&&&&=====================.......                                                                                                                             ",
"                                                                                                                                                                                                                           .......=====================&&&&&&&&&&&&&&&&&&&&&&&&&&&&&&&&&&&&&&&&&&&&&&&&&&&&&&&&&&&&&&&&&&&&&&&&&&&&&&&&&&&&&&&&&&&&&&&&&&&&&&&&&&&&&&&&&&&&&&&&&&&&&&&&&&&&&&&&&&&&&&&&&&&&&&&&&&&&&&&&&=====================.......                                                                                                                             ",
"                                                                                                                                                                                                                           .......=====================&&&&&&&&&&&&&&&&&&&&&&&&&&&&&&&&&&&&&&&&&&&&&&&&&&&&&&&&&&&&&&&&&&&&&&&&&&&&&&&&&&&&&&&&&&&&&&&&&&&&&&&&&&&&&&&&&&&&&&&&&&&&&&&&&&&&&&&&&&&&&&&&&&&&&&&&&&&&&&&&&=====================.......                                                                                                                             ",
"                                                                                                                                                                                                                           .......=====================&&&&&&&&&&&&&&&&&&&&&&&&&&&&&&&&&&&&&&&&&&&&&&&&&&&&&&&&&&&&&&&&&&&&&&&&&&&&&&&&&&&&&&&&&&&&&&&&&&&&&&&&&&&&&&&&&&&&&&&&&&&&&&&&&&&&&&&&&&&&&&&&&&&&&&&&&&&&&&&&&=====================.......                                                                                                                             ",
"                                                                                                                                                                                                                           .......=====================&&&&&&&&&&&&&&&&&&&&&&&&&&&&&&&&&&&&&&&&&&&&&&&&&&&&&&&&&&&&&&&&&&&&&&&&&&&&&&&&&&&&&&&&&&&&&&&&&&&&&&&&&&&&&&&&&&&&&&&&&&&&&&&&&&&&&&&&&&&&&&&&&&&&&&&&&&&&&&&&&=====================.......                                                                                                                             ",
"                                                                                                                                                                                                                           .......=====================&&&&&&&&&&&&&&&&&&&&&&&&&&&&&&&&&&&&&&&&&&&&&&&&&&&&&&&&&&&&&&&&&&&&&&&&&&&&&&&&&&&&&&&&&&&&&&&&&&&&&&&&&&&&&&&&&&&&&&&&&&&&&&&&&&&&&&&&&&&&&&&&&&&&&&&&&&&&&&&&&=====================.......                                                                                                                             ",
"                                                                                                                                                                                                                           .......=====================&&&&&&&&&&&&&&&&&&&&&&&&&&&&&&&&&&&&&&&&&&&&&&&&&&&&&&&&&&&&&&&&&&&&&&&&&&&&&&&&&&&&&&&&&&&&&&&&&&&&&&&&&&&&&&&&&&&&&&&&&&&&&&&&&&&&&&&&&&&&&&&&&&&&&&&&&&&&&&&&&=====================.......                                                                                                                             ",
"                                                                                                                                                                                                                    .......=====================&&&&&&&&&&&&&&&&&&&&&&&&&&&&&&&&&&&&&&&&&&&&&&&&&&&&&&&&&&&&&&&&&&&&&&&&&&&&&&&&&&&&&&&&&&&&&&&&&&&&&&&&&&&&&&&&&&&&&&&&&&&&&&&&&&&&&&&&&&&&&&&&&&&&&&&&&&&&&&&&&=====================..............                                                                                                                             ",
"                                                                                                                                                                                                                    .......=====================&&&&&&&&&&&&&&&&&&&&&&&&&&&&&&&&&&&&&&&&&&&&&&&&&&&&&&&&&&&&&&&&&&&&&&&&&&&&&&&&&&&&&&&&&&&&&&&&&&&&&&&&&&&&&&&&&&&&&&&&&&&&&&&&&&&&&&&&&&&&&&&&&&&&&&&&&&&&&&&&&=====================..............                                                                                                                             ",
"                                                                                                                                                                                                                    .......=====================&&&&&&&&&&&&&&&&&&&&&&&&&&&&&&&&&&&&&&&&&&&&&&&&&&&&&&&&&&&&&&&&&&&&&&&&&&&&&&&&&&&&&&&&&&&&&&&&&&&&&&&&&&&&&&&&&&&&&&&&&&&&&&&&&&&&&&&&&&&&&&&&&&&&&&&&&&&&&&&&&=====================..............                                                                                                                             ",
"                                                                                                                                                                                                                    .......=====================&&&&&&&&&&&&&&&&&&&&&&&&&&&&&&&&&&&&&&&&&&&&&&&&&&&&&&&&&&&&&&&&&&&&&&&&&&&&&&&&&&&&&&&&&&&&&&&&&&&&&&&&&&&&&&&&&&&&&&&&&&&&&&&&&&&&&&&&&&&&&&&&&&&&&&&&&&&&&&&&&=====================..............                                                                                                                             ",
"                                                                                                                                                                                                                    .......=====================&&&&&&&&&&&&&&&&&&&&&&&&&&&&&&&&&&&&&&&&&&&&&&&&&&&&&&&&&&&&&&&&&&&&&&&&&&&&&&&&&&&&&&&&&&&&&&&&&&&&&&&&&&&&&&&&&&&&&&&&&&&&&&&&&&&&&&&&&&&&&&&&&&&&&&&&&&&&&&&&&=====================..............                                                                                                                             ",
"                                                                                                                                                                                                                    .......=====================&&&&&&&&&&&&&&&&&&&&&&&&&&&&&&&&&&&&&&&&&&&&&&&&&&&&&&&&&&&&&&&&&&&&&&&&&&&&&&&&&&&&&&&&&&&&&&&&&&&&&&&&&&&&&&&&&&&&&&&&&&&&&&&&&&&&&&&&&&&&&&&&&&&&&&&&&&&&&&&&&=====================..............                                                                                                                             ",
"                                                                                                                                                                                                                    .......=====================&&&&&&&&&&&&&&&&&&&&&&&&&&&&&&&&&&&&&&&&&&&&&&&&&&&&&&&&&&&&&&&&&&&&&&&&&&&&&&&&&&&&&&&&&&&&&&&&&&&&&&&&&&&&&&&&&&&&&&&&&&&&&&&&&&&&&&&&&&&&&&&&&&&&&&&&&&&&&&&&&=====================..............                                                                                                                             ",
"                                                                                                                                                                                                             .......=====================&&&&&&&&&&&&&&&&&&&&&&&&&&&&&&&&&&&&&&&&&&&&&&&&&&&&&&&&&&&&&&&&&&&&&&&&&&&&&&&&&&&&&&&&&&&&&&&&&&&&&&&&&&&&&&&&&&&&&&&&&&&&&&&&&&&&&&&&&&&&&&&&&&&&&&&&&&&&&&&&&============================.......                                                                                                                                    ",
"                                                                                                                                                                                                             .......=====================&&&&&&&&&&&&&&&&&&&&&&&&&&&&&&&&&&&&&&&&&&&&&&&&&&&&&&&&&&&&&&&&&&&&&&&&&&&&&&&&&&&&&&&&&&&&&&&&&&&&&&&&&&&&&&&&&&&&&&&&&&&&&&&&&&&&&&&&&&&&&&&&&&&&&&&&&&&&&&&&&============================.......                                                                                                                                    ",
"                                                                                                                                                                                                             .......=====================&&&&&&&&&&&&&&&&&&&&&&&&&&&&&&&&&&&&&&&&&&&&&&&&&&&&&&&&&&&&&&&&&&&&&&&&&&&&&&&&&&&&&&&&&&&&&&&&&&&&&&&&&&&&&&&&&&&&&&&&&&&&&&&&&&&&&&&&&&&&&&&&&&&&&&&&&&&&&&&&&============================.......                                                                                                                                    ",
"                                                                                                                                                                                                             .......=====================&&&&&&&&&&&&&&&&&&&&&&&&&&&&&&&&&&&&&&&&&&&&&&&&&&&&&&&&&&&&&&&&&&&&&&&&&&&&&&&&&&&&&&&&&&&&&&&&&&&&&&&&&&&&&&&&&&&&&&&&&&&&&&&&&&&&&&&&&&&&&&&&&&&&&&&&&&&&&&&&&============================.......                                                                                                                                    ",
"                                                                                                                                                                                                             .......=====================&&&&&&&&&&&&&&&&&&&&&&&&&&&&&&&&&&&&&&&&&&&&&&&&&&&&&&&&&&&&&&&&&&&&&&&&&&&&&&&&&&&&&&&&&&&&&&&&&&&&&&&&&&&&&&&&&&&&&&&&&&&&&&&&&&&&&&&&&&&&&&&&&&&&&&&&&&&&&&&&&============================.......                                                                                                                                    ",
"                                                                                                                                                                                                             .......=====================&&&&&&&&&&&&&&&&&&&&&&&&&&&&&&&&&&&&&&&&&&&&&&&&&&&&&&&&&&&&&&&&&&&&&&&&&&&&&&&&&&&&&&&&&&&&&&&&&&&&&&&&&&&&&&&&&&&&&&&&&&&&&&&&&&&&&&&&&&&&&&&&&&&&&&&&&&&&&&&&&============================.......                                                                                                                                    ",
"                                                                                                                                                                                                             .......=====================&&&&&&&&&&&&&&&&&&&&&&&&&&&&&&&&&&&&&&&&&&&&&&&&&&&&&&&&&&&&&&&&&&&&&&&&&&&&&&&&&&&&&&&&&&&&&&&&&&&&&&&&&&&&&&&&&&&&&&&&&&&&&&&&&&&&&&&&&&&&&&&&&&&&&&&&&&&&&&&&&============================.......                                                                                                                                    ",
"                                                                                                                                                                                                      .......=====================&&&&&&&&&&&&&&&&&&&&&&&&&&&&&&&&&&&&&&&&&&&&&&&&&&&&&&&&&&&&&&&&&&&&&&&&&&&&&&&&&&&&&&&&&&&&&&&&&&&&&&&&&&&&&&&&&&&&&&&&&&&&&&&&&&&&&&&&&&&&&&&&&&&&&&&&&&&&&&&&&&&&&&&&=====================..............                                                                                                                                    ",
"                                                                                                                                                                                                      .......=====================&&&&&&&&&&&&&&&&&&&&&&&&&&&&&&&&&&&&&&&&&&&&&&&&&&&&&&&&&&&&&&&&&&&&&&&&&&&&&&&&&&&&&&&&&&&&&&&&&&&&&&&&&&&&&&&&&&&&&&&&&&&&&&&&&&&&&&&&&&&&&&&&&&&&&&&&&&&&&&&&&&&&&&&&=====================..............                                                                                                                                    ",
"                                                                                                                                                                                                      .......=====================&&&&&&&&&&&&&&&&&&&&&&&&&&&&&&&&&&&&&&&&&&&&&&&&&&&&&&&&&&&&&&&&&&&&&&&&&&&&&&&&&&&&&&&&&&&&&&&&&&&&&&&&&&&&&&&&&&&&&&&&&&&&&&&&&&&&&&&&&&&&&&&&&&&&&&&&&&&&&&&&&&&&&&&&=====================..............                                                                                                                                    ",
"                                                                                                                                                                                                      .......=====================&&&&&&&&&&&&&&&&&&&&&&&&&&&&&&&&&&&&&&&&&&&&&&&&&&&&&&&&&&&&&&&&&&&&&&&&&&&&&&&&&&&&&&&&&&&&&&&&&&&&&&&&&&&&&&&&&&&&&&&&&&&&&&&&&&&&&&&&&&&&&&&&&&&&&&&&&&&&&&&&&&&&&&&&=====================..............                                                                                                                                    ",
"                                                                                                                                                                                                      .......=====================&&&&&&&&&&&&&&&&&&&&&&&&&&&&&&&&&&&&&&&&&&&&&&&&&&&&&&&&&&&&&&&&&&&&&&&&&&&&&&&&&&&&&&&&&&&&&&&&&&&&&&&&&&&&&&&&&&&&&&&&&&&&&&&&&&&&&&&&&&&&&&&&&&&&&&&&&&&&&&&&&&&&&&&&=====================..............                                                                                                                                    ",
"                                                                                                                                                                                                      .......=====================&&&&&&&&&&&&&&&&&&&&&&&&&&&&&&&&&&&&&&&&&&&&&&&&&&&&&&&&&&&&&&&&&&&&&&&&&&&&&&&&&&&&&&&&&&&&&&&&&&&&&&&&&&&&&&&&&&&&&&&&&&&&&&&&&&&&&&&&&&&&&&&&&&&&&&&&&&&&&&&&&&&&&&&&=====================..............                                                                                                                                    ",
"                                                                                                                                                                                                      .......=====================&&&&&&&&&&&&&&&&&&&&&&&&&&&&&&&&&&&&&&&&&&&&&&&&&&&&&&&&&&&&&&&&&&&&&&&&&&&&&&&&&&&&&&&&&&&&&&&&&&&&&&&&&&&&&&&&&&&&&&&&&&&&&&&&&&&&&&&&&&&&&&&&&&&&&&&&&&&&&&&&&&&&&&&&=====================..............                                                                                                                                    ",
"                                                                                                                                                                                               .......==============&&&&&&&&&&&&&&&&&&&&&&&&&&&&&&&&&&&&&&&&&&&&&&&&&&&&&&&&&&&&&&&&&&&&&&&&&&&&&&&&&&&&&&&&&&&&&&&&&&&&&&&&&&&&&&&&&&&&&&&&&&&&&&&&&&&&&&&&&&&&&&&&&&&&&&&&&&&&&&&&&&&&&&&&&&&&&&&&&&&&&&=====================.......                                                                                                                                           ",
"                                                                                                                                                                                               .......==============&&&&&&&&&&&&&&&&&&&&&&&&&&&&&&&&&&&&&&&&&&&&&&&&&&&&&&&&&&&&&&&&&&&&&&&&&&&&&&&&&&&&&&&&&&&&&&&&&&&&&&&&&&&&&&&&&&&&&&&&&&&&&&&&&&&&&&&&&&&&&&&&&&&&&&&&&&&&&&&&&&&&&&&&&&&&&&&&&&&&&&=====================.......                                                                                                                                           ",
"                                                                                                                                                                                               .......==============&&&&&&&&&&&&&&&&&&&&&&&&&&&&&&&&&&&&&&&&&&&&&&&&&&&&&&&&&&&&&&&&&&&&&&&&&&&&&&&&&&&&&&&&&&&&&&&&&&&&&&&&&&&&&&&&&&&&&&&&&&&&&&&&&&&&&&&&&&&&&&&&&&&&&&&&&&&&&&&&&&&&&&&&&&&&&&&&&&&&&&=====================.......                                                                                                                                           ",
"                                                                                                                                                                                               .......==============&&&&&&&&&&&&&&&&&&&&&&&&&&&&&&&&&&&&&&&&&&&&&&&&&&&&&&&&&&&&&&&&&&&&&&&&&&&&&&&&&&&&&&&&&&&&&&&&&&&&&&&&&&&&&&&&&&&&&&&&&&&&&&&&&&&&&&&&&&&&&&&&&&&&&&&&&&&&&&&&&&&&&&&&&&&&&&&&&&&&&&=====================.......                                                                                                                                           ",
"                                                                                                                                                                                               .......==============&&&&&&&&&&&&&&&&&&&&&&&&&&&&&&&&&&&&&&&&&&&&&&&&&&&&&&&&&&&&&&&&&&&&&&&&&&&&&&&&&&&&&&&&&&&&&&&&&&&&&&&&&&&&&&&&&&&&&&&&&&&&&&&&&&&&&&&&&&&&&&&&&&&&&&&&&&&&&&&&&&&&&&&&&&&&&&&&&&&&&&=====================.......                                                                                                                                           ",
"                                                                                                                                                                                               .......==============&&&&&&&&&&&&&&&&&&&&&&&&&&&&&&&&&&&&&&&&&&&&&&&&&&&&&&&&&&&&&&&&&&&&&&&&&&&&&&&&&&&&&&&&&&&&&&&&&&&&&&&&&&&&&&&&&&&&&&&&&&&&&&&&&&&&&&&&&&&&&&&&&&&&&&&&&&&&&&&&&&&&&&&&&&&&&&&&&&&&&&=====================.......                                                                                                                                           ",
"                                                                                                                                                                                               .......==============&&&&&&&&&&&&&&&&&&&&&&&&&&&&&&&&&&&&&&&&&&&&&&&&&&&&&&&&&&&&&&&&&&&&&&&&&&&&&&&&&&&&&&&&&&&&&&&&&&&&&&&&&&&&&&&&&&&&&&&&&&&&&&&&&&&&&&&&&&&&&&&&&&&&&&&&&&&&&&&&&&&&&&&&&&&&&&&&&&&&&&=====================.......                                                                                                                                           ",
"                                                                                                                                                                                        .......==============&&&&&&&&&&&&&&&&&&&&&&&&&&&&&&&&&&&&&&&&&&&&&&&&&&&&&&&&&&&&&&&&&&&&&&&&&&&&&&&&&&&&&&&&&&&&&&&&&&&&&&&&&&&&&&&&&&&&&&&&&&&&&&&&&&&&&&&&&&&&&&&&&&&&&&&&&&&&&&&&&&&&&&&&&&&&&&&&&&&&&&=====================.......                                                                                                                                                  ",
"                                                                                                                                                                                        .......==============&&&&&&&&&&&&&&&&&&&&&&&&&&&&&&&&&&&&&&&&&&&&&&&&&&&&&&&&&&&&&&&&&&&&&&&&&&&&&&&&&&&&&&&&&&&&&&&&&&&&&&&&&&&&&&&&&&&&&&&&&&&&&&&&&&&&&&&&&&&&&&&&&&&&&&&&&&&&&&&&&&&&&&&&&&&&&&&&&&&&&&=====================.......                                                                                                                                                  ",
"                                                                                                                                                                                        .......==============&&&&&&&&&&&&&&&&&&&&&&&&&&&&&&&&&&&&&&&&&&&&&&&&&&&&&&&&&&&&&&&&&&&&&&&&&&&&&&&&&&&&&&&&&&&&&&&&&&&&&&&&&&&&&&&&&&&&&&&&&&&&&&&&&&&&&&&&&&&&&&&&&&&&&&&&&&&&&&&&&&&&&&&&&&&&&&&&&&&&&&=====================.......                                                                                                                                                  ",
"                                                                                                                                                                                        .......==============&&&&&&&&&&&&&&&&&&&&&&&&&&&&&&&&&&&&&&&&&&&&&&&&&&&&&&&&&&&&&&&&&&&&&&&&&&&&&&&&&&&&&&&&&&&&&&&&&&&&&&&&&&&&&&&&&&&&&&&&&&&&&&&&&&&&&&&&&&&&&&&&&&&&&&&&&&&&&&&&&&&&&&&&&&&&&&&&&&&&&&=====================.......                                                                                                                                                  ",
"                                                                                                                                                                                        .......==============&&&&&&&&&&&&&&&&&&&&&&&&&&&&&&&&&&&&&&&&&&&&&&&&&&&&&&&&&&&&&&&&&&&&&&&&&&&&&&&&&&&&&&&&&&&&&&&&&&&&&&&&&&&&&&&&&&&&&&&&&&&&&&&&&&&&&&&&&&&&&&&&&&&&&&&&&&&&&&&&&&&&&&&&&&&&&&&&&&&&&&=====================.......                                                                                                                                                  ",
"                                                                                                                                                                                        .......==============&&&&&&&&&&&&&&&&&&&&&&&&&&&&&&&&&&&&&&&&&&&&&&&&&&&&&&&&&&&&&&&&&&&&&&&&&&&&&&&&&&&&&&&&&&&&&&&&&&&&&&&&&&&&&&&&&&&&&&&&&&&&&&&&&&&&&&&&&&&&&&&&&&&&&&&&&&&&&&&&&&&&&&&&&&&&&&&&&&&&&&=====================.......                                                                                                                                                  ",
"                                                                                                                                                                                        .......==============&&&&&&&&&&&&&&&&&&&&&&&&&&&&&&&&&&&&&&&&&&&&&&&&&&&&&&&&&&&&&&&&&&&&&&&&&&&&&&&&&&&&&&&&&&&&&&&&&&&&&&&&&&&&&&&&&&&&&&&&&&&&&&&&&&&&&&&&&&&&&&&&&&&&&&&&&&&&&&&&&&&&&&&&&&&&&&&&&&&&&&=====================.......                                                                                                                                                  ",
"                                                                                                                                                                                 .......==============&&&&&&&&&&&&&&&&&&&&&&&&&&&&&&&&&&&&&&&&&&&&&&&&&&&&&&&&&&&&&&&&&&&&&&&&&&&&&&&&&&&&&&&&&&&&&&&&&&&&&&&&&&&&&&&&&&&&&&&&&&&&&&&&&&&&&&&&&&&&&&&&&&&&&&&&&&&&&&&&&&&&&&&&&&&&&&&&&&&&&&&&&&&&&==============..............                                                                                                                                                  ",
"                                                                                                                                                                                 .......==============&&&&&&&&&&&&&&&&&&&&&&&&&&&&&&&&&&&&&&&&&&&&&&&&&&&&&&&&&&&&&&&&&&&&&&&&&&&&&&&&&&&&&&&&&&&&&&&&&&&&&&&&&&&&&&&&&&&&&&&&&&&&&&&&&&&&&&&&&&&&&&&&&&&&&&&&&&&&&&&&&&&&&&&&&&&&&&&&&&&&&&&&&&&&&==============..............                                                                                                                                                  ",
"                                                                                                                                                                                 .......==============&&&&&&&&&&&&&&&&&&&&&&&&&&&&&&&&&&&&&&&&&&&&&&&&&&&&&&&&&&&&&&&&&&&&&&&&&&&&&&&&&&&&&&&&&&&&&&&&&&&&&&&&&&&&&&&&&&&&&&&&&&&&&&&&&&&&&&&&&&&&&&&&&&&&&&&&&&&&&&&&&&&&&&&&&&&&&&&&&&&&&&&&&&&&&==============..............                                                                                                                                                  ",
"                                                                                                                                                                                 .......==============&&&&&&&&&&&&&&&&&&&&&&&&&&&&&&&&&&&&&&&&&&&&&&&&&&&&&&&&&&&&&&&&&&&&&&&&&&&&&&&&&&&&&&&&&&&&&&&&&&&&&&&&&&&&&&&&&&&&&&&&&&&&&&&&&&&&&&&&&&&&&&&&&&&&&&&&&&&&&&&&&&&&&&&&&&&&&&&&&&&&&&&&&&&&&==============..............                                                                                                                                                  ",
"                                                                                                                                                                                 .......==============&&&&&&&&&&&&&&&&&&&&&&&&&&&&&&&&&&&&&&&&&&&&&&&&&&&&&&&&&&&&&&&&&&&&&&&&&&&&&&&&&&&&&&&&&&&&&&&&&&&&&&&&&&&&&&&&&&&&&&&&&&&&&&&&&&&&&&&&&&&&&&&&&&&&&&&&&&&&&&&&&&&&&&&&&&&&&&&&&&&&&&&&&&&&&==============..............                                                                                                                                                  ",
"                                                                                                                                                                                 .......==============&&&&&&&&&&&&&&&&&&&&&&&&&&&&&&&&&&&&&&&&&&&&&&&&&&&&&&&&&&&&&&&&&&&&&&&&&&&&&&&&&&&&&&&&&&&&&&&&&&&&&&&&&&&&&&&&&&&&&&&&&&&&&&&&&&&&&&&&&&&&&&&&&&&&&&&&&&&&&&&&&&&&&&&&&&&&&&&&&&&&&&&&&&&&&==============..............                                                                                                                                                  ",
"                                                                                                                                                                                 .......==============&&&&&&&&&&&&&&&&&&&&&&&&&&&&&&&&&&&&&&&&&&&&&&&&&&&&&&&&&&&&&&&&&&&&&&&&&&&&&&&&&&&&&&&&&&&&&&&&&&&&&&&&&&&&&&&&&&&&&&&&&&&&&&&&&&&&&&&&&&&&&&&&&&&&&&&&&&&&&&&&&&&&&&&&&&&&&&&&&&&&&&&&&&&&&==============..............                                                                                                                                                  ",
"                                                                                                                                                                          .......==============&&&&&&&&&&&&&&&&&&&&&&&&&&&&&&&&&&&&&&&&&&&&&&&&&&&&&&&&&&&&&&&&&&&&&&&&&&&&&&&&&&&&&&&&&&&&&&&&&&&&&&&&&&&&&&&&&&&&&&&&&&&&&&&&&&&&&&&&&&&&&&&&&&&&&&&&&&&&&&&&&&&&&&&&&&&&&&&&&&&&&&&&&&&&&=====================.......                                                                                                                                                         ",
"                                                                                                                                                                          .......==============&&&&&&&&&&&&&&&&&&&&&&&&&&&&&&&&&&&&&&&&&&&&&&&&&&&&&&&&&&&&&&&&&&&&&&&&&&&&&&&&&&&&&&&&&&&&&&&&&&&&&&&&&&&&&&&&&&&&&&&&&&&&&&&&&&&&&&&&&&&&&&&&&&&&&&&&&&&&&&&&&&&&&&&&&&&&&&&&&&&&&&&&&&&&&=====================.......                                                                                                                                                         ",
"                                                                                                                                                                          .......==============&&&&&&&&&&&&&&&&&&&&&&&&&&&&&&&&&&&&&&&&&&&&&&&&&&&&&&&&&&&&&&&&&&&&&&&&&&&&&&&&&&&&&&&&&&&&&&&&&&&&&&&&&&&&&&&&&&&&&&&&&&&&&&&&&&&&&&&&&&&&&&&&&&&&&&&&&&&&&&&&&&&&&&&&&&&&&&&&&&&&&&&&&&&&&=====================.......                                                                                                                                                         ",
"                                                                                                                                                                          .......==============&&&&&&&&&&&&&&&&&&&&&&&&&&&&&&&&&&&&&&&&&&&&&&&&&&&&&&&&&&&&&&&&&&&&&&&&&&&&&&&&&&&&&&&&&&&&&&&&&&&&&&&&&&&&&&&&&&&&&&&&&&&&&&&&&&&&&&&&&&&&&&&&&&&&&&&&&&&&&&&&&&&&&&&&&&&&&&&&&&&&&&&&&&&&&=====================.......                                                                                                                                                         ",
"                                                                                                                                                                          .......==============&&&&&&&&&&&&&&&&&&&&&&&&&&&&&&&&&&&&&&&&&&&&&&&&&&&&&&&&&&&&&&&&&&&&&&&&&&&&&&&&&&&&&&&&&&&&&&&&&&&&&&&&&&&&&&&&&&&&&&&&&&&&&&&&&&&&&&&&&&&&&&&&&&&&&&&&&&&&&&&&&&&&&&&&&&&&&&&&&&&&&&&&&&&&&=====================.......                                                                                                                                                         ",
"                                                                                                                                                                          .......==============&&&&&&&&&&&&&&&&&&&&&&&&&&&&&&&&&&&&&&&&&&&&&&&&&&&&&&&&&&&&&&&&&&&&&&&&&&&&&&&&&&&&&&&&&&&&&&&&&&&&&&&&&&&&&&&&&&&&&&&&&&&&&&&&&&&&&&&&&&&&&&&&&&&&&&&&&&&&&&&&&&&&&&&&&&&&&&&&&&&&&&&&&&&&&=====================.......                                                                                                                                                         ",
"                                                                                                                                                                          .......==============&&&&&&&&&&&&&&&&&&&&&&&&&&&&&&&&&&&&&&&&&&&&&&&&&&&&&&&&&&&&&&&&&&&&&&&&&&&&&&&&&&&&&&&&&&&&&&&&&&&&&&&&&&&&&&&&&&&&&&&&&&&&&&&&&&&&&&&&&&&&&&&&&&&&&&&&&&&&&&&&&&&&&&&&&&&&&&&&&&&&&&&&&&&&&=====================.......                                                                                                                                                         ",
"                                                                                                                                                                   .......==============&&&&&&&&&&&&&&&&&&&&&&&&&&&&&&&&&&&&&&&&&&&&&&&&&&&&&&&&&&&&&&&&&&&&&&&&&&&&&&&&&&&&&&&&&&&&&&&&&&&&&&&&&&&&&&&&&&&&&&&&&&&&&&&&&&&&&&&&&&&&&&&&&&&&&&&&&&&&&&&&&&&&&&&&&&&&&&&&&&&&&&&&&&&&&&&&&&&&=====================.......                                                                                                                                                         ",
"                                                                                                                                                                   .......==============&&&&&&&&&&&&&&&&&&&&&&&&&&&&&&&&&&&&&&&&&&&&&&&&&&&&&&&&&&&&&&&&&&&&&&&&&&&&&&&&&&&&&&&&&&&&&&&&&&&&&&&&&&&&&&&&&&&&&&&&&&&&&&&&&&&&&&&&&&&&&&&&&&&&&&&&&&&&&&&&&&&&&&&&&&&&&&&&&&&&&&&&&&&&&&&&&&&&=====================.......                                                                                                                                                         ",
"                                                                                                                                                                   .......==============&&&&&&&&&&&&&&&&&&&&&&&&&&&&&&&&&&&&&&&&&&&&&&&&&&&&&&&&&&&&&&&&&&&&&&&&&&&&&&&&&&&&&&&&&&&&&&&&&&&&&&&&&&&&&&&&&&&&&&&&&&&&&&&&&&&&&&&&&&&&&&&&&&&&&&&&&&&&&&&&&&&&&&&&&&&&&&&&&&&&&&&&&&&&&&&&&&&&=====================.......                                                                                                                                                         ",
"                                                                                                                                                                   .......==============&&&&&&&&&&&&&&&&&&&&&&&&&&&&&&&&&&&&&&&&&&&&&&&&&&&&&&&&&&&&&&&&&&&&&&&&&&&&&&&&&&&&&&&&&&&&&&&&&&&&&&&&&&&&&&&&&&&&&&&&&&&&&&&&&&&&&&&&&&&&&&&&&&&&&&&&&&&&&&&&&&&&&&&&&&&&&&&&&&&&&&&&&&&&&&&&&&&&=====================.......                                                                                                                                                         ",
"                                                                                                                                                                   .......==============&&&&&&&&&&&&&&&&&&&&&&&&&&&&&&&&&&&&&&&&&&&&&&&&&&&&&&&&&&&&&&&&&&&&&&&&&&&&&&&&&&&&&&&&&&&&&&&&&&&&&&&&&&&&&&&&&&&&&&&&&&&&&&&&&&&&&&&&&&&&&&&&&&&&&&&&&&&&&&&&&&&&&&&&&&&&&&&&&&&&&&&&&&&&&&&&&&&&=====================.......                                                                                                                                                         ",
"                                                                                                                                                                   .......==============&&&&&&&&&&&&&&&&&&&&&&&&&&&&&&&&&&&&&&&&&&&&&&&&&&&&&&&&&&&&&&&&&&&&&&&&&&&&&&&&&&&&&&&&&&&&&&&&&&&&&&&&&&&&&&&&&&&&&&&&&&&&&&&&&&&&&&&&&&&&&&&&&&&&&&&&&&&&&&&&&&&&&&&&&&&&&&&&&&&&&&&&&&&&&&&&&&&&=====================.......                                                                                                                                                         ",
"                                                                                                                                                                   .......==============&&&&&&&&&&&&&&&&&&&&&&&&&&&&&&&&&&&&&&&&&&&&&&&&&&&&&&&&&&&&&&&&&&&&&&&&&&&&&&&&&&&&&&&&&&&&&&&&&&&&&&&&&&&&&&&&&&&&&&&&&&&&&&&&&&&&&&&&&&&&&&&&&&&&&&&&&&&&&&&&&&&&&&&&&&&&&&&&&&&&&&&&&&&&&&&&&&&&=====================.......                                                                                                                                                         ",
"                                                                                                                                                            .......==============&&&&&&&&&&&&&&&&&&&&&&&&&&&&&&&&&&&&&&&&&&&&&&&&&&&&&&&&&&&&&&&&&&&&&&&&&&&&&&&&&&&&&&&&&&&&&&&&&&&&&&&&&&&&&&&&&&&&&&&&&&&&&&&&&&&&&&&&&&&&&&&&&&&&&&&&&&&&&&&&&&&&&&&&&&&&&&&&&&&&&&&&&&&&&&&&&&&&&&&&&&&==============.......                                                                                                                                                                ",
"                                                                                                                                                            .......==============&&&&&&&&&&&&&&&&&&&&&&&&&&&&&&&&&&&&&&&&&&&&&&&&&&&&&&&&&&&&&&&&&&&&&&&&&&&&&&&&&&&&&&&&&&&&&&&&&&&&&&&&&&&&&&&&&&&&&&&&&&&&&&&&&&&&&&&&&&&&&&&&&&&&&&&&&&&&&&&&&&&&&&&&&&&&&&&&&&&&&&&&&&&&&&&&&&&&&&&&&&&==============.......                                                                                                                                                                ",
"                                                                                                                                                            .......==============&&&&&&&&&&&&&&&&&&&&&&&&&&&&&&&&&&&&&&&&&&&&&&&&&&&&&&&&&&&&&&&&&&&&&&&&&&&&&&&&&&&&&&&&&&&&&&&&&&&&&&&&&&&&&&&&&&&&&&&&&&&&&&&&&&&&&&&&&&&&&&&&&&&&&&&&&&&&&&&&&&&&&&&&&&&&&&&&&&&&&&&&&&&&&&&&&&&&&&&&&&&==============.......                                                                                                                                                                ",
"                                                                                                                                                            .......==============&&&&&&&&&&&&&&&&&&&&&&&&&&&&&&&&&&&&&&&&&&&&&&&&&&&&&&&&&&&&&&&&&&&&&&&&&&&&&&&&&&&&&&&&&&&&&&&&&&&&&&&&&&&&&&&&&&&&&&&&&&&&&&&&&&&&&&&&&&&&&&&&&&&&&&&&&&&&&&&&&&&&&&&&&&&&&&&&&&&&&&&&&&&&&&&&&&&&&&&&&&&==============.......                                                                                                                                                                ",
"                                                                                                                                                            .......==============&&&&&&&&&&&&&&&&&&&&&&&&&&&&&&&&&&&&&&&&&&&&&&&&&&&&&&&&&&&&&&&&&&&&&&&&&&&&&&&&&&&&&&&&&&&&&&&&&&&&&&&&&&&&&&&&&&&&&&&&&&&&&&&&&&&&&&&&&&&&&&&&&&&&&&&&&&&&&&&&&&&&&&&&&&&&&&&&&&&&&&&&&&&&&&&&&&&&&&&&&&&==============.......                                                                                                                                                                ",
"                                                                                                                                                            .......==============&&&&&&&&&&&&&&&&&&&&&&&&&&&&&&&&&&&&&&&&&&&&&&&&&&&&&&&&&&&&&&&&&&&&&&&&&&&&&&&&&&&&&&&&&&&&&&&&&&&&&&&&&&&&&&&&&&&&&&&&&&&&&&&&&&&&&&&&&&&&&&&&&&&&&&&&&&&&&&&&&&&&&&&&&&&&&&&&&&&&&&&&&&&&&&&&&&&&&&&&&&&==============.......                                                                                                                                                                ",
"                                                                                                                                                            .......==============&&&&&&&&&&&&&&&&&&&&&&&&&&&&&&&&&&&&&&&&&&&&&&&&&&&&&&&&&&&&&&&&&&&&&&&&&&&&&&&&&&&&&&&&&&&&&&&&&&&&&&&&&&&&&&&&&&&&&&&&&&&&&&&&&&&&&&&&&&&&&&&&&&&&&&&&&&&&&&&&&&&&&&&&&&&&&&&&&&&&&&&&&&&&&&&&&&&&&&&&&&&==============.......                                                                                                                                                                ",
"                                                                                                                                                     .......==============&&&&&&&&&&&&&&&&&&&&&&&&&&&&&&&&&&&&&&&&&&&&&&&&&&&&&&&&&&&&&&&&&&&&&&&&&&&&&&&&&&&&&&&&&&&&&&&&&&&&&&&&&&&&&&&&&&&&&&&&&&&&&&&&&&&&&&&&&&&&&&&&&&&&&&&&&&&&&&&&&&&&&&&&&&&&&&&&&&&&&&&&&&&&&&&&&&&&&&&&&&&=====================.......                                                                                                                                                                ",
"                                                                                                                                                     .......==============&&&&&&&&&&&&&&&&&&&&&&&&&&&&&&&&&&&&&&&&&&&&&&&&&&&&&&&&&&&&&&&&&&&&&&&&&&&&&&&&&&&&&&&&&&&&&&&&&&&&&&&&&&&&&&&&&&&&&&&&&&&&&&&&&&&&&&&&&&&&&&&&&&&&&&&&&&&&&&&&&&&&&&&&&&&&&&&&&&&&&&&&&&&&&&&&&&&&&&&&&&&=====================.......                                                                                                                                                                ",
"                                                                                                                                                     .......==============&&&&&&&&&&&&&&&&&&&&&&&&&&&&&&&&&&&&&&&&&&&&&&&&&&&&&&&&&&&&&&&&&&&&&&&&&&&&&&&&&&&&&&&&&&&&&&&&&&&&&&&&&&&&&&&&&&&&&&&&&&&&&&&&&&&&&&&&&&&&&&&&&&&&&&&&&&&&&&&&&&&&&&&&&&&&&&&&&&&&&&&&&&&&&&&&&&&&&&&&&&&=====================.......                                                                                                                                                                ",
"                                                                                                                                                     .......==============&&&&&&&&&&&&&&&&&&&&&&&&&&&&&&&&&&&&&&&&&&&&&&&&&&&&&&&&&&&&&&&&&&&&&&&&&&&&&&&&&&&&&&&&&&&&&&&&&&&&&&&&&&&&&&&&&&&&&&&&&&&&&&&&&&&&&&&&&&&&&&&&&&&&&&&&&&&&&&&&&&&&&&&&&&&&&&&&&&&&&&&&&&&&&&&&&&&&&&&&&&&=====================.......                                                                                                                                                                ",
"                                                                                                                                                     .......==============&&&&&&&&&&&&&&&&&&&&&&&&&&&&&&&&&&&&&&&&&&&&&&&&&&&&&&&&&&&&&&&&&&&&&&&&&&&&&&&&&&&&&&&&&&&&&&&&&&&&&&&&&&&&&&&&&&&&&&&&&&&&&&&&&&&&&&&&&&&&&&&&&&&&&&&&&&&&&&&&&&&&&&&&&&&&&&&&&&&&&&&&&&&&&&&&&&&&&&&&&&&=====================.......                                                                                                                                                                ",
"                                                                                                                                                     .......==============&&&&&&&&&&&&&&&&&&&&&&&&&&&&&&&&&&&&&&&&&&&&&&&&&&&&&&&&&&&&&&&&&&&&&&&&&&&&&&&&&&&&&&&&&&&&&&&&&&&&&&&&&&&&&&&&&&&&&&&&&&&&&&&&&&&&&&&&&&&&&&&&&&&&&&&&&&&&&&&&&&&&&&&&&&&&&&&&&&&&&&&&&&&&&&&&&&&&&&&&&&&=====================.......                                                                                                                                                                ",
"                                                                                                                                                     .......==============&&&&&&&&&&&&&&&&&&&&&&&&&&&&&&&&&&&&&&&&&&&&&&&&&&&&&&&&&&&&&&&&&&&&&&&&&&&&&&&&&&&&&&&&&&&&&&&&&&&&&&&&&&&&&&&&&&&&&&&&&&&&&&&&&&&&&&&&&&&&&&&&&&&&&&&&&&&&&&&&&&&&&&&&&&&&&&&&&&&&&&&&&&&&&&&&&&&&&&&&&&&=====================.......                                                                                                                                                                ",
"                                                                                                                                              .......==============&&&&&&&&&&&&&&&&&&&&&&&&&&&&&&&&&&&&&&&&&&&&&&&&&&&&&&&&&&&&&&&&&&&&&&&&&&&&&&&&&&&&&&&&&&&&&&&&&&&&&&&&&&&&&&&&&&&&&&&&&&&&&&&&&&&&&&&&&&&&&&&&&&&&&&&&&&&&&&&&&&&&&&&&&&&&&&&&&&&&&&&&&&&&&&&&&&&&&&&&&&&&&&&&&&==============..............                                                                                                                                                                ",
"                                                                                                                                              .......==============&&&&&&&&&&&&&&&&&&&&&&&&&&&&&&&&&&&&&&&&&&&&&&&&&&&&&&&&&&&&&&&&&&&&&&&&&&&&&&&&&&&&&&&&&&&&&&&&&&&&&&&&&&&&&&&&&&&&&&&&&&&&&&&&&&&&&&&&&&&&&&&&&&&&&&&&&&&&&&&&&&&&&&&&&&&&&&&&&&&&&&&&&&&&&&&&&&&&&&&&&&&&&&&&&&==============..............                                                                                                                                                                ",
"                                                                                                                                              .......==============&&&&&&&&&&&&&&&&&&&&&&&&&&&&&&&&&&&&&&&&&&&&&&&&&&&&&&&&&&&&&&&&&&&&&&&&&&&&&&&&&&&&&&&&&&&&&&&&&&&&&&&&&&&&&&&&&&&&&&&&&&&&&&&&&&&&&&&&&&&&&&&&&&&&&&&&&&&&&&&&&&&&&&&&&&&&&&&&&&&&&&&&&&&&&&&&&&&&&&&&&&&&&&&&&&==============..............                                                                                                                                                                ",
"                                                                                                                                              .......==============&&&&&&&&&&&&&&&&&&&&&&&&&&&&&&&&&&&&&&&&&&&&&&&&&&&&&&&&&&&&&&&&&&&&&&&&&&&&&&&&&&&&&&&&&&&&&&&&&&&&&&&&&&&&&&&&&&&&&&&&&&&&&&&&&&&&&&&&&&&&&&&&&&&&&&&&&&&&&&&&&&&&&&&&&&&&&&&&&&&&&&&&&&&&&&&&&&&&&&&&&&&&&&&&&&==============..............                                                                                                                                                                ",
"                                                                                                                                              .......==============&&&&&&&&&&&&&&&&&&&&&&&&&&&&&&&&&&&&&&&&&&&&&&&&&&&&&&&&&&&&&&&&&&&&&&&&&&&&&&&&&&&&&&&&&&&&&&&&&&&&&&&&&&&&&&&&&&&&&&&&&&&&&&&&&&&&&&&&&&&&&&&&&&&&&&&&&&&&&&&&&&&&&&&&&&&&&&&&&&&&&&&&&&&&&&&&&&&&&&&&&&&&&&&&&&==============..............                                                                                                                                                                ",
"                                                                                                                                              .......==============&&&&&&&&&&&&&&&&&&&&&&&&&&&&&&&&&&&&&&&&&&&&&&&&&&&&&&&&&&&&&&&&&&&&&&&&&&&&&&&&&&&&&&&&&&&&&&&&&&&&&&&&&&&&&&&&&&&&&&&&&&&&&&&&&&&&&&&&&&&&&&&&&&&&&&&&&&&&&&&&&&&&&&&&&&&&&&&&&&&&&&&&&&&&&&&&&&&&&&&&&&&&&&&&&&==============..............                                                                                                                                                                ",
"                                                                                                                                              .......==============&&&&&&&&&&&&&&&&&&&&&&&&&&&&&&&&&&&&&&&&&&&&&&&&&&&&&&&&&&&&&&&&&&&&&&&&&&&&&&&&&&&&&&&&&&&&&&&&&&&&&&&&&&&&&&&&&&&&&&&&&&&&&&&&&&&&&&&&&&&&&&&&&&&&&&&&&&&&&&&&&&&&&&&&&&&&&&&&&&&&&&&&&&&&&&&&&&&&&&&&&&&&&&&&&&==============..............                                                                                                                                                                ",
"                                                                                                                                       .......==============&&&&&&&&&&&&&&&&&&&&&&&&&&&&&&&&&&&&&&&&&&&&&&&&&&&&&&&&&&&&&&&&&&&&&&&&&&&&&&&&&&&&&&&&&&&&&&&&&&&&&&&&&&&&&&&&&&&&&&&&&&&&&&&&&&&&&&&&&&&&&&&&&&&&&&&&&&&&&&&&&&&&&&&&&&&&&&&&&&&&&&&&&&&&&&&&&&&&&&&&&&&&&&&&&&=====================.......                                                                                                                                                                       ",
"                                                                                                                                       .......==============&&&&&&&&&&&&&&&&&&&&&&&&&&&&&&&&&&&&&&&&&&&&&&&&&&&&&&&&&&&&&&&&&&&&&&&&&&&&&&&&&&&&&&&&&&&&&&&&&&&&&&&&&&&&&&&&&&&&&&&&&&&&&&&&&&&&&&&&&&&&&&&&&&&&&&&&&&&&&&&&&&&&&&&&&&&&&&&&&&&&&&&&&&&&&&&&&&&&&&&&&&&&&&&&&&=====================.......                                                                                                                                                                       ",
"                                                                                                                                       .......==============&&&&&&&&&&&&&&&&&&&&&&&&&&&&&&&&&&&&&&&&&&&&&&&&&&&&&&&&&&&&&&&&&&&&&&&&&&&&&&&&&&&&&&&&&&&&&&&&&&&&&&&&&&&&&&&&&&&&&&&&&&&&&&&&&&&&&&&&&&&&&&&&&&&&&&&&&&&&&&&&&&&&&&&&&&&&&&&&&&&&&&&&&&&&&&&&&&&&&&&&&&&&&&&&&&=====================.......                                                                                                                                                                       ",
"                                                                                                                                       .......==============&&&&&&&&&&&&&&&&&&&&&&&&&&&&&&&&&&&&&&&&&&&&&&&&&&&&&&&&&&&&&&&&&&&&&&&&&&&&&&&&&&&&&&&&&&&&&&&&&&&&&&&&&&&&&&&&&&&&&&&&&&&&&&&&&&&&&&&&&&&&&&&&&&&&&&&&&&&&&&&&&&&&&&&&&&&&&&&&&&&&&&&&&&&&&&&&&&&&&&&&&&&&&&&&&&=====================.......                                                                                                                                                                       ",
"                                                                                                                                       .......==============&&&&&&&&&&&&&&&&&&&&&&&&&&&&&&&&&&&&&&&&&&&&&&&&&&&&&&&&&&&&&&&&&&&&&&&&&&&&&&&&&&&&&&&&&&&&&&&&&&&&&&&&&&&&&&&&&&&&&&&&&&&&&&&&&&&&&&&&&&&&&&&&&&&&&&&&&&&&&&&&&&&&&&&&&&&&&&&&&&&&&&&&&&&&&&&&&&&&&&&&&&&&&&&&&&=====================.......                                                                                                                                                                       ",
"                                                                                                                                       .......==============&&&&&&&&&&&&&&&&&&&&&&&&&&&&&&&&&&&&&&&&&&&&&&&&&&&&&&&&&&&&&&&&&&&&&&&&&&&&&&&&&&&&&&&&&&&&&&&&&&&&&&&&&&&&&&&&&&&&&&&&&&&&&&&&&&&&&&&&&&&&&&&&&&&&&&&&&&&&&&&&&&&&&&&&&&&&&&&&&&&&&&&&&&&&&&&&&&&&&&&&&&&&&&&&&&=====================.......                                                                                                                                                                       ",
"                                                                                                                                       .......==============&&&&&&&&&&&&&&&&&&&&&&&&&&&&&&&&&&&&&&&&&&&&&&&&&&&&&&&&&&&&&&&&&&&&&&&&&&&&&&&&&&&&&&&&&&&&&&&&&&&&&&&&&&&&&&&&&&&&&&&&&&&&&&&&&&&&&&&&&&&&&&&&&&&&&&&&&&&&&&&&&&&&&&&&&&&&&&&&&&&&&&&&&&&&&&&&&&&&&&&&&&&&&&&&&&=====================.......                                                                                                                                                                       ",
"                                                                                                                                .......==============&&&&&&&&&&&&&&&&&&&&&&&&&&&&&&&&&&&&&&&&&&&&&&&&&&&&&&&&&&&&&&&&&&&&&&&&&&&&&&&&&&&&&&&&&&&&&&&&&&&&&&&&&&&&&&&&&&&&&&&&&&&&&&&&&&&&&&&&&&&&&&&&&&&&&&&&&&&&&&&&&&&&&&&&&&&&&&&&&&&&&&&&&&&&&&&&&&&&&&&&&&&&&&&&&&============================.......                                                                                                                                                                       ",
"                                                                                                                                .......==============&&&&&&&&&&&&&&&&&&&&&&&&&&&&&&&&&&&&&&&&&&&&&&&&&&&&&&&&&&&&&&&&&&&&&&&&&&&&&&&&&&&&&&&&&&&&&&&&&&&&&&&&&&&&&&&&&&&&&&&&&&&&&&&&&&&&&&&&&&&&&&&&&&&&&&&&&&&&&&&&&&&&&&&&&&&&&&&&&&&&&&&&&&&&&&&&&&&&&&&&&&&&&&&&&&============================.......                                                                                                                                                                       ",
"                                                                                                                                .......==============&&&&&&&&&&&&&&&&&&&&&&&&&&&&&&&&&&&&&&&&&&&&&&&&&&&&&&&&&&&&&&&&&&&&&&&&&&&&&&&&&&&&&&&&&&&&&&&&&&&&&&&&&&&&&&&&&&&&&&&&&&&&&&&&&&&&&&&&&&&&&&&&&&&&&&&&&&&&&&&&&&&&&&&&&&&&&&&&&&&&&&&&&&&&&&&&&&&&&&&&&&&&&&&&&&============================.......                                                                                                                                                                       ",
"                                                                                                                                .......==============&&&&&&&&&&&&&&&&&&&&&&&&&&&&&&&&&&&&&&&&&&&&&&&&&&&&&&&&&&&&&&&&&&&&&&&&&&&&&&&&&&&&&&&&&&&&&&&&&&&&&&&&&&&&&&&&&&&&&&&&&&&&&&&&&&&&&&&&&&&&&&&&&&&&&&&&&&&&&&&&&&&&&&&&&&&&&&&&&&&&&&&&&&&&&&&&&&&&&&&&&&&&&&&&&&============================.......                                                                                                                                                                       ",
"                                                                                                                                .......==============&&&&&&&&&&&&&&&&&&&&&&&&&&&&&&&&&&&&&&&&&&&&&&&&&&&&&&&&&&&&&&&&&&&&&&&&&&&&&&&&&&&&&&&&&&&&&&&&&&&&&&&&&&&&&&&&&&&&&&&&&&&&&&&&&&&&&&&&&&&&&&&&&&&&&&&&&&&&&&&&&&&&&&&&&&&&&&&&&&&&&&&&&&&&&&&&&&&&&&&&&&&&&&&&&&============================.......                                                                                                                                                                       ",
"                                                                                                                                .......==============&&&&&&&&&&&&&&&&&&&&&&&&&&&&&&&&&&&&&&&&&&&&&&&&&&&&&&&&&&&&&&&&&&&&&&&&&&&&&&&&&&&&&&&&&&&&&&&&&&&&&&&&&&&&&&&&&&&&&&&&&&&&&&&&&&&&&&&&&&&&&&&&&&&&&&&&&&&&&&&&&&&&&&&&&&&&&&&&&&&&&&&&&&&&&&&&&&&&&&&&&&&&&&&&&&============================.......                                                                                                                                                                       ",
"                                                                                                                                .......==============&&&&&&&&&&&&&&&&&&&&&&&&&&&&&&&&&&&&&&&&&&&&&&&&&&&&&&&&&&&&&&&&&&&&&&&&&&&&&&&&&&&&&&&&&&&&&&&&&&&&&&&&&&&&&&&&&&&&&&&&&&&&&&&&&&&&&&&&&&&&&&&&&&&&&&&&&&&&&&&&&&&&&&&&&&&&&&&&&&&&&&&&&&&&&&&&&&&&&&&&&&&&&&&&&&============================.......                                                                                                                                                                       ",
"                                                                                                                         .......==============&&&&&&&&&&&&&&&&&&&&&&&&&&&&&&&&&&&&&&&&&&&&&&&&&&&&&&&&&&&&&&&&&&&&&&&&&&&&&&&&&&&&&&&&&&&&&&&&&&&&&&&&&&&&&&&&&&&&&&&&&&&&&&&&&&&&&&&&&&&&&&&&&&&&&&&&&&&&&&&&&&&&&&&&&&&&&&&&&&&&&&&&&&&&&&&&&&&&&&&&&&&&&&&&&&&&&&&&&=====================.......                                                                                                                                                                              ",
"                                                                                                                         .......==============&&&&&&&&&&&&&&&&&&&&&&&&&&&&&&&&&&&&&&&&&&&&&&&&&&&&&&&&&&&&&&&&&&&&&&&&&&&&&&&&&&&&&&&&&&&&&&&&&&&&&&&&&&&&&&&&&&&&&&&&&&&&&&&&&&&&&&&&&&&&&&&&&&&&&&&&&&&&&&&&&&&&&&&&&&&&&&&&&&&&&&&&&&&&&&&&&&&&&&&&&&&&&&&&&&&&&&&&&=====================.......                                                                                                                                                                              ",
"                                                                                                                         .......==============&&&&&&&&&&&&&&&&&&&&&&&&&&&&&&&&&&&&&&&&&&&&&&&&&&&&&&&&&&&&&&&&&&&&&&&&&&&&&&&&&&&&&&&&&&&&&&&&&&&&&&&&&&&&&&&&&&&&&&&&&&&&&&&&&&&&&&&&&&&&&&&&&&&&&&&&&&&&&&&&&&&&&&&&&&&&&&&&&&&&&&&&&&&&&&&&&&&&&&&&&&&&&&&&&&&&&&&&&=====================.......                                                                                                                                                                              ",
"                                                                                                                         .......==============&&&&&&&&&&&&&&&&&&&&&&&&&&&&&&&&&&&&&&&&&&&&&&&&&&&&&&&&&&&&&&&&&&&&&&&&&&&&&&&&&&&&&&&&&&&&&&&&&&&&&&&&&&&&&&&&&&&&&&&&&&&&&&&&&&&&&&&&&&&&&&&&&&&&&&&&&&&&&&&&&&&&&&&&&&&&&&&&&&&&&&&&&&&&&&&&&&&&&&&&&&&&&&&&&&&&&&&&&=====================.......                                                                                                                                                                              ",
"                                                                                                                         .......==============&&&&&&&&&&&&&&&&&&&&&&&&&&&&&&&&&&&&&&&&&&&&&&&&&&&&&&&&&&&&&&&&&&&&&&&&&&&&&&&&&&&&&&&&&&&&&&&&&&&&&&&&&&&&&&&&&&&&&&&&&&&&&&&&&&&&&&&&&&&&&&&&&&&&&&&&&&&&&&&&&&&&&&&&&&&&&&&&&&&&&&&&&&&&&&&&&&&&&&&&&&&&&&&&&&&&&&&&&=====================.......                                                                                                                                                                              ",
"                                                                                                                         .......==============&&&&&&&&&&&&&&&&&&&&&&&&&&&&&&&&&&&&&&&&&&&&&&&&&&&&&&&&&&&&&&&&&&&&&&&&&&&&&&&&&&&&&&&&&&&&&&&&&&&&&&&&&&&&&&&&&&&&&&&&&&&&&&&&&&&&&&&&&&&&&&&&&&&&&&&&&&&&&&&&&&&&&&&&&&&&&&&&&&&&&&&&&&&&&&&&&&&&&&&&&&&&&&&&&&&&&&&&&=====================.......                                                                                                                                                                              ",
"                                                                                                                         .......==============&&&&&&&&&&&&&&&&&&&&&&&&&&&&&&&&&&&&&&&&&&&&&&&&&&&&&&&&&&&&&&&&&&&&&&&&&&&&&&&&&&&&&&&&&&&&&&&&&&&&&&&&&&&&&&&&&&&&&&&&&&&&&&&&&&&&&&&&&&&&&&&&&&&&&&&&&&&&&&&&&&&&&&&&&&&&&&&&&&&&&&&&&&&&&&&&&&&&&&&&&&&&&&&&&&&&&&&&&=====================.......                                                                                                                                                                              ",
"                                                                                                                  .......==============&&&&&&&&&&&&&&&&&&&&&&&&&&&&&&&&&&&&&&&&&&&&&&&&&&&&&&&&&&&&&&&&&&&&&&&&&&&&&&&&&&&&&&&&&&&&&&&&&&&&&&&&&&&&&&&&&&&&&&&&&&&&&&&&&&&&&&&&&&&&&&&&&&&&&&&&&&&&&&&&&&&&&&&&&&&&&&&&&&&&&&&&&&&&&&&&&&&&&&&&&&&&&&&&&&&&&&&&&============================.......                                                                                                                                                                              ",
"                                                                                                                  .......==============&&&&&&&&&&&&&&&&&&&&&&&&&&&&&&&&&&&&&&&&&&&&&&&&&&&&&&&&&&&&&&&&&&&&&&&&&&&&&&&&&&&&&&&&&&&&&&&&&&&&&&&&&&&&&&&&&&&&&&&&&&&&&&&&&&&&&&&&&&&&&&&&&&&&&&&&&&&&&&&&&&&&&&&&&&&&&&&&&&&&&&&&&&&&&&&&&&&&&&&&&&&&&&&&&&&&&&&&&============================.......                                                                                                                                                                              ",
"                                                                                                                  .......==============&&&&&&&&&&&&&&&&&&&&&&&&&&&&&&&&&&&&&&&&&&&&&&&&&&&&&&&&&&&&&&&&&&&&&&&&&&&&&&&&&&&&&&&&&&&&&&&&&&&&&&&&&&&&&&&&&&&&&&&&&&&&&&&&&&&&&&&&&&&&&&&&&&&&&&&&&&&&&&&&&&&&&&&&&&&&&&&&&&&&&&&&&&&&&&&&&&&&&&&&&&&&&&&&&&&&&&&&&============================.......                                                                                                                                                                              ",
"                                                                                                                  .......==============&&&&&&&&&&&&&&&&&&&&&&&&&&&&&&&&&&&&&&&&&&&&&&&&&&&&&&&&&&&&&&&&&&&&&&&&&&&&&&&&&&&&&&&&&&&&&&&&&&&&&&&&&&&&&&&&&&&&&&&&&&&&&&&&&&&&&&&&&&&&&&&&&&&&&&&&&&&&&&&&&&&&&&&&&&&&&&&&&&&&&&&&&&&&&&&&&&&&&&&&&&&&&&&&&&&&&&&&&============================.......                                                                                                                                                                              ",
"                                                                                                                  .......==============&&&&&&&&&&&&&&&&&&&&&&&&&&&&&&&&&&&&&&&&&&&&&&&&&&&&&&&&&&&&&&&&&&&&&&&&&&&&&&&&&&&&&&&&&&&&&&&&&&&&&&&&&&&&&&&&&&&&&&&&&&&&&&&&&&&&&&&&&&&&&&&&&&&&&&&&&&&&&&&&&&&&&&&&&&&&&&&&&&&&&&&&&&&&&&&&&&&&&&&&&&&&&&&&&&&&&&&&&============================.......                                                                                                                                                                              ",
"                                                                                                                  .......==============&&&&&&&&&&&&&&&&&&&&&&&&&&&&&&&&&&&&&&&&&&&&&&&&&&&&&&&&&&&&&&&&&&&&&&&&&&&&&&&&&&&&&&&&&&&&&&&&&&&&&&&&&&&&&&&&&&&&&&&&&&&&&&&&&&&&&&&&&&&&&&&&&&&&&&&&&&&&&&&&&&&&&&&&&&&&&&&&&&&&&&&&&&&&&&&&&&&&&&&&&&&&&&&&&&&&&&&&&============================.......                                                                                                                                                                              ",
"                                                                                                                  .......==============&&&&&&&&&&&&&&&&&&&&&&&&&&&&&&&&&&&&&&&&&&&&&&&&&&&&&&&&&&&&&&&&&&&&&&&&&&&&&&&&&&&&&&&&&&&&&&&&&&&&&&&&&&&&&&&&&&&&&&&&&&&&&&&&&&&&&&&&&&&&&&&&&&&&&&&&&&&&&&&&&&&&&&&&&&&&&&&&&&&&&&&&&&&&&&&&&&&&&&&&&&&&&&&&&&&&&&&&&============================.......                                                                                                                                                                              ",
"                                                                                                           .......==============&&&&&&&&&&&&&&&&&&&&&&&&&&&&&&&&&&&&&&&&&&&&&&&&&&&&&&&&&&&&&&&&&&&&&&&&&&&&&&&&&&&&&&&&&&&&&&&&&&&&&&&&&&&&&&&&&&&&&&&&&&&&&&&&&&&&&&&&&&&&&&&&&&&&&&&&&&&&&&&&&&&&&&&&&&&&&&&&&&&&&&&&&&&&&&&&&&&&&&&&&&&&&&&&&&&&&&&&&&&&&&&&=====================.......                                                                                                                                                                                     ",
"                                                                                                           .......==============&&&&&&&&&&&&&&&&&&&&&&&&&&&&&&&&&&&&&&&&&&&&&&&&&&&&&&&&&&&&&&&&&&&&&&&&&&&&&&&&&&&&&&&&&&&&&&&&&&&&&&&&&&&&&&&&&&&&&&&&&&&&&&&&&&&&&&&&&&&&&&&&&&&&&&&&&&&&&&&&&&&&&&&&&&&&&&&&&&&&&&&&&&&&&&&&&&&&&&&&&&&&&&&&&&&&&&&&&&&&&&&&=====================.......                                                                                                                                                                                     ",
"                                                                                                           .......==============&&&&&&&&&&&&&&&&&&&&&&&&&&&&&&&&&&&&&&&&&&&&&&&&&&&&&&&&&&&&&&&&&&&&&&&&&&&&&&&&&&&&&&&&&&&&&&&&&&&&&&&&&&&&&&&&&&&&&&&&&&&&&&&&&&&&&&&&&&&&&&&&&&&&&&&&&&&&&&&&&&&&&&&&&&&&&&&&&&&&&&&&&&&&&&&&&&&&&&&&&&&&&&&&&&&&&&&&&&&&&&&&=====================.......                                                                                                                                                                                     ",
"                                                                                                           .......==============&&&&&&&&&&&&&&&&&&&&&&&&&&&&&&&&&&&&&&&&&&&&&&&&&&&&&&&&&&&&&&&&&&&&&&&&&&&&&&&&&&&&&&&&&&&&&&&&&&&&&&&&&&&&&&&&&&&&&&&&&&&&&&&&&&&&&&&&&&&&&&&&&&&&&&&&&&&&&&&&&&&&&&&&&&&&&&&&&&&&&&&&&&&&&&&&&&&&&&&&&&&&&&&&&&&&&&&&&&&&&&&&=====================.......                                                                                                                                                                                     ",
"                                                                                                           .......==============&&&&&&&&&&&&&&&&&&&&&&&&&&&&&&&&&&&&&&&&&&&&&&&&&&&&&&&&&&&&&&&&&&&&&&&&&&&&&&&&&&&&&&&&&&&&&&&&&&&&&&&&&&&&&&&&&&&&&&&&&&&&&&&&&&&&&&&&&&&&&&&&&&&&&&&&&&&&&&&&&&&&&&&&&&&&&&&&&&&&&&&&&&&&&&&&&&&&&&&&&&&&&&&&&&&&&&&&&&&&&&&&=====================.......                                                                                                                                                                                     ",
"                                                                                                           .......==============&&&&&&&&&&&&&&&&&&&&&&&&&&&&&&&&&&&&&&&&&&&&&&&&&&&&&&&&&&&&&&&&&&&&&&&&&&&&&&&&&&&&&&&&&&&&&&&&&&&&&&&&&&&&&&&&&&&&&&&&&&&&&&&&&&&&&&&&&&&&&&&&&&&&&&&&&&&&&&&&&&&&&&&&&&&&&&&&&&&&&&&&&&&&&&&&&&&&&&&&&&&&&&&&&&&&&&&&&&&&&&&&=====================.......                                                                                                                                                                                     ",
"                                                                                                           .......==============&&&&&&&&&&&&&&&&&&&&&&&&&&&&&&&&&&&&&&&&&&&&&&&&&&&&&&&&&&&&&&&&&&&&&&&&&&&&&&&&&&&&&&&&&&&&&&&&&&&&&&&&&&&&&&&&&&&&&&&&&&&&&&&&&&&&&&&&&&&&&&&&&&&&&&&&&&&&&&&&&&&&&&&&&&&&&&&&&&&&&&&&&&&&&&&&&&&&&&&&&&&&&&&&&&&&&&&&&&&&&&&&=====================.......                                                                                                                                                                                     ",
"                                                                                                    .......==============&&&&&&&&&&&&&&&&&&&&&&&&&&&&&&&&&&&&&&&&&&&&&&&&&&&&&&&&&&&&&&&&&&&&&&&&&&&&&&&&&&&&&&&&&&&&&&&&&&&&&&&&&&&&&&&&&&&&&&&&&&&&&&&&&&&&&&&&&&&&&&&&&&&&&&&&&&&&&&&&&&&&&&&&&&&&&&&&&&&&&&&&&&&&&&&&&&&&&&&&&&&&&&&&&&&&&&&&&&&&&&&&&&&&&&&==============..............                                                                                                                                                                                     ",
"                                                                                                    .......==============&&&&&&&&&&&&&&&&&&&&&&&&&&&&&&&&&&&&&&&&&&&&&&&&&&&&&&&&&&&&&&&&&&&&&&&&&&&&&&&&&&&&&&&&&&&&&&&&&&&&&&&&&&&&&&&&&&&&&&&&&&&&&&&&&&&&&&&&&&&&&&&&&&&&&&&&&&&&&&&&&&&&&&&&&&&&&&&&&&&&&&&&&&&&&&&&&&&&&&&&&&&&&&&&&&&&&&&&&&&&&&&&&&&&&&&==============..............                                                                                                                                                                                     ",
"                                                                                                    .......==============&&&&&&&&&&&&&&&&&&&&&&&&&&&&&&&&&&&&&&&&&&&&&&&&&&&&&&&&&&&&&&&&&&&&&&&&&&&&&&&&&&&&&&&&&&&&&&&&&&&&&&&&&&&&&&&&&&&&&&&&&&&&&&&&&&&&&&&&&&&&&&&&&&&&&&&&&&&&&&&&&&&&&&&&&&&&&&&&&&&&&&&&&&&&&&&&&&&&&&&&&&&&&&&&&&&&&&&&&&&&&&&&&&&&&&&==============..............                                                                                                                                                                                     ",
"                                                                                                    .......==============&&&&&&&&&&&&&&&&&&&&&&&&&&&&&&&&&&&&&&&&&&&&&&&&&&&&&&&&&&&&&&&&&&&&&&&&&&&&&&&&&&&&&&&&&&&&&&&&&&&&&&&&&&&&&&&&&&&&&&&&&&&&&&&&&&&&&&&&&&&&&&&&&&&&&&&&&&&&&&&&&&&&&&&&&&&&&&&&&&&&&&&&&&&&&&&&&&&&&&&&&&&&&&&&&&&&&&&&&&&&&&&&&&&&&&&==============..............                                                                                                                                                                                     ",
"                                                                                                    .......==============&&&&&&&&&&&&&&&&&&&&&&&&&&&&&&&&&&&&&&&&&&&&&&&&&&&&&&&&&&&&&&&&&&&&&&&&&&&&&&&&&&&&&&&&&&&&&&&&&&&&&&&&&&&&&&&&&&&&&&&&&&&&&&&&&&&&&&&&&&&&&&&&&&&&&&&&&&&&&&&&&&&&&&&&&&&&&&&&&&&&&&&&&&&&&&&&&&&&&&&&&&&&&&&&&&&&&&&&&&&&&&&&&&&&&&&==============..............                                                                                                                                                                                     ",
"                                                                                                    .......==============&&&&&&&&&&&&&&&&&&&&&&&&&&&&&&&&&&&&&&&&&&&&&&&&&&&&&&&&&&&&&&&&&&&&&&&&&&&&&&&&&&&&&&&&&&&&&&&&&&&&&&&&&&&&&&&&&&&&&&&&&&&&&&&&&&&&&&&&&&&&&&&&&&&&&&&&&&&&&&&&&&&&&&&&&&&&&&&&&&&&&&&&&&&&&&&&&&&&&&&&&&&&&&&&&&&&&&&&&&&&&&&&&&&&&&&==============..............                                                                                                                                                                                     ",
"                                                                                                    .......==============&&&&&&&&&&&&&&&&&&&&&&&&&&&&&&&&&&&&&&&&&&&&&&&&&&&&&&&&&&&&&&&&&&&&&&&&&&&&&&&&&&&&&&&&&&&&&&&&&&&&&&&&&&&&&&&&&&&&&&&&&&&&&&&&&&&&&&&&&&&&&&&&&&&&&&&&&&&&&&&&&&&&&&&&&&&&&&&&&&&&&&&&&&&&&&&&&&&&&&&&&&&&&&&&&&&&&&&&&&&&&&&&&&&&&&&==============..............                                                                                                                                                                                     ",
"                                                                                             .......==============&&&&&&&&&&&&&&&&&&&&&&&&&&&&&&&&&&&&&&&&&&&&&&&&&&&&&&&&&&&&&&&&&&&&&&&&&&&&&&&&&&&&&&&&&&&&&&&&&&&&&&&&&&&&&&&&&&&&&&&&&&&&&&&&&&&&&&&&&&&&&&&&&&&&&&&&&&&&&&&&&&&&&&&&&&&&&&&&&&&&&&&&&&&&&&&&&&&&&&&&&&&&&&&&&&&&&&&&&&&&&&&&&&&&&&&=====================.......                                                                                                                                                                                            ",
"                                                                                             .......==============&&&&&&&&&&&&&&&&&&&&&&&&&&&&&&&&&&&&&&&&&&&&&&&&&&&&&&&&&&&&&&&&&&&&&&&&&&&&&&&&&&&&&&&&&&&&&&&&&&&&&&&&&&&&&&&&&&&&&&&&&&&&&&&&&&&&&&&&&&&&&&&&&&&&&&&&&&&&&&&&&&&&&&&&&&&&&&&&&&&&&&&&&&&&&&&&&&&&&&&&&&&&&&&&&&&&&&&&&&&&&&&&&&&&&&&=====================.......                                                                                                                                                                                            ",
"                                                                                             .......==============&&&&&&&&&&&&&&&&&&&&&&&&&&&&&&&&&&&&&&&&&&&&&&&&&&&&&&&&&&&&&&&&&&&&&&&&&&&&&&&&&&&&&&&&&&&&&&&&&&&&&&&&&&&&&&&&&&&&&&&&&&&&&&&&&&&&&&&&&&&&&&&&&&&&&&&&&&&&&&&&&&&&&&&&&&&&&&&&&&&&&&&&&&&&&&&&&&&&&&&&&&&&&&&&&&&&&&&&&&&&&&&&&&&&&&&=====================.......                                                                                                                                                                                            ",
"                                                                                             .......==============&&&&&&&&&&&&&&&&&&&&&&&&&&&&&&&&&&&&&&&&&&&&&&&&&&&&&&&&&&&&&&&&&&&&&&&&&&&&&&&&&&&&&&&&&&&&&&&&&&&&&&&&&&&&&&&&&&&&&&&&&&&&&&&&&&&&&&&&&&&&&&&&&&&&&&&&&&&&&&&&&&&&&&&&&&&&&&&&&&&&&&&&&&&&&&&&&&&&&&&&&&&&&&&&&&&&&&&&&&&&&&&&&&&&&&&=====================.......                                                                                                                                                                                            ",
"                                                                                             .......==============&&&&&&&&&&&&&&&&&&&&&&&&&&&&&&&&&&&&&&&&&&&&&&&&&&&&&&&&&&&&&&&&&&&&&&&&&&&&&&&&&&&&&&&&&&&&&&&&&&&&&&&&&&&&&&&&&&&&&&&&&&&&&&&&&&&&&&&&&&&&&&&&&&&&&&&&&&&&&&&&&&&&&&&&&&&&&&&&&&&&&&&&&&&&&&&&&&&&&&&&&&&&&&&&&&&&&&&&&&&&&&&&&&&&&&&=====================.......                                                                                                                                                                                            ",
"                                                                                             .......==============&&&&&&&&&&&&&&&&&&&&&&&&&&&&&&&&&&&&&&&&&&&&&&&&&&&&&&&&&&&&&&&&&&&&&&&&&&&&&&&&&&&&&&&&&&&&&&&&&&&&&&&&&&&&&&&&&&&&&&&&&&&&&&&&&&&&&&&&&&&&&&&&&&&&&&&&&&&&&&&&&&&&&&&&&&&&&&&&&&&&&&&&&&&&&&&&&&&&&&&&&&&&&&&&&&&&&&&&&&&&&&&&&&&&&&&=====================.......                                                                                                                                                                                            ",
"                                                                                             .......==============&&&&&&&&&&&&&&&&&&&&&&&&&&&&&&&&&&&&&&&&&&&&&&&&&&&&&&&&&&&&&&&&&&&&&&&&&&&&&&&&&&&&&&&&&&&&&&&&&&&&&&&&&&&&&&&&&&&&&&&&&&&&&&&&&&&&&&&&&&&&&&&&&&&&&&&&&&&&&&&&&&&&&&&&&&&&&&&&&&&&&&&&&&&&&&&&&&&&&&&&&&&&&&&&&&&&&&&&&&&&&&&&&&&&&&&=====================.......                                                                                                                                                                                            ",
"                                                                                      .......==============&&&&&&&&&&&&&&&&&&&&&&&&&&&&&&&&&&&&&&&&&&&&&&&&&&&&&&&&&&&&&&&&&&&&&&&&&&&&&&&&&&&&&&&&&&&&&&&&&&&&&&&&&&&&&&&&&&&&&&&&&&&&&&&&&&&&&&&&&&&&&&&&&&&&&&&&&&&&&&&&&&&&&&&&&&&&&&&&&&&&&&&&&&&&&&&&&&&&&&&&&&&&&&&&&&&&&&&&&&&&&&&&&&&&&&&&&&&&&&==============..............                                                                                                                                                                                            ",
"                                                                                      .......==============&&&&&&&&&&&&&&&&&&&&&&&&&&&&&&&&&&&&&&&&&&&&&&&&&&&&&&&&&&&&&&&&&&&&&&&&&&&&&&&&&&&&&&&&&&&&&&&&&&&&&&&&&&&&&&&&&&&&&&&&&&&&&&&&&&&&&&&&&&&&&&&&&&&&&&&&&&&&&&&&&&&&&&&&&&&&&&&&&&&&&&&&&&&&&&&&&&&&&&&&&&&&&&&&&&&&&&&&&&&&&&&&&&&&&&&&&&&&&&==============..............                                                                                                                                                                                            ",
"                                                                                      .......==============&&&&&&&&&&&&&&&&&&&&&&&&&&&&&&&&&&&&&&&&&&&&&&&&&&&&&&&&&&&&&&&&&&&&&&&&&&&&&&&&&&&&&&&&&&&&&&&&&&&&&&&&&&&&&&&&&&&&&&&&&&&&&&&&&&&&&&&&&&&&&&&&&&&&&&&&&&&&&&&&&&&&&&&&&&&&&&&&&&&&&&&&&&&&&&&&&&&&&&&&&&&&&&&&&&&&&&&&&&&&&&&&&&&&&&&&&&&&&&==============..............                                                                                                                                                                                            ",
"                                                                                      .......==============&&&&&&&&&&&&&&&&&&&&&&&&&&&&&&&&&&&&&&&&&&&&&&&&&&&&&&&&&&&&&&&&&&&&&&&&&&&&&&&&&&&&&&&&&&&&&&&&&&&&&&&&&&&&&&&&&&&&&&&&&&&&&&&&&&&&&&&&&&&&&&&&&&&&&&&&&&&&&&&&&&&&&&&&&&&&&&&&&&&&&&&&&&&&&&&&&&&&&&&&&&&&&&&&&&&&&&&&&&&&&&&&&&&&&&&&&&&&&&==============..............                                                                                                                                                                                            ",
"                                                                                      .......==============&&&&&&&&&&&&&&&&&&&&&&&&&&&&&&&&&&&&&&&&&&&&&&&&&&&&&&&&&&&&&&&&&&&&&&&&&&&&&&&&&&&&&&&&&&&&&&&&&&&&&&&&&&&&&&&&&&&&&&&&&&&&&&&&&&&&&&&&&&&&&&&&&&&&&&&&&&&&&&&&&&&&&&&&&&&&&&&&&&&&&&&&&&&&&&&&&&&&&&&&&&&&&&&&&&&&&&&&&&&&&&&&&&&&&&&&&&&&&&==============..............                                                                                                                                                                                            ",
"                                                                                      .......==============&&&&&&&&&&&&&&&&&&&&&&&&&&&&&&&&&&&&&&&&&&&&&&&&&&&&&&&&&&&&&&&&&&&&&&&&&&&&&&&&&&&&&&&&&&&&&&&&&&&&&&&&&&&&&&&&&&&&&&&&&&&&&&&&&&&&&&&&&&&&&&&&&&&&&&&&&&&&&&&&&&&&&&&&&&&&&&&&&&&&&&&&&&&&&&&&&&&&&&&&&&&&&&&&&&&&&&&&&&&&&&&&&&&&&&&&&&&&&&==============..............                                                                                                                                                                                            ",
"                                                                                      .......==============&&&&&&&&&&&&&&&&&&&&&&&&&&&&&&&&&&&&&&&&&&&&&&&&&&&&&&&&&&&&&&&&&&&&&&&&&&&&&&&&&&&&&&&&&&&&&&&&&&&&&&&&&&&&&&&&&&&&&&&&&&&&&&&&&&&&&&&&&&&&&&&&&&&&&&&&&&&&&&&&&&&&&&&&&&&&&&&&&&&&&&&&&&&&&&&&&&&&&&&&&&&&&&&&&&&&&&&&&&&&&&&&&&&&&&&&&&&&&&==============..............                                                                                                                                                                                            ",
"                                                                               .......==============&&&&&&&&&&&&&&&&&&&&&&&&&&&&&&&&&&&&&&&&&&&&&&&&&&&&&&&&&&&&&&&&&&&&&&&&&&&&&&&&&&&&&&&&&&&&&&&&&&&&&&&&&&&&&&&&&&&&&&&&&&&&&&&&&&&&&&&&&&&&&&&&&&&&&&&&&&&&&&&&&&&&&&&&&&&&&&&&&&&&&&&&&&&&&&&&&&&&&&&&&&&&&&&&&&&&&&&&&&&&&&&&&&&&&&&&&&&&&&=====================.......                                                                                                                                                                                                   ",
"                                                                               .......==============&&&&&&&&&&&&&&&&&&&&&&&&&&&&&&&&&&&&&&&&&&&&&&&&&&&&&&&&&&&&&&&&&&&&&&&&&&&&&&&&&&&&&&&&&&&&&&&&&&&&&&&&&&&&&&&&&&&&&&&&&&&&&&&&&&&&&&&&&&&&&&&&&&&&&&&&&&&&&&&&&&&&&&&&&&&&&&&&&&&&&&&&&&&&&&&&&&&&&&&&&&&&&&&&&&&&&&&&&&&&&&&&&&&&&&&&&&&&&&=====================.......                                                                                                                                                                                                   ",
"                                                                               .......==============&&&&&&&&&&&&&&&&&&&&&&&&&&&&&&&&&&&&&&&&&&&&&&&&&&&&&&&&&&&&&&&&&&&&&&&&&&&&&&&&&&&&&&&&&&&&&&&&&&&&&&&&&&&&&&&&&&&&&&&&&&&&&&&&&&&&&&&&&&&&&&&&&&&&&&&&&&&&&&&&&&&&&&&&&&&&&&&&&&&&&&&&&&&&&&&&&&&&&&&&&&&&&&&&&&&&&&&&&&&&&&&&&&&&&&&&&&&&&&=====================.......                                                                                                                                                                                                   ",
"                                                                               .......==============&&&&&&&&&&&&&&&&&&&&&&&&&&&&&&&&&&&&&&&&&&&&&&&&&&&&&&&&&&&&&&&&&&&&&&&&&&&&&&&&&&&&&&&&&&&&&&&&&&&&&&&&&&&&&&&&&&&&&&&&&&&&&&&&&&&&&&&&&&&&&&&&&&&&&&&&&&&&&&&&&&&&&&&&&&&&&&&&&&&&&&&&&&&&&&&&&&&&&&&&&&&&&&&&&&&&&&&&&&&&&&&&&&&&&&&&&&&&&&=====================.......                                                                                                                                                                                                   ",
"                                                                               .......==============&&&&&&&&&&&&&&&&&&&&&&&&&&&&&&&&&&&&&&&&&&&&&&&&&&&&&&&&&&&&&&&&&&&&&&&&&&&&&&&&&&&&&&&&&&&&&&&&&&&&&&&&&&&&&&&&&&&&&&&&&&&&&&&&&&&&&&&&&&&&&&&&&&&&&&&&&&&&&&&&&&&&&&&&&&&&&&&&&&&&&&&&&&&&&&&&&&&&&&&&&&&&&&&&&&&&&&&&&&&&&&&&&&&&&&&&&&&&&&=====================.......                                                                                                                                                                                                   ",
"                                                                               .......==============&&&&&&&&&&&&&&&&&&&&&&&&&&&&&&&&&&&&&&&&&&&&&&&&&&&&&&&&&&&&&&&&&&&&&&&&&&&&&&&&&&&&&&&&&&&&&&&&&&&&&&&&&&&&&&&&&&&&&&&&&&&&&&&&&&&&&&&&&&&&&&&&&&&&&&&&&&&&&&&&&&&&&&&&&&&&&&&&&&&&&&&&&&&&&&&&&&&&&&&&&&&&&&&&&&&&&&&&&&&&&&&&&&&&&&&&&&&&&&=====================.......                                                                                                                                                                                                   ",
"                                                                               .......==============&&&&&&&&&&&&&&&&&&&&&&&&&&&&&&&&&&&&&&&&&&&&&&&&&&&&&&&&&&&&&&&&&&&&&&&&&&&&&&&&&&&&&&&&&&&&&&&&&&&&&&&&&&&&&&&&&&&&&&&&&&&&&&&&&&&&&&&&&&&&&&&&&&&&&&&&&&&&&&&&&&&&&&&&&&&&&&&&&&&&&&&&&&&&&&&&&&&&&&&&&&&&&&&&&&&&&&&&&&&&&&&&&&&&&&&&&&&&&&=====================.......                                                                                                                                                                                                   ",
"                                                                        .......=======&&&&&&&&&&&&&&&&&&&&&&&&&&&&&&&&&&&&&&&&&&&&&&&&&&&&&&&&&&&&&&&&&&&&&&&&&&&&&&&&&&&&&&&&&&&&&&&&&&&&&&&&&&&&&&&&&&&&&&&&&&&&&&&&&&&&&&&&&&&&&&&&&&&&&&&&&&&&&&&&&&&&&&&&&&&&&&&&&&&&&&&&&&&&&&&&&&&&&&&&&&&&&&&&&&&&&&&&&&&&&&&&&&&&&&&&&&&&&&&&&&&&&&&&&&&&=====================.......                                                                                                                                                                                                   ",
"                                                                        .......=======&&&&&&&&&&&&&&&&&&&&&&&&&&&&&&&&&&&&&&&&&&&&&&&&&&&&&&&&&&&&&&&&&&&&&&&&&&&&&&&&&&&&&&&&&&&&&&&&&&&&&&&&&&&&&&&&&&&&&&&&&&&&&&&&&&&&&&&&&&&&&&&&&&&&&&&&&&&&&&&&&&&&&&&&&&&&&&&&&&&&&&&&&&&&&&&&&&&&&&&&&&&&&&&&&&&&&&&&&&&&&&&&&&&&&&&&&&&&&&&&&&&&&&&&&&&&=====================.......                                                                                                                                                                                                   ",
"                                                                        .......=======&&&&&&&&&&&&&&&&&&&&&&&&&&&&&&&&&&&&&&&&&&&&&&&&&&&&&&&&&&&&&&&&&&&&&&&&&&&&&&&&&&&&&&&&&&&&&&&&&&&&&&&&&&&&&&&&&&&&&&&&&&&&&&&&&&&&&&&&&&&&&&&&&&&&&&&&&&&&&&&&&&&&&&&&&&&&&&&&&&&&&&&&&&&&&&&&&&&&&&&&&&&&&&&&&&&&&&&&&&&&&&&&&&&&&&&&&&&&&&&&&&&&&&&&&&&&=====================.......                                                                                                                                                                                                   ",
"                                                                        .......=======&&&&&&&&&&&&&&&&&&&&&&&&&&&&&&&&&&&&&&&&&&&&&&&&&&&&&&&&&&&&&&&&&&&&&&&&&&&&&&&&&&&&&&&&&&&&&&&&&&&&&&&&&&&&&&&&&&&&&&&&&&&&&&&&&&&&&&&&&&&&&&&&&&&&&&&&&&&&&&&&&&&&&&&&&&&&&&&&&&&&&&&&&&&&&&&&&&&&&&&&&&&&&&&&&&&&&&&&&&&&&&&&&&&&&&&&&&&&&&&&&&&&&&&&&&&&=====================.......                                                                                                                                                                                                   ",
"                                                                        .......=======&&&&&&&&&&&&&&&&&&&&&&&&&&&&&&&&&&&&&&&&&&&&&&&&&&&&&&&&&&&&&&&&&&&&&&&&&&&&&&&&&&&&&&&&&&&&&&&&&&&&&&&&&&&&&&&&&&&&&&&&&&&&&&&&&&&&&&&&&&&&&&&&&&&&&&&&&&&&&&&&&&&&&&&&&&&&&&&&&&&&&&&&&&&&&&&&&&&&&&&&&&&&&&&&&&&&&&&&&&&&&&&&&&&&&&&&&&&&&&&&&&&&&&&&&&&&=====================.......                                                                                                                                                                                                   ",
"                                                                        .......=======&&&&&&&&&&&&&&&&&&&&&&&&&&&&&&&&&&&&&&&&&&&&&&&&&&&&&&&&&&&&&&&&&&&&&&&&&&&&&&&&&&&&&&&&&&&&&&&&&&&&&&&&&&&&&&&&&&&&&&&&&&&&&&&&&&&&&&&&&&&&&&&&&&&&&&&&&&&&&&&&&&&&&&&&&&&&&&&&&&&&&&&&&&&&&&&&&&&&&&&&&&&&&&&&&&&&&&&&&&&&&&&&&&&&&&&&&&&&&&&&&&&&&&&&&&&&=====================.......                                                                                                                                                                                                   ",
"                                                                        .......=======&&&&&&&&&&&&&&&&&&&&&&&&&&&&&&&&&&&&&&&&&&&&&&&&&&&&&&&&&&&&&&&&&&&&&&&&&&&&&&&&&&&&&&&&&&&&&&&&&&&&&&&&&&&&&&&&&&&&&&&&&&&&&&&&&&&&&&&&&&&&&&&&&&&&&&&&&&&&&&&&&&&&&&&&&&&&&&&&&&&&&&&&&&&&&&&&&&&&&&&&&&&&&&&&&&&&&&&&&&&&&&&&&&&&&&&&&&&&&&&&&&&&&&&&&&&&=====================.......                                                                                                                                                                                                   ",
"                                                                 .......=======&&&&&&&&&&&&&&&&&&&&&&&&&&&&&&&&&&&&&&&&&&&&&&&&&&&&&&&&&&&&&&&&&&&&&&&&&&&&&&&&&&&&&&&&&&&&&&&&&&&&&&&&&&&&&&&&&&&&&&&&&&&&&&&&&&&&&&&&&&&&&&&&&&&&&&&&&&&&&&&&&&&&&&&&&&&&&&&&&&&&&&&&&&&&&&&&&&&&&&&&&&&&&&&&&&&&&&&&&&&&&&&&&&&&&&&&&&&&&&&&&&&&&&&&&&&&&&&&&&&==============..............                                                                                                                                                                                                   ",
"                                                                 .......=======&&&&&&&&&&&&&&&&&&&&&&&&&&&&&&&&&&&&&&&&&&&&&&&&&&&&&&&&&&&&&&&&&&&&&&&&&&&&&&&&&&&&&&&&&&&&&&&&&&&&&&&&&&&&&&&&&&&&&&&&&&&&&&&&&&&&&&&&&&&&&&&&&&&&&&&&&&&&&&&&&&&&&&&&&&&&&&&&&&&&&&&&&&&&&&&&&&&&&&&&&&&&&&&&&&&&&&&&&&&&&&&&&&&&&&&&&&&&&&&&&&&&&&&&&&&&&&&&&&&==============..............                                                                                                                                                                                                   ",
"                                                                 .......=======&&&&&&&&&&&&&&&&&&&&&&&&&&&&&&&&&&&&&&&&&&&&&&&&&&&&&&&&&&&&&&&&&&&&&&&&&&&&&&&&&&&&&&&&&&&&&&&&&&&&&&&&&&&&&&&&&&&&&&&&&&&&&&&&&&&&&&&&&&&&&&&&&&&&&&&&&&&&&&&&&&&&&&&&&&&&&&&&&&&&&&&&&&&&&&&&&&&&&&&&&&&&&&&&&&&&&&&&&&&&&&&&&&&&&&&&&&&&&&&&&&&&&&&&&&&&&&&&&&&==============..............                                                                                                                                                                                                   ",
"                                                                 .......=======&&&&&&&&&&&&&&&&&&&&&&&&&&&&&&&&&&&&&&&&&&&&&&&&&&&&&&&&&&&&&&&&&&&&&&&&&&&&&&&&&&&&&&&&&&&&&&&&&&&&&&&&&&&&&&&&&&&&&&&&&&&&&&&&&&&&&&&&&&&&&&&&&&&&&&&&&&&&&&&&&&&&&&&&&&&&&&&&&&&&&&&&&&&&&&&&&&&&&&&&&&&&&&&&&&&&&&&&&&&&&&&&&&&&&&&&&&&&&&&&&&&&&&&&&&&&&&&&&&&==============..............                                                                                                                                                                                                   ",
"                                                                 .......=======&&&&&&&&&&&&&&&&&&&&&&&&&&&&&&&&&&&&&&&&&&&&&&&&&&&&&&&&&&&&&&&&&&&&&&&&&&&&&&&&&&&&&&&&&&&&&&&&&&&&&&&&&&&&&&&&&&&&&&&&&&&&&&&&&&&&&&&&&&&&&&&&&&&&&&&&&&&&&&&&&&&&&&&&&&&&&&&&&&&&&&&&&&&&&&&&&&&&&&&&&&&&&&&&&&&&&&&&&&&&&&&&&&&&&&&&&&&&&&&&&&&&&&&&&&&&&&&&&&&==============..............                                                                                                                                                                                                   ",
"                                                                 .......=======&&&&&&&&&&&&&&&&&&&&&&&&&&&&&&&&&&&&&&&&&&&&&&&&&&&&&&&&&&&&&&&&&&&&&&&&&&&&&&&&&&&&&&&&&&&&&&&&&&&&&&&&&&&&&&&&&&&&&&&&&&&&&&&&&&&&&&&&&&&&&&&&&&&&&&&&&&&&&&&&&&&&&&&&&&&&&&&&&&&&&&&&&&&&&&&&&&&&&&&&&&&&&&&&&&&&&&&&&&&&&&&&&&&&&&&&&&&&&&&&&&&&&&&&&&&&&&&&&&&==============..............                                                                                                                                                                                                   ",
"                                                                 .......=======&&&&&&&&&&&&&&&&&&&&&&&&&&&&&&&&&&&&&&&&&&&&&&&&&&&&&&&&&&&&&&&&&&&&&&&&&&&&&&&&&&&&&&&&&&&&&&&&&&&&&&&&&&&&&&&&&&&&&&&&&&&&&&&&&&&&&&&&&&&&&&&&&&&&&&&&&&&&&&&&&&&&&&&&&&&&&&&&&&&&&&&&&&&&&&&&&&&&&&&&&&&&&&&&&&&&&&&&&&&&&&&&&&&&&&&&&&&&&&&&&&&&&&&&&&&&&&&&&&&==============..............                                                                                                                                                                                                   ",
"                                                          .......=======&&&&&&&&&&&&&&&&&&&&&&&&&&&&&&&&&&&&&&&&&&&&&&&&&&&&&&&&&&&&&&&&&&&&&&&&&&&&&&&&&&&&&&&&&&&&&&&&&&&&&&&&&&&&&&&&&&&&&&&&&&&&&&&&&&&&&&&&&&&&&&&&&&&&&&&&&&&&&&&&&&&&&&&&&&&&&&&&&&&&&&&&&&&&&&&&&&&&&&&&&&&&&&&&&&&&&&&&&&&&&&&&&&&&&&&&&&&&&&&&&&&&&&&&&&&&&&&&&&&&&&&&&&==============.......                                                                                                                                                                                                          ",
"                                                          .......=======&&&&&&&&&&&&&&&&&&&&&&&&&&&&&&&&&&&&&&&&&&&&&&&&&&&&&&&&&&&&&&&&&&&&&&&&&&&&&&&&&&&&&&&&&&&&&&&&&&&&&&&&&&&&&&&&&&&&&&&&&&&&&&&&&&&&&&&&&&&&&&&&&&&&&&&&&&&&&&&&&&&&&&&&&&&&&&&&&&&&&&&&&&&&&&&&&&&&&&&&&&&&&&&&&&&&&&&&&&&&&&&&&&&&&&&&&&&&&&&&&&&&&&&&&&&&&&&&&&&&&&&&&&==============.......                                                                                                                                                                                                          ",
"                                                          .......=======&&&&&&&&&&&&&&&&&&&&&&&&&&&&&&&&&&&&&&&&&&&&&&&&&&&&&&&&&&&&&&&&&&&&&&&&&&&&&&&&&&&&&&&&&&&&&&&&&&&&&&&&&&&&&&&&&&&&&&&&&&&&&&&&&&&&&&&&&&&&&&&&&&&&&&&&&&&&&&&&&&&&&&&&&&&&&&&&&&&&&&&&&&&&&&&&&&&&&&&&&&&&&&&&&&&&&&&&&&&&&&&&&&&&&&&&&&&&&&&&&&&&&&&&&&&&&&&&&&&&&&&&&&==============.......                                                                                                                                                                                                          ",
"                                                          .......=======&&&&&&&&&&&&&&&&&&&&&&&&&&&&&&&&&&&&&&&&&&&&&&&&&&&&&&&&&&&&&&&&&&&&&&&&&&&&&&&&&&&&&&&&&&&&&&&&&&&&&&&&&&&&&&&&&&&&&&&&&&&&&&&&&&&&&&&&&&&&&&&&&&&&&&&&&&&&&&&&&&&&&&&&&&&&&&&&&&&&&&&&&&&&&&&&&&&&&&&&&&&&&&&&&&&&&&&&&&&&&&&&&&&&&&&&&&&&&&&&&&&&&&&&&&&&&&&&&&&&&&&&&&==============.......                                                                                                                                                                                                          ",
"                                                          .......=======&&&&&&&&&&&&&&&&&&&&&&&&&&&&&&&&&&&&&&&&&&&&&&&&&&&&&&&&&&&&&&&&&&&&&&&&&&&&&&&&&&&&&&&&&&&&&&&&&&&&&&&&&&&&&&&&&&&&&&&&&&&&&&&&&&&&&&&&&&&&&&&&&&&&&&&&&&&&&&&&&&&&&&&&&&&&&&&&&&&&&&&&&&&&&&&&&&&&&&&&&&&&&&&&&&&&&&&&&&&&&&&&&&&&&&&&&&&&&&&&&&&&&&&&&&&&&&&&&&&&&&&&&&==============.......                                                                                                                                                                                                          ",
"                                                          .......=======&&&&&&&&&&&&&&&&&&&&&&&&&&&&&&&&&&&&&&&&&&&&&&&&&&&&&&&&&&&&&&&&&&&&&&&&&&&&&&&&&&&&&&&&&&&&&&&&&&&&&&&&&&&&&&&&&&&&&&&&&&&&&&&&&&&&&&&&&&&&&&&&&&&&&&&&&&&&&&&&&&&&&&&&&&&&&&&&&&&&&&&&&&&&&&&&&&&&&&&&&&&&&&&&&&&&&&&&&&&&&&&&&&&&&&&&&&&&&&&&&&&&&&&&&&&&&&&&&&&&&&&&&&==============.......                                                                                                                                                                                                          ",
"                                                          .......=======&&&&&&&&&&&&&&&&&&&&&&&&&&&&&&&&&&&&&&&&&&&&&&&&&&&&&&&&&&&&&&&&&&&&&&&&&&&&&&&&&&&&&&&&&&&&&&&&&&&&&&&&&&&&&&&&&&&&&&&&&&&&&&&&&&&&&&&&&&&&&&&&&&&&&&&&&&&&&&&&&&&&&&&&&&&&&&&&&&&&&&&&&&&&&&&&&&&&&&&&&&&&&&&&&&&&&&&&&&&&&&&&&&&&&&&&&&&&&&&&&&&&&&&&&&&&&&&&&&&&&&&&&&==============.......                                                                                                                                                                                                          ",
"                                                   .......=======&&&&&&&&&&&&&&&&&&&&&&&&&&&&&&&&&&&&&&&&&&&&&&&&&&&&&&&&&&&&&&&&&&&&&&&&&&&&&&&&&&&&&&&&&&&&&&&&&&&&&&&&&&&&&&&&&&&&&&&&&&&&&&&&&&&&&&&&&&&&&&&&&&&&&&&&&&&&&&&&&&&&&&&&&&&&&&&&&&&&&&&&&&&&&&&&&&&&&&&&&&&&&&&&&&&&&&&&&&&&&&&&&&&&&&&&&&&&&&&&&&&&&&&&&&&&&&&&&&&&&&&&&&==============..............                                                                                                                                                                                                          ",
"                                                   .......=======&&&&&&&&&&&&&&&&&&&&&&&&&&&&&&&&&&&&&&&&&&&&&&&&&&&&&&&&&&&&&&&&&&&&&&&&&&&&&&&&&&&&&&&&&&&&&&&&&&&&&&&&&&&&&&&&&&&&&&&&&&&&&&&&&&&&&&&&&&&&&&&&&&&&&&&&&&&&&&&&&&&&&&&&&&&&&&&&&&&&&&&&&&&&&&&&&&&&&&&&&&&&&&&&&&&&&&&&&&&&&&&&&&&&&&&&&&&&&&&&&&&&&&&&&&&&&&&&&&&&&&&&&&==============..............                                                                                                                                                                                                          ",
"                                                   .......=======&&&&&&&&&&&&&&&&&&&&&&&&&&&&&&&&&&&&&&&&&&&&&&&&&&&&&&&&&&&&&&&&&&&&&&&&&&&&&&&&&&&&&&&&&&&&&&&&&&&&&&&&&&&&&&&&&&&&&&&&&&&&&&&&&&&&&&&&&&&&&&&&&&&&&&&&&&&&&&&&&&&&&&&&&&&&&&&&&&&&&&&&&&&&&&&&&&&&&&&&&&&&&&&&&&&&&&&&&&&&&&&&&&&&&&&&&&&&&&&&&&&&&&&&&&&&&&&&&&&&&&&&&&==============..............                                                                                                                                                                                                          ",
"                                                   .......=======&&&&&&&&&&&&&&&&&&&&&&&&&&&&&&&&&&&&&&&&&&&&&&&&&&&&&&&&&&&&&&&&&&&&&&&&&&&&&&&&&&&&&&&&&&&&&&&&&&&&&&&&&&&&&&&&&&&&&&&&&&&&&&&&&&&&&&&&&&&&&&&&&&&&&&&&&&&&&&&&&&&&&&&&&&&&&&&&&&&&&&&&&&&&&&&&&&&&&&&&&&&&&&&&&&&&&&&&&&&&&&&&&&&&&&&&&&&&&&&&&&&&&&&&&&&&&&&&&&&&&&&&&&==============..............                                                                                                                                                                                                          ",
"                                                   .......=======&&&&&&&&&&&&&&&&&&&&&&&&&&&&&&&&&&&&&&&&&&&&&&&&&&&&&&&&&&&&&&&&&&&&&&&&&&&&&&&&&&&&&&&&&&&&&&&&&&&&&&&&&&&&&&&&&&&&&&&&&&&&&&&&&&&&&&&&&&&&&&&&&&&&&&&&&&&&&&&&&&&&&&&&&&&&&&&&&&&&&&&&&&&&&&&&&&&&&&&&&&&&&&&&&&&&&&&&&&&&&&&&&&&&&&&&&&&&&&&&&&&&&&&&&&&&&&&&&&&&&&&&&&==============..............                                                                                                                                                                                                          ",
"                                                   .......=======&&&&&&&&&&&&&&&&&&&&&&&&&&&&&&&&&&&&&&&&&&&&&&&&&&&&&&&&&&&&&&&&&&&&&&&&&&&&&&&&&&&&&&&&&&&&&&&&&&&&&&&&&&&&&&&&&&&&&&&&&&&&&&&&&&&&&&&&&&&&&&&&&&&&&&&&&&&&&&&&&&&&&&&&&&&&&&&&&&&&&&&&&&&&&&&&&&&&&&&&&&&&&&&&&&&&&&&&&&&&&&&&&&&&&&&&&&&&&&&&&&&&&&&&&&&&&&&&&&&&&&&&&&==============..............                                                                                                                                                                                                          ",
"                                                   .......=======&&&&&&&&&&&&&&&&&&&&&&&&&&&&&&&&&&&&&&&&&&&&&&&&&&&&&&&&&&&&&&&&&&&&&&&&&&&&&&&&&&&&&&&&&&&&&&&&&&&&&&&&&&&&&&&&&&&&&&&&&&&&&&&&&&&&&&&&&&&&&&&&&&&&&&&&&&&&&&&&&&&&&&&&&&&&&&&&&&&&&&&&&&&&&&&&&&&&&&&&&&&&&&&&&&&&&&&&&&&&&&&&&&&&&&&&&&&&&&&&&&&&&&&&&&&&&&&&&&&&&&&&&&==============..............                                                                                                                                                                                                          ",
"                                            .......=======&&&&&&&&&&&&&&&&&&&&&&&&&&&&&&&&&&&&&&&&&&&&&&&&&&&&&&&&&&&&&&&&&&&&&&&&&&&&&&&&&&&&&&&&&&&&&&&&&&&&&&&&&&&&&&&&&&&&&&&&&&&&&&&&&&&&&&&&&&&&&&&&&&&&&&&&&&&&&&&&&&&&&&&&&&&&&&&&&&&&&&&&&&&&&&&&&&&&&&&&&&&&&&&&&&&&&&&&&&&&&&&&&&&&&&&&&&&&&&&&&&&&&&&&&&&&&&&&&&&&&&&&&&&&&&&&&==============.......                                                                                                                                                                                                                 ",
"                                            .......=======&&&&&&&&&&&&&&&&&&&&&&&&&&&&&&&&&&&&&&&&&&&&&&&&&&&&&&&&&&&&&&&&&&&&&&&&&&&&&&&&&&&&&&&&&&&&&&&&&&&&&&&&&&&&&&&&&&&&&&&&&&&&&&&&&&&&&&&&&&&&&&&&&&&&&&&&&&&&&&&&&&&&&&&&&&&&&&&&&&&&&&&&&&&&&&&&&&&&&&&&&&&&&&&&&&&&&&&&&&&&&&&&&&&&&&&&&&&&&&&&&&&&&&&&&&&&&&&&&&&&&&&&&&&&&&&&&==============.......                                                                                                                                                                                                                 ",
"                                            .......=======&&&&&&&&&&&&&&&&&&&&&&&&&&&&&&&&&&&&&&&&&&&&&&&&&&&&&&&&&&&&&&&&&&&&&&&&&&&&&&&&&&&&&&&&&&&&&&&&&&&&&&&&&&&&&&&&&&&&&&&&&&&&&&&&&&&&&&&&&&&&&&&&&&&&&&&&&&&&&&&&&&&&&&&&&&&&&&&&&&&&&&&&&&&&&&&&&&&&&&&&&&&&&&&&&&&&&&&&&&&&&&&&&&&&&&&&&&&&&&&&&&&&&&&&&&&&&&&&&&&&&&&&&&&&&&&&&==============.......                                                                                                                                                                                                                 ",
"                                            .......=======&&&&&&&&&&&&&&&&&&&&&&&&&&&&&&&&&&&&&&&&&&&&&&&&&&&&&&&&&&&&&&&&&&&&&&&&&&&&&&&&&&&&&&&&&&&&&&&&&&&&&&&&&&&&&&&&&&&&&&&&&&&&&&&&&&&&&&&&&&&&&&&&&&&&&&&&&&&&&&&&&&&&&&&&&&&&&&&&&&&&&&&&&&&&&&&&&&&&&&&&&&&&&&&&&&&&&&&&&&&&&&&&&&&&&&&&&&&&&&&&&&&&&&&&&&&&&&&&&&&&&&&&&&&&&&&&&==============.......                                                                                                                                                                                                                 ",
"                                            .......=======&&&&&&&&&&&&&&&&&&&&&&&&&&&&&&&&&&&&&&&&&&&&&&&&&&&&&&&&&&&&&&&&&&&&&&&&&&&&&&&&&&&&&&&&&&&&&&&&&&&&&&&&&&&&&&&&&&&&&&&&&&&&&&&&&&&&&&&&&&&&&&&&&&&&&&&&&&&&&&&&&&&&&&&&&&&&&&&&&&&&&&&&&&&&&&&&&&&&&&&&&&&&&&&&&&&&&&&&&&&&&&&&&&&&&&&&&&&&&&&&&&&&&&&&&&&&&&&&&&&&&&&&&&&&&&&&&==============.......                                                                                                                                                                                                                 ",
"                                            .......=======&&&&&&&&&&&&&&&&&&&&&&&&&&&&&&&&&&&&&&&&&&&&&&&&&&&&&&&&&&&&&&&&&&&&&&&&&&&&&&&&&&&&&&&&&&&&&&&&&&&&&&&&&&&&&&&&&&&&&&&&&&&&&&&&&&&&&&&&&&&&&&&&&&&&&&&&&&&&&&&&&&&&&&&&&&&&&&&&&&&&&&&&&&&&&&&&&&&&&&&&&&&&&&&&&&&&&&&&&&&&&&&&&&&&&&&&&&&&&&&&&&&&&&&&&&&&&&&&&&&&&&&&&&&&&&&&&==============.......                                                                                                                                                                                                                 ",
"                                            .......=======&&&&&&&&&&&&&&&&&&&&&&&&&&&&&&&&&&&&&&&&&&&&&&&&&&&&&&&&&&&&&&&&&&&&&&&&&&&&&&&&&&&&&&&&&&&&&&&&&&&&&&&&&&&&&&&&&&&&&&&&&&&&&&&&&&&&&&&&&&&&&&&&&&&&&&&&&&&&&&&&&&&&&&&&&&&&&&&&&&&&&&&&&&&&&&&&&&&&&&&&&&&&&&&&&&&&&&&&&&&&&&&&&&&&&&&&&&&&&&&&&&&&&&&&&&&&&&&&&&&&&&&&&&&&&&&&&==============.......                                                                                                                                                                                                                 ",
"                                     .......=======&&&&&&&&&&&&&&&&&&&&&&&&&&&&&&&&&&&&&&&&&&&&&&&&&&&&&&&&&&&&&&&&&&&&&&&&&&&&&&&&&&&&&&&&&&&&&&&&&&&&&&&&&&&&&&&&&&&&&&&&&&&&&&&&&&&&&&&&&&&&&&&&&&&&&&&&&&&&&&&&&&&&&&&&&&&&&&&&&&&&&&&&&&&&&&&&&&&&&&&&&&&&&&&&&&&&&&&&&&&&&&&&&&&&&&&&&&&&&&&&&&&&&&&&&&&&&&&&&&&&&&&&&&&&&&&&&&&&&&&&==============.......                                                                                                                                                                                                                 ",
"                                     .......=======&&&&&&&&&&&&&&&&&&&&&&&&&&&&&&&&&&&&&&&&&&&&&&&&&&&&&&&&&&&&&&&&&&&&&&&&&&&&&&&&&&&&&&&&&&&&&&&&&&&&&&&&&&&&&&&&&&&&&&&&&&&&&&&&&&&&&&&&&&&&&&&&&&&&&&&&&&&&&&&&&&&&&&&&&&&&&&&&&&&&&&&&&&&&&&&&&&&&&&&&&&&&&&&&&&&&&&&&&&&&&&&&&&&&&&&&&&&&&&&&&&&&&&&&&&&&&&&&&&&&&&&&&&&&&&&&&&&&&&&&==============.......                                                                                                                                                                                                                 ",
"                                     .......=======&&&&&&&&&&&&&&&&&&&&&&&&&&&&&&&&&&&&&&&&&&&&&&&&&&&&&&&&&&&&&&&&&&&&&&&&&&&&&&&&&&&&&&&&&&&&&&&&&&&&&&&&&&&&&&&&&&&&&&&&&&&&&&&&&&&&&&&&&&&&&&&&&&&&&&&&&&&&&&&&&&&&&&&&&&&&&&&&&&&&&&&&&&&&&&&&&&&&&&&&&&&&&&&&&&&&&&&&&&&&&&&&&&&&&&&&&&&&&&&&&&&&&&&&&&&&&&&&&&&&&&&&&&&&&&&&&&&&&&&&==============.......                                                                                                                                                                                                                 ",
"                                     .......=======&&&&&&&&&&&&&&&&&&&&&&&&&&&&&&&&&&&&&&&&&&&&&&&&&&&&&&&&&&&&&&&&&&&&&&&&&&&&&&&&&&&&&&&&&&&&&&&&&&&&&&&&&&&&&&&&&&&&&&&&&&&&&&&&&&&&&&&&&&&&&&&&&&&&&&&&&&&&&&&&&&&&&&&&&&&&&&&&&&&&&&&&&&&&&&&&&&&&&&&&&&&&&&&&&&&&&&&&&&&&&&&&&&&&&&&&&&&&&&&&&&&&&&&&&&&&&&&&&&&&&&&&&&&&&&&&&&&&&&&&==============.......                                                                                                                                                                                                                 ",
"                                     .......=======&&&&&&&&&&&&&&&&&&&&&&&&&&&&&&&&&&&&&&&&&&&&&&&&&&&&&&&&&&&&&&&&&&&&&&&&&&&&&&&&&&&&&&&&&&&&&&&&&&&&&&&&&&&&&&&&&&&&&&&&&&&&&&&&&&&&&&&&&&&&&&&&&&&&&&&&&&&&&&&&&&&&&&&&&&&&&&&&&&&&&&&&&&&&&&&&&&&&&&&&&&&&&&&&&&&&&&&&&&&&&&&&&&&&&&&&&&&&&&&&&&&&&&&&&&&&&&&&&&&&&&&&&&&&&&&&&&&&&&&&==============.......                                                                                                                                                                                                                 ",
"                                     .......=======&&&&&&&&&&&&&&&&&&&&&&&&&&&&&&&&&&&&&&&&&&&&&&&&&&&&&&&&&&&&&&&&&&&&&&&&&&&&&&&&&&&&&&&&&&&&&&&&&&&&&&&&&&&&&&&&&&&&&&&&&&&&&&&&&&&&&&&&&&&&&&&&&&&&&&&&&&&&&&&&&&&&&&&&&&&&&&&&&&&&&&&&&&&&&&&&&&&&&&&&&&&&&&&&&&&&&&&&&&&&&&&&&&&&&&&&&&&&&&&&&&&&&&&&&&&&&&&&&&&&&&&&&&&&&&&&&&&&&&&&==============.......                                                                                                                                                                                                                 ",
"                                     .......=======&&&&&&&&&&&&&&&&&&&&&&&&&&&&&&&&&&&&&&&&&&&&&&&&&&&&&&&&&&&&&&&&&&&&&&&&&&&&&&&&&&&&&&&&&&&&&&&&&&&&&&&&&&&&&&&&&&&&&&&&&&&&&&&&&&&&&&&&&&&&&&&&&&&&&&&&&&&&&&&&&&&&&&&&&&&&&&&&&&&&&&&&&&&&&&&&&&&&&&&&&&&&&&&&&&&&&&&&&&&&&&&&&&&&&&&&&&&&&&&&&&&&&&&&&&&&&&&&&&&&&&&&&&&&&&&&&&&&&&&&==============.......                                                                                                                                                                                                                 ",
"                              .......=======&&&&&&&&&&&&&&&&&&&&&&&&&&&&&&&&&&&&&&&&&&&&&&&&&&&&&&&&&&&&&&&&&&&&&&&&&&&&&&&&&&&&&&&&&&&&&&&&&&&&&&&&&&&&&&&&&&&&&&&&&&&&&&&&&&&&&&&&&&&&&&&&&&&&&&&&&&&&&&&&&&&&&&&&&&&&&&&&&&&&&&&&&&&&&&&&&&&&&&&&&&&&&&&&&&&&&&&&&&&&&&&&&&&&&&&&&&&&&&&&&&&&&&&&&&&&&&&&&&&&&&&&&&&&&&&&&&&&&&&&==============..............                                                                                                                                                                                                                 ",
"                              .......=======&&&&&&&&&&&&&&&&&&&&&&&&&&&&&&&&&&&&&&&&&&&&&&&&&&&&&&&&&&&&&&&&&&&&&&&&&&&&&&&&&&&&&&&&&&&&&&&&&&&&&&&&&&&&&&&&&&&&&&&&&&&&&&&&&&&&&&&&&&&&&&&&&&&&&&&&&&&&&&&&&&&&&&&&&&&&&&&&&&&&&&&&&&&&&&&&&&&&&&&&&&&&&&&&&&&&&&&&&&&&&&&&&&&&&&&&&&&&&&&&&&&&&&&&&&&&&&&&&&&&&&&&&&&&&&&&&&&&&&&&==============..............                                                                                                                                                                                                                 ",
"                              .......=======&&&&&&&&&&&&&&&&&&&&&&&&&&&&&&&&&&&&&&&&&&&&&&&&&&&&&&&&&&&&&&&&&&&&&&&&&&&&&&&&&&&&&&&&&&&&&&&&&&&&&&&&&&&&&&&&&&&&&&&&&&&&&&&&&&&&&&&&&&&&&&&&&&&&&&&&&&&&&&&&&&&&&&&&&&&&&&&&&&&&&&&&&&&&&&&&&&&&&&&&&&&&&&&&&&&&&&&&&&&&&&&&&&&&&&&&&&&&&&&&&&&&&&&&&&&&&&&&&&&&&&&&&&&&&&&&&&&&&&&&==============..............                                                                                                                                                                                                                 ",
"                              .......=======&&&&&&&&&&&&&&&&&&&&&&&&&&&&&&&&&&&&&&&&&&&&&&&&&&&&&&&&&&&&&&&&&&&&&&&&&&&&&&&&&&&&&&&&&&&&&&&&&&&&&&&&&&&&&&&&&&&&&&&&&&&&&&&&&&&&&&&&&&&&&&&&&&&&&&&&&&&&&&&&&&&&&&&&&&&&&&&&&&&&&&&&&&&&&&&&&&&&&&&&&&&&&&&&&&&&&&&&&&&&&&&&&&&&&&&&&&&&&&&&&&&&&&&&&&&&&&&&&&&&&&&&&&&&&&&&&&&&&&&&==============..............                                                                                                                                                                                                                 ",
"                              .......=======&&&&&&&&&&&&&&&&&&&&&&&&&&&&&&&&&&&&&&&&&&&&&&&&&&&&&&&&&&&&&&&&&&&&&&&&&&&&&&&&&&&&&&&&&&&&&&&&&&&&&&&&&&&&&&&&&&&&&&&&&&&&&&&&&&&&&&&&&&&&&&&&&&&&&&&&&&&&&&&&&&&&&&&&&&&&&&&&&&&&&&&&&&&&&&&&&&&&&&&&&&&&&&&&&&&&&&&&&&&&&&&&&&&&&&&&&&&&&&&&&&&&&&&&&&&&&&&&&&&&&&&&&&&&&&&&&&&&&&&&==============..............                                                                                                                                                                                                                 ",
"                              .......=======&&&&&&&&&&&&&&&&&&&&&&&&&&&&&&&&&&&&&&&&&&&&&&&&&&&&&&&&&&&&&&&&&&&&&&&&&&&&&&&&&&&&&&&&&&&&&&&&&&&&&&&&&&&&&&&&&&&&&&&&&&&&&&&&&&&&&&&&&&&&&&&&&&&&&&&&&&&&&&&&&&&&&&&&&&&&&&&&&&&&&&&&&&&&&&&&&&&&&&&&&&&&&&&&&&&&&&&&&&&&&&&&&&&&&&&&&&&&&&&&&&&&&&&&&&&&&&&&&&&&&&&&&&&&&&&&&&&&&&&&==============..............                                                                                                                                                                                                                 ",
"                              .......=======&&&&&&&&&&&&&&&&&&&&&&&&&&&&&&&&&&&&&&&&&&&&&&&&&&&&&&&&&&&&&&&&&&&&&&&&&&&&&&&&&&&&&&&&&&&&&&&&&&&&&&&&&&&&&&&&&&&&&&&&&&&&&&&&&&&&&&&&&&&&&&&&&&&&&&&&&&&&&&&&&&&&&&&&&&&&&&&&&&&&&&&&&&&&&&&&&&&&&&&&&&&&&&&&&&&&&&&&&&&&&&&&&&&&&&&&&&&&&&&&&&&&&&&&&&&&&&&&&&&&&&&&&&&&&&&&&&&&&&&&==============..............                                                                                                                                                                                                                 ",
"                       .......=======&&&&&&&&&&&&&&&&&&&&&&&&&&&&&&&&&&&&&&&&&&&&&&&&&&&&&&&&&&&&&&&&&&&&&&&&&&&&&&&&&&&&&&&&&&&&&&&&&&&&&&&&&&&&&&&&&&&&&&&&&&&&&&&&&&&&&&&&&&&&&&&&&&&&&&&&&&&&&&&&&&&&&&&&&&&&&&&&&&&&&&&&&&&&&&&&&&&&&&&&&&&&&&&&&&&&&&&&&&&&&&&&&&&&&&&&&&&&&&&&&&&&&&&&&&&&&&&&&&&&&&&&&&&&&&&&&&&&&&&&&&&&&&&==============.......                                                                                                                                                                                                                        ",
"                       .......=======&&&&&&&&&&&&&&&&&&&&&&&&&&&&&&&&&&&&&&&&&&&&&&&&&&&&&&&&&&&&&&&&&&&&&&&&&&&&&&&&&&&&&&&&&&&&&&&&&&&&&&&&&&&&&&&&&&&&&&&&&&&&&&&&&&&&&&&&&&&&&&&&&&&&&&&&&&&&&&&&&&&&&&&&&&&&&&&&&&&&&&&&&&&&&&&&&&&&&&&&&&&&&&&&&&&&&&&&&&&&&&&&&&&&&&&&&&&&&&&&&&&&&&&&&&&&&&&&&&&&&&&&&&&&&&&&&&&&&&&&&&&&&&&==============.......                                                                                                                                                                                                                        ",
"                       .......=======&&&&&&&&&&&&&&&&&&&&&&&&&&&&&&&&&&&&&&&&&&&&&&&&&&&&&&&&&&&&&&&&&&&&&&&&&&&&&&&&&&&&&&&&&&&&&&&&&&&&&&&&&&&&&&&&&&&&&&&&&&&&&&&&&&&&&&&&&&&&&&&&&&&&&&&&&&&&&&&&&&&&&&&&&&&&&&&&&&&&&&&&&&&&&&&&&&&&&&&&&&&&&&&&&&&&&&&&&&&&&&&&&&&&&&&&&&&&&&&&&&&&&&&&&&&&&&&&&&&&&&&&&&&&&&&&&&&&&&&&&&&&&&&==============.......                                                                                                                                                                                                                        ",
"                       .......=======&&&&&&&&&&&&&&&&&&&&&&&&&&&&&&&&&&&&&&&&&&&&&&&&&&&&&&&&&&&&&&&&&&&&&&&&&&&&&&&&&&&&&&&&&&&&&&&&&&&&&&&&&&&&&&&&&&&&&&&&&&&&&&&&&&&&&&&&&&&&&&&&&&&&&&&&&&&&&&&&&&&&&&&&&&&&&&&&&&&&&&&&&&&&&&&&&&&&&&&&&&&&&&&&&&&&&&&&&&&&&&&&&&&&&&&&&&&&&&&&&&&&&&&&&&&&&&&&&&&&&&&&&&&&&&&&&&&&&&&&&&&&&&&==============.......                                                                                                                                                                                                                        ",
"                       .......=======&&&&&&&&&&&&&&&&&&&&&&&&&&&&&&&&&&&&&&&&&&&&&&&&&&&&&&&&&&&&&&&&&&&&&&&&&&&&&&&&&&&&&&&&&&&&&&&&&&&&&&&&&&&&&&&&&&&&&&&&&&&&&&&&&&&&&&&&&&&&&&&&&&&&&&&&&&&&&&&&&&&&&&&&&&&&&&&&&&&&&&&&&&&&&&&&&&&&&&&&&&&&&&&&&&&&&&&&&&&&&&&&&&&&&&&&&&&&&&&&&&&&&&&&&&&&&&&&&&&&&&&&&&&&&&&&&&&&&&&&&&&&&&&==============.......                                                                                                                                                                                                                        ",
"                       .......=======&&&&&&&&&&&&&&&&&&&&&&&&&&&&&&&&&&&&&&&&&&&&&&&&&&&&&&&&&&&&&&&&&&&&&&&&&&&&&&&&&&&&&&&&&&&&&&&&&&&&&&&&&&&&&&&&&&&&&&&&&&&&&&&&&&&&&&&&&&&&&&&&&&&&&&&&&&&&&&&&&&&&&&&&&&&&&&&&&&&&&&&&&&&&&&&&&&&&&&&&&&&&&&&&&&&&&&&&&&&&&&&&&&&&&&&&&&&&&&&&&&&&&&&&&&&&&&&&&&&&&&&&&&&&&&&&&&&&&&&&&&&&&&&==============.......                                                                                                                                                                                                                        ",
"                       .......=======&&&&&&&&&&&&&&&&&&&&&&&&&&&&&&&&&&&&&&&&&&&&&&&&&&&&&&&&&&&&&&&&&&&&&&&&&&&&&&&&&&&&&&&&&&&&&&&&&&&&&&&&&&&&&&&&&&&&&&&&&&&&&&&&&&&&&&&&&&&&&&&&&&&&&&&&&&&&&&&&&&&&&&&&&&&&&&&&&&&&&&&&&&&&&&&&&&&&&&&&&&&&&&&&&&&&&&&&&&&&&&&&&&&&&&&&&&&&&&&&&&&&&&&&&&&&&&&&&&&&&&&&&&&&&&&&&&&&&&&&&&&&&&&==============.......                                                                                                                                                                                                                        ",
"                .......=======&&&&&&&&&&&&&&&&&&&&&&&&&&&&&&&&&&&&&&&&&&&&&&&&&&&&&&&&&&&&&&&&&&&&&&&&&&&&&&&&&&&&&&&&&&&&&&&&&&&&&&&&&&&&&&&&&&&&&&&&&&&&&&&&&&&&&&&&&&&&&&&&&&&&&&&&&&&&&&&&&&&&&&&&&&&&&&&&&&&&&&&&&&&&&&&&&&&&&&&&&&&&&&&&&&&&&&&&&&&&&&&&&&&&&&&&&&&&&&&&&&&&&&&&&&&&&&&&&&&&&&&&&&&&&&&&&&&&&&&&&&&&&&&=====================.......                                                                                                                                                                                                                        ",
"                .......=======&&&&&&&&&&&&&&&&&&&&&&&&&&&&&&&&&&&&&&&&&&&&&&&&&&&&&&&&&&&&&&&&&&&&&&&&&&&&&&&&&&&&&&&&&&&&&&&&&&&&&&&&&&&&&&&&&&&&&&&&&&&&&&&&&&&&&&&&&&&&&&&&&&&&&&&&&&&&&&&&&&&&&&&&&&&&&&&&&&&&&&&&&&&&&&&&&&&&&&&&&&&&&&&&&&&&&&&&&&&&&&&&&&&&&&&&&&&&&&&&&&&&&&&&&&&&&&&&&&&&&&&&&&&&&&&&&&&&&&&&&&&&&&&=====================.......                                                                                                                                                                                                                        ",
"                .......=======&&&&&&&&&&&&&&&&&&&&&&&&&&&&&&&&&&&&&&&&&&&&&&&&&&&&&&&&&&&&&&&&&&&&&&&&&&&&&&&&&&&&&&&&&&&&&&&&&&&&&&&&&&&&&&&&&&&&&&&&&&&&&&&&&&&&&&&&&&&&&&&&&&&&&&&&&&&&&&&&&&&&&&&&&&&&&&&&&&&&&&&&&&&&&&&&&&&&&&&&&&&&&&&&&&&&&&&&&&&&&&&&&&&&&&&&&&&&&&&&&&&&&&&&&&&&&&&&&&&&&&&&&&&&&&&&&&&&&&&&&&&&&&&=====================.......                                                                                                                                                                                                                        ",
"                .......=======&&&&&&&&&&&&&&&&&&&&&&&&&&&&&&&&&&&&&&&&&&&&&&&&&&&&&&&&&&&&&&&&&&&&&&&&&&&&&&&&&&&&&&&&&&&&&&&&&&&&&&&&&&&&&&&&&&&&&&&&&&&&&&&&&&&&&&&&&&&&&&&&&&&&&&&&&&&&&&&&&&&&&&&&&&&&&&&&&&&&&&&&&&&&&&&&&&&&&&&&&&&&&&&&&&&&&&&&&&&&&&&&&&&&&&&&&&&&&&&&&&&&&&&&&&&&&&&&&&&&&&&&&&&&&&&&&&&&&&&&&&&&&&&=====================.......                                                                                                                                                                                                                        ",
"                .......=======&&&&&&&&&&&&&&&&&&&&&&&&&&&&&&&&&&&&&&&&&&&&&&&&&&&&&&&&&&&&&&&&&&&&&&&&&&&&&&&&&&&&&&&&&&&&&&&&&&&&&&&&&&&&&&&&&&&&&&&&&&&&&&&&&&&&&&&&&&&&&&&&&&&&&&&&&&&&&&&&&&&&&&&&&&&&&&&&&&&&&&&&&&&&&&&&&&&&&&&&&&&&&&&&&&&&&&&&&&&&&&&&&&&&&&&&&&&&&&&&&&&&&&&&&&&&&&&&&&&&&&&&&&&&&&&&&&&&&&&&&&&&&&&=====================.......                                                                                                                                                                                                                        ",
"                .......=======&&&&&&&&&&&&&&&&&&&&&&&&&&&&&&&&&&&&&&&&&&&&&&&&&&&&&&&&&&&&&&&&&&&&&&&&&&&&&&&&&&&&&&&&&&&&&&&&&&&&&&&&&&&&&&&&&&&&&&&&&&&&&&&&&&&&&&&&&&&&&&&&&&&&&&&&&&&&&&&&&&&&&&&&&&&&&&&&&&&&&&&&&&&&&&&&&&&&&&&&&&&&&&&&&&&&&&&&&&&&&&&&&&&&&&&&&&&&&&&&&&&&&&&&&&&&&&&&&&&&&&&&&&&&&&&&&&&&&&&&&&&&&&&=====================.......                                                                                                                                                                                                                        ",
"                .......=======&&&&&&&&&&&&&&&&&&&&&&&&&&&&&&&&&&&&&&&&&&&&&&&&&&&&&&&&&&&&&&&&&&&&&&&&&&&&&&&&&&&&&&&&&&&&&&&&&&&&&&&&&&&&&&&&&&&&&&&&&&&&&&&&&&&&&&&&&&&&&&&&&&&&&&&&&&&&&&&&&&&&&&&&&&&&&&&&&&&&&&&&&&&&&&&&&&&&&&&&&&&&&&&&&&&&&&&&&&&&&&&&&&&&&&&&&&&&&&&&&&&&&&&&&&&&&&&&&&&&&&&&&&&&&&&&&&&&&&&&&&&&&&&=====================.......                                                                                                                                                                                                                        ",
"         .......=======&&&&&&&&&&&&&&&&&&&&&&&&&&&&&&&&&&&&&&&&&&&&&&&&&&&&&&&&&&&&&&&&&&&&&&&&&&&&&&&&&&&&&&&&&&&&&&&&&&&&&&&&&&&&&&&&&&&&&&&&&&&&&&&&&&&&&&&&&&&&&&&&&&&&&&&&&&&&&&&&&&&&&&&&&&&&&&&&&&&&&&&&&&&&&&&&&&&&&&&&&&&&&&&&&&&&&&&&&&&&&&&&&&&&&&&&&&&&&&&&&&&&&&&&&&&&&&&&&&&&&&&&&&&&&&&&&&&&&&&&&&&&&&&&&&&&&&==============..............                                                                                                                                                                                                                        ",
"         .......=======&&&&&&&&&&&&&&&&&&&&&&&&&&&&&&&&&&&&&&&&&&&&&&&&&&&&&&&&&&&&&&&&&&&&&&&&&&&&&&&&&&&&&&&&&&&&&&&&&&&&&&&&&&&&&&&&&&&&&&&&&&&&&&&&&&&&&&&&&&&&&&&&&&&&&&&&&&&&&&&&&&&&&&&&&&&&&&&&&&&&&&&&&&&&&&&&&&&&&&&&&&&&&&&&&&&&&&&&&&&&&&&&&&&&&&&&&&&&&&&&&&&&&&&&&&&&&&&&&&&&&&&&&&&&&&&&&&&&&&&&&&&&&&&&&&&&&&==============..............                                                                                                                                                                                                                        ",
"         .......=======&&&&&&&&&&&&&&&&&&&&&&&&&&&&&&&&&&&&&&&&&&&&&&&&&&&&&&&&&&&&&&&&&&&&&&&&&&&&&&&&&&&&&&&&&&&&&&&&&&&&&&&&&&&&&&&&&&&&&&&&&&&&&&&&&&&&&&&&&&&&&&&&&&&&&&&&&&&&&&&&&&&&&&&&&&&&&&&&&&&&&&&&&&&&&&&&&&&&&&&&&&&&&&&&&&&&&&&&&&&&&&&&&&&&&&&&&&&&&&&&&&&&&&&&&&&&&&&&&&&&&&&&&&&&&&&&&&&&&&&&&&&&&&&&&&&&&&==============..............                                                                                                                                                                                                                        ",
"         .......=======&&&&&&&&&&&&&&&&&&&&&&&&&&&&&&&&&&&&&&&&&&&&&&&&&&&&&&&&&&&&&&&&&&&&&&&&&&&&&&&&&&&&&&&&&&&&&&&&&&&&&&&&&&&&&&&&&&&&&&&&&&&&&&&&&&&&&&&&&&&&&&&&&&&&&&&&&&&&&&&&&&&&&&&&&&&&&&&&&&&&&&&&&&&&&&&&&&&&&&&&&&&&&&&&&&&&&&&&&&&&&&&&&&&&&&&&&&&&&&&&&&&&&&&&&&&&&&&&&&&&&&&&&&&&&&&&&&&&&&&&&&&&&&&&&&&&&&==============..............                                                                                                                                                                                                                        ",
"         .......=======&&&&&&&&&&&&&&&&&&&&&&&&&&&&&&&&&&&&&&&&&&&&&&&&&&&&&&&&&&&&&&&&&&&&&&&&&&&&&&&&&&&&&&&&&&&&&&&&&&&&&&&&&&&&&&&&&&&&&&&&&&&&&&&&&&&&&&&&&&&&&&&&&&&&&&&&&&&&&&&&&&&&&&&&&&&&&&&&&&&&&&&&&&&&&&&&&&&&&&&&&&&&&&&&&&&&&&&&&&&&&&&&&&&&&&&&&&&&&&&&&&&&&&&&&&&&&&&&&&&&&&&&&&&&&&&&&&&&&&&&&&&&&&&&&&&&&&==============..............                                                                                                                                                                                                                        ",
"         .......=======&&&&&&&&&&&&&&&&&&&&&&&&&&&&&&&&&&&&&&&&&&&&&&&&&&&&&&&&&&&&&&&&&&&&&&&&&&&&&&&&&&&&&&&&&&&&&&&&&&&&&&&&&&&&&&&&&&&&&&&&&&&&&&&&&&&&&&&&&&&&&&&&&&&&&&&&&&&&&&&&&&&&&&&&&&&&&&&&&&&&&&&&&&&&&&&&&&&&&&&&&&&&&&&&&&&&&&&&&&&&&&&&&&&&&&&&&&&&&&&&&&&&&&&&&&&&&&&&&&&&&&&&&&&&&&&&&&&&&&&&&&&&&&&&&&&&&&==============..............                                                                                                                                                                                                                        ",
"         .......=======&&&&&&&&&&&&&&&&&&&&&&&&&&&&&&&&&&&&&&&&&&&&&&&&&&&&&&&&&&&&&&&&&&&&&&&&&&&&&&&&&&&&&&&&&&&&&&&&&&&&&&&&&&&&&&&&&&&&&&&&&&&&&&&&&&&&&&&&&&&&&&&&&&&&&&&&&&&&&&&&&&&&&&&&&&&&&&&&&&&&&&&&&&&&&&&&&&&&&&&&&&&&&&&&&&&&&&&&&&&&&&&&&&&&&&&&&&&&&&&&&&&&&&&&&&&&&&&&&&&&&&&&&&&&&&&&&&&&&&&&&&&&&&&&&&&&&&==============..............                                                                                                                                                                                                                        ",
"  .......=======&&&&&&&&&&&&&&&&&&&&&&&&&&&&&&&&&&&&&&&&&&&&&&&&&&&&&&&&&&&&&&&&&&&&&&&&&&&&&&&&&&&&&&&&&&&&&&&&&&&&&&&&&&&&&&&&&&&&&&&&&&&&&&&&&&&&&&&&&&&&&&&&&&&&&&&&&&&&&&&&&&&&&&&&&&&&&&&&&&&&&&&&&&&&&&&&&&&&&&&&&&&&&&&&&&&&&&&&&&&&&&&&&&&&&&&&&&&&&&&&&&&&&&&&&&&&&&&&&&&&&&&&&&&&&&&&&&&&&&&&&&&&&&&&&&&&&&&&&&&&&==============.......                                                                                                                                                                                                                               ",
"  .......=======&&&&&&&&&&&&&&&&&&&&&&&&&&&&&&&&&&&&&&&&&&&&&&&&&&&&&&&&&&&&&&&&&&&&&&&&&&&&&&&&&&&&&&&&&&&&&&&&&&&&&&&&&&&&&&&&&&&&&&&&&&&&&&&&&&&&&&&&&&&&&&&&&&&&&&&&&&&&&&&&&&&&&&&&&&&&&&&&&&&&&&&&&&&&&&&&&&&&&&&&&&&&&&&&&&&&&&&&&&&&&&&&&&&&&&&&&&&&&&&&&&&&&&&&&&&&&&&&&&&&&&&&&&&&&&&&&&&&&&&&&&&&&&&&&&&&&&&&&&&&&==============.......                                                                                                                                                                                                                               ",
"  .......=======&&&&&&&&&&&&&&&&&&&&&&&&&&&&&&&&&&&&&&&&&&&&&&&&&&&&&&&&&&&&&&&&&&&&&&&&&&&&&&&&&&&&&&&&&&&&&&&&&&&&&&&&&&&&&&&&&&&&&&&&&&&&&&&&&&&&&&&&&&&&&&&&&&&&&&&&&&&&&&&&&&&&&&&&&&&&&&&&&&&&&&&&&&&&&&&&&&&&&&&&&&&&&&&&&&&&&&&&&&&&&&&&&&&&&&&&&&&&&&&&&&&&&&&&&&&&&&&&&&&&&&&&&&&&&&&&&&&&&&&&&&&&&&&&&&&&&&&&&&&&&==============.......                                                                                                                                                                                                                               ",
"  .......=======&&&&&&&&&&&&&&&&&&&&&&&&&&&&&&&&&&&&&&&&&&&&&&&&&&&&&&&&&&&&&&&&&&&&&&&&&&&&&&&&&&&&&&&&&&&&&&&&&&&&&&&&&&&&&&&&&&&&&&&&&&&&&&&&&&&&&&&&&&&&&&&&&&&&&&&&&&&&&&&&&&&&&&&&&&&&&&&&&&&&&&&&&&&&&&&&&&&&&&&&&&&&&&&&&&&&&&&&&&&&&&&&&&&&&&&&&&&&&&&&&&&&&&&&&&&&&&&&&&&&&&&&&&&&&&&&&&&&&&&&&&&&&&&&&&&&&&&&&&&&&==============.......                                                                                                                                                                                                                               ",
"  .......=======&&&&&&&&&&&&&&&&&&&&&&&&&&&&&&&&&&&&&&&&&&&&&&&&&&&&&&&&&&&&&&&&&&&&&&&&&&&&&&&&&&&&&&&&&&&&&&&&&&&&&&&&&&&&&&&&&&&&&&&&&&&&&&&&&&&&&&&&&&&&&&&&&&&&&&&&&&&&&&&&&&&&&&&&&&&&&&&&&&&&&&&&&&&&&&&&&&&&&&&&&&&&&&&&&&&&&&&&&&&&&&&&&&&&&&&&&&&&&&&&&&&&&&&&&&&&&&&&&&&&&&&&&&&&&&&&&&&&&&&&&&&&&&&&&&&&&&&&&&&&&==============.......                                                                                                                                                                                                                               ",
"  .......=======&&&&&&&&&&&&&&&&&&&&&&&&&&&&&&&&&&&&&&&&&&&&&&&&&&&&&&&&&&&&&&&&&&&&&&&&&&&&&&&&&&&&&&&&&&&&&&&&&&&&&&&&&&&&&&&&&&&&&&&&&&&&&&&&&&&&&&&&&&&&&&&&&&&&&&&&&&&&&&&&&&&&&&&&&&&&&&&&&&&&&&&&&&&&&&&&&&&&&&&&&&&&&&&&&&&&&&&&&&&&&&&&&&&&&&&&&&&&&&&&&&&&&&&&&&&&&&&&&&&&&&&&&&&&&&&&&&&&&&&&&&&&&&&&&&&&&&&&&&&&&==============.......                                                                                                                                                                                                                               ",
"  .......=======&&&&&&&&&&&&&&&&&&&&&&&&&&&&&&&&&&&&&&&&&&&&&&&&&&&&&&&&&&&&&&&&&&&&&&&&&&&&&&&&&&&&&&&&&&&&&&&&&&&&&&&&&&&&&&&&&&&&&&&&&&&&&&&&&&&&&&&&&&&&&&&&&&&&&&&&&&&&&&&&&&&&&&&&&&&&&&&&&&&&&&&&&&&&&&&&&&&&&&&&&&&&&&&&&&&&&&&&&&&&&&&&&&&&&&&&&&&&&&&&&&&&&&&&&&&&&&&&&&&&&&&&&&&&&&&&&&&&&&&&&&&&&&&&&&&&&&&&&&&&&==============.......                                                                                                                                                                                                                               "};
