/* XPM */
static char * left_arm0_xpm[] = {
"561 628 5 1",
" 	c #FF00FF",
".	c #000000",
"+	c #CE9E7F",
"@	c #74443B",
"#	c #BD826A",
"                                                                                                                                                                                                                                                                                                                                                                                                                                                                                                                                                                                 ",
"                                                                                                                                                                                                                                                                                                                                                                                                                                                                                                                                                                                 ",
"                                                                                                                                                                                                                                                                                                                                                                                                                                                                                                                                                                                 ",
"                                                                                                                                                                                                                                                                                                                                                                                                                                                                                                                                                                                 ",
"                                                                                                                                                                                                                                                                                                                                                                                                                                                                                                                                                                                 ",
"                                                                                                                                                                                                                                                                                                                                                                                                                                                                                                                                                                                 ",
"                                                                                                                                                                                                                                                                                                                                                                                                                                                                                                                                                                                 ",
"                                                                                                                                                                                                                                                                                                                                                                                                                                                                                                                                                                                 ",
"                                                                                                                                                                                                                                                                                                                                                                                                                                                                                                                                                                                 ",
"                                                                                                                                                                                                                                                                                                                                                                                                                                                                                                                                                                                 ",
"                                                                                                                                                                                                                                                                                                                                                                                                                                                                                                                                                                                 ",
"                                                                                                                                                                                                                                                                                                                                                                                                                                                                                                                                                                                 ",
"                                                                                                                                                                                                                                                                                                                                                                                                                                                                                                                                                                                 ",
"                                                                                                                                                                                                                                                                                                                                                                                                                                                                                                                                                                                 ",
"                                                                                                                                                                                                                                                                                                                                                                                                                                                                                                                                                                                 ",
"                                                                                                                                                                                                                                                                                                                                                                                                                                                                                                                                                                                 ",
"                                                                                                                                                                                                                                                                                                                                                                                                                                                                                                                                                                                 ",
"                                                                                                                                                                                                                                                                                                                                                                                                                                                                                                                                                                                 ",
"                                                                                                                                                                                                                                                                                                                                                                                                                                                                                                                                                                                 ",
"                                                                                                                                                                                                                                                                                                                                                                                                                                                                                                                                                                                 ",
"                                                                                                                                                                                                                                                                                                                                                                                                                                                                                                                                                                                 ",
"                                                                                                                                                                                                                                                                                                                                                                                                                                                                                                                                                                                 ",
"                                                                                                                                                                                                                                                                                                                                                                                                                                                                                                                                                                                 ",
"                                                                                                                                                                                                                                                                                                                                                                                                                                                                                                                                                                                 ",
"                                                                                                                                                                                                                                                                                                                                                                                                                                                                                                                                                                                 ",
"                                                                                                                                                                                                                                                                                                                                                                                                                                                                                                                                                                                 ",
"                                                                                                                                                                                                                                                                                                                                                                                                                                                                                                                                                                                 ",
"                                                                                                                                                                                                                                                                                                                                                                                                                                                                                                                                                                                 ",
"                                                                                                                                                                                                                                                                                                                                                                                                                                                                                                                                                                                 ",
"                                                                                                                                                                                                                                                                                                                                                                                                                                                                                                                                                                                 ",
"                                                                                                                                                                                                                                                                                                                                                                                                                                                                                                                                                                                 ",
"                                                                                                                                                                                                                                                                                                                                                                                                                                                                                                                                                                                 ",
"                                                                                                                                                                                                                                                                                                                                                                                                                                                                                                                                                                                 ",
"                                                                                                                                                                                                                                                                                                                                                                                                                                                                                                                                                                                 ",
"                                                                                                                                                                                                                                                                                                                                                                                                                                                                                                                                                                                 ",
"                                                                                                                                                                                                                                                                                                                                                                                                                                                                                                                                                                                 ",
"                                                                                                                                                                                                                                                                                                                                                                                                                                                                                                                                                                                 ",
"                                                                                                                                                                                                                                                                                                                                                                                                                                                                                                                                                                                 ",
"                                                                                                                                                                                                                                                                                                                                                                                                                                                                                                                                                                                 ",
"                                                                                                                                                                                                                                                                                                                                                                                                                                                                                                                                                                                 ",
"                                                                                                                                                                                                                                                                                                                                                                                                                                                                                                                                                                                 ",
"                                                                                                                                                                                                                                                                                                                                                                                                                                                                                                                                                                                 ",
"                                                                                                                                                                                                                                                                                                                                                                                                                                                                                                                                                                                 ",
"                                                                                                                                                                                                                                                                                                                                                                                                                                                                                                                                                                                 ",
"                                                                                                                                                                                                                                                                                                                                                                                                                                                                                                                                                                                 ",
"                                                                                                                                                                                                                                                                                                                                                                                                                                                                                                                                                                                 ",
"                                                                                                                                                                                                                                                                                                                                                                                                                                                                                                                                                                                 ",
"                                                                                                                                                                                                                                                                                                                                                                                                                                                                                                                                                                                 ",
"                                                                                                                                                                                                                                                                                                                                                                                                                                                                                                                                                                                 ",
"                                                                                                                                                                                                                                                                                                                                                                                                                                                                                                                                                                                 ",
"                                                                                                                                                                                                                                                                                                                                                                                                                                                                                                                                                                                 ",
"                                                                                                                                                                                                                                                                                                                                                                                                                                                                                                                                                                                 ",
"                                                                                                                                                                                                                                                                                                                                                                                                                                                                                                                                                                                 ",
"                                                                                                                                                                                                                                                                                                                                                                                                                                                                                                                                                                                 ",
"                                                                                                                                                                                                                                                                                                                                                                                                                                                                                                                                                                                 ",
"                                                                                                                                                                                                                                                                                                                                                                                                                                                                                                                                                                                 ",
"                                                                                                                                                                                                                                                                                                                                                                                                                                                                                                                                                                                 ",
"                                                                                                                                                                                                                                                                                                                                                                                                                                                                                                                                                                                 ",
"                                                                                                                                                                                                                                                                                                                                                                                                                                                                                                                                                                                 ",
"                                                                                                                                                                                                                                                                                                                                                                                                                                                                                                                                                                                 ",
"                                                                                                                                                                                                                                                                                                                                                                                                                                                                                                                                                                                 ",
"                                                                                                                                                                                                                                                                                                                                                                                                                                                                                                                                                                                 ",
"                                                                                                                                                                                                                                                                                                                                                                                                                                                                                                                                                                                 ",
"                                                                                                                                                                                                                                                                                                                                                                                                                                                                                                                                                                                 ",
"                                                                                                                                                                                                                                                                                                                                                                                                                                                                                                                                                                                 ",
"                                                                                                                                                                                                                                                                                                                                                                                                                                                                                                                                                                                 ",
"                                                                                                                                                                                                                                                                                                                                                                                                                                                                                                                                                                                 ",
"                                                                                                                                                                                                                                                                                                                                                                                                                                                                                                                                                                                 ",
"                                                                                                                                                                                                                                                                                                                                                                                                                                                                                                                                                                                 ",
"                                                                                                                                                                                                                                                                                                                                                                                                                                                                                                                                                                                 ",
"                                                                                                                                                                                                                                                                                                                                                                                                                                                                                                                                                                                 ",
"                                                                                                                                                                                                                                                                                                                                                                                                                                                                                                                                                                                 ",
"                                                                                                                                                                                                                                                                                                                                                                                                                                                                                                                                                                                 ",
"                                                                                                                                                                                                                                                                                                                                                                                                                                                                                                                                                                                 ",
"                                                                                                                                                                                                                                                                                                                                                                                                                                                                                                                                                                                 ",
"                                                                                                                                                                                                                                                                                                                                                                                                                                                                                                                                                                                 ",
"                                                                                                                                                                                                                                                                                                                                                                                                                                                                                                                                                                                 ",
"                                                                                                                                                                                                                                                                                                                                                                                                                                                                                                                                                                                 ",
"                                                                                                                                                                                                                                                                                                                                                                                                                                                                                                                                                                                 ",
"                                                                                                                                                                                                                                                                                                                                                                                                                                                                                                                                                                                 ",
"                                                                                                                                                                                                                                                                                                                                                                                                                                                                                                                                                                                 ",
"                                                                                                                                                                                                                                                                                                                                                                                                                                                                                                                                                                                 ",
"                                                                                                                                                                                                                                                                                                                                                                                                                                                                                                                                                                                 ",
"                                                                                                                                                                                                                                                                                                                                                                                                                                                                                                                                                                                 ",
"                                                                                                                                                                                                                                                                                                                                                                                                                                                                                                                                                                                 ",
"                                                                                                                                                                                                                                                                                                                                                                                                                                                                                                                                                                                 ",
"                                                                                                                                                                                                                                                                                                                                                                                                                                                                                                                                                                                 ",
"                                                                                                                                                                                                                                                                                                                                                                                                                                                                                                                                                                                 ",
"                                                                                                                                                                                                                                                                                                                                                                                                                                                                                                                                                                                 ",
"                                                                                                                                                                                                                                                                                                                                                                                                                                                                                                                                                                                 ",
"                                                                                                                                                                                                                                                                                                                                                                                                                                                                                                                                                                                 ",
"                                                                                                                                                                                                                                                                                                                                                                                                                                                                                                                                                                                 ",
"                                                                                                                                                                                                                                                                                                                                                                                                                                                                                                                                                                                 ",
"                                                                                                                                                                                                                                                                                                                                                                                                                                                                                                                                                                                 ",
"                                                                                                                                                                                                                                                                                                                                                                                                                                                                                                                                                                                 ",
"                                                                                                                                                                                                                                                                                                                                                                                                                                                                                                                                                                                 ",
"                                                                                                                                                                                                                                                                                                                                                                                                                                                                                                                                                                                 ",
"                                                                                                                                                                                                                                                                                                                                                                                                                                                                                                                                                                                 ",
"                                                                                                                                                                                                                                                                                                                                                                                                                                                                                                                                                                                 ",
"                                                                                                                                                                                                                                                                                                                                                                                                                                                                                                                                                                                 ",
"                                                                                                                                                                                                                                                                                                                                                                                                                                                                                                                                                                                 ",
"                                                                                                                                                                                                                                                                                                                                                                                                                                                                                                                                                                                 ",
"                                                                                                                                                                                                                                                                                                                                                                                                                                                                                                                                                                                 ",
"                                                                                                                                                                                                                                                                                                                                                                                                                                                                                                                                                                                 ",
"                                                                                                                                                                                                                                                                                                                                                                                                                                                                                                                                                                                 ",
"                                                                                                                                                                                                                                                                                                                                                                                                                                                                                                                                                                                 ",
"                                                                                                                                                                                                                                                                                                                                                                                                                                                                                                                                                                                 ",
"                                                                                                                                                                                                                                                                                                                                                                                                                                                                                                                                                                                 ",
"                                                                                                                                                                                                                                                                                                                                                                                                                                                                                                                                                                                 ",
"                                                                                                                                                                                                                                                                                                                                                                                                                                                                                                                                                                                 ",
"                                                                                                                                                                                                                                                                                                                                                                                                                                                                                                                                                                                 ",
"                                                                                                                                                                                                                                                                                                                                                                                                                                                                                                                                                                                 ",
"                                                                                                                                                                                                                                                                                                                                                                                                                                                                                                                                                                                 ",
"                                                                                                                                                                                                                                                                                                                                                                                                                                                                                                                                                                                 ",
"                                                                                                                                                                                                                                                                                                                                                                                                                                                                                                                                                                                 ",
"                                                                                                                                                                                                                                                                                                                                                                                                                                                                                                                                                                                 ",
"                                                                                                                                                                                                                                                                                                                                                                                                                                                                                                                                                                                 ",
"                                                                                                                                                                                                                                                                                                                                                                                                                                      .................................................                                                                                          ",
"                                                                                                                                                                                                                                                                                                                                                                                                                                      .................................................                                                                                          ",
"                                                                                                                                                                                                                                                                                                                                                                                                                                      .................................................                                                                                          ",
"                                                                                                                                                                                                                                                                                                                                                                                                                                      .................................................                                                                                          ",
"                                                                                                                                                                                                                                                                                                                                                                                                                                      .................................................                                                                                          ",
"                                                                                                                                                                                                                                                                                                                                                                                                                                      .................................................                                                                                          ",
"                                                                                                                                                                                                                                                                                                                                                                                                                                      .................................................                                                                                          ",
"                                                                                                                                                                                                                                                                                                                                                                                                                               .......+++++++++++++++++++++++++++++++++++++++++++++++++.......                                                                                   ",
"                                                                                                                                                                                                                                                                                                                                                                                                                               .......+++++++++++++++++++++++++++++++++++++++++++++++++.......                                                                                   ",
"                                                                                                                                                                                                                                                                                                                                                                                                                               .......+++++++++++++++++++++++++++++++++++++++++++++++++.......                                                                                   ",
"                                                                                                                                                                                                                                                                                                                                                                                                                               .......+++++++++++++++++++++++++++++++++++++++++++++++++.......                                                                                   ",
"                                                                                                                                                                                                                                                                                                                                                                                                                               .......+++++++++++++++++++++++++++++++++++++++++++++++++.......                                                                                   ",
"                                                                                                                                                                                                                                                                                                                                                                                                                               .......+++++++++++++++++++++++++++++++++++++++++++++++++.......                                                                                   ",
"                                                                                                                                                                                                                                                                                                                                                                                                                               .......+++++++++++++++++++++++++++++++++++++++++++++++++.......                                                                                   ",
"                                                                                                                                                                                                                                                                                                                                                                                                                 ...................................++++++++++++++++++++++++++++++++++++++++++.......                                                                            ",
"                                                                                                                                                                                                                                                                                                                                                                                                                 ...................................++++++++++++++++++++++++++++++++++++++++++.......                                                                            ",
"                                                                                                                                                                                                                                                                                                                                                                                                                 ...................................++++++++++++++++++++++++++++++++++++++++++.......                                                                            ",
"                                                                                                                                                                                                                                                                                                                                                                                                                 ...................................++++++++++++++++++++++++++++++++++++++++++.......                                                                            ",
"                                                                                                                                                                                                                                                                                                                                                                                                                 ...................................++++++++++++++++++++++++++++++++++++++++++.......                                                                            ",
"                                                                                                                                                                                                                                                                                                                                                                                                                 ...................................++++++++++++++++++++++++++++++++++++++++++.......                                                                            ",
"                                                                                                                                                                                                                                                                                                                                                                                                                 ...................................++++++++++++++++++++++++++++++++++++++++++.......                                                                            ",
"                                                                                                                                                                                                                                                                                                                                                                                                          .......++++++++++++++++++++++++++++..............+++++++++++++++++++++++++++++++++++..............                                                                     ",
"                                                                                                                                                                                                                                                                                                                                                                                                          .......++++++++++++++++++++++++++++..............+++++++++++++++++++++++++++++++++++..............                                                                     ",
"                                                                                                                                                                                                                                                                                                                                                                                                          .......++++++++++++++++++++++++++++..............+++++++++++++++++++++++++++++++++++..............                                                                     ",
"                                                                                                                                                                                                                                                                                                                                                                                                          .......++++++++++++++++++++++++++++..............+++++++++++++++++++++++++++++++++++..............                                                                     ",
"                                                                                                                                                                                                                                                                                                                                                                                                          .......++++++++++++++++++++++++++++..............+++++++++++++++++++++++++++++++++++..............                                                                     ",
"                                                                                                                                                                                                                                                                                                                                                                                                          .......++++++++++++++++++++++++++++..............+++++++++++++++++++++++++++++++++++..............                                                                     ",
"                                                                                                                                                                                                                                                                                                                                                                                                          .......++++++++++++++++++++++++++++..............+++++++++++++++++++++++++++++++++++..............                                                                     ",
"                                                                                                                                                                                                                                                                                                                                                                                                   .......+++++++++++++++++++++++++++++++++++++++++++++++++..............+++++++++++++++++++++.......+++++++.......                                                              ",
"                                                                                                                                                                                                                                                                                                                                                                                                   .......+++++++++++++++++++++++++++++++++++++++++++++++++..............+++++++++++++++++++++.......+++++++.......                                                              ",
"                                                                                                                                                                                                                                                                                                                                                                                                   .......+++++++++++++++++++++++++++++++++++++++++++++++++..............+++++++++++++++++++++.......+++++++.......                                                              ",
"                                                                                                                                                                                                                                                                                                                                                                                                   .......+++++++++++++++++++++++++++++++++++++++++++++++++..............+++++++++++++++++++++.......+++++++.......                                                              ",
"                                                                                                                                                                                                                                                                                                                                                                                                   .......+++++++++++++++++++++++++++++++++++++++++++++++++..............+++++++++++++++++++++.......+++++++.......                                                              ",
"                                                                                                                                                                                                                                                                                                                                                                                                   .......+++++++++++++++++++++++++++++++++++++++++++++++++..............+++++++++++++++++++++.......+++++++.......                                                              ",
"                                                                                                                                                                                                                                                                                                                                                                                                   .......+++++++++++++++++++++++++++++++++++++++++++++++++..............+++++++++++++++++++++.......+++++++.......                                                              ",
"                                                                                                                                                                                                                                                                                                                                                                                            .......+++++++++++++++++++++++++++++++++++++++++++++++++++++++++++++++..............+++++++.......+++++++++++++++++++++.......                                                       ",
"                                                                                                                                                                                                                                                                                                                                                                                            .......+++++++++++++++++++++++++++++++++++++++++++++++++++++++++++++++..............+++++++.......+++++++++++++++++++++.......                                                       ",
"                                                                                                                                                                                                                                                                                                                                                                                            .......+++++++++++++++++++++++++++++++++++++++++++++++++++++++++++++++..............+++++++.......+++++++++++++++++++++.......                                                       ",
"                                                                                                                                                                                                                                                                                                                                                                                            .......+++++++++++++++++++++++++++++++++++++++++++++++++++++++++++++++..............+++++++.......+++++++++++++++++++++.......                                                       ",
"                                                                                                                                                                                                                                                                                                                                                                                            .......+++++++++++++++++++++++++++++++++++++++++++++++++++++++++++++++..............+++++++.......+++++++++++++++++++++.......                                                       ",
"                                                                                                                                                                                                                                                                                                                                                                                            .......+++++++++++++++++++++++++++++++++++++++++++++++++++++++++++++++..............+++++++.......+++++++++++++++++++++.......                                                       ",
"                                                                                                                                                                                                                                                                                                                                                                                            .......+++++++++++++++++++++++++++++++++++++++++++++++++++++++++++++++..............+++++++.......+++++++++++++++++++++.......                                                       ",
"                                                                                                                                                                                                                                                                                                                                                                              ..............++++++++++++++++++++++++++++++++++++++++++++++++++++++++++++++++++++++@@@@@@@#######.....................+++++++++++++++++++++.......                                                ",
"                                                                                                                                                                                                                                                                                                                                                                              ..............++++++++++++++++++++++++++++++++++++++++++++++++++++++++++++++++++++++@@@@@@@#######.....................+++++++++++++++++++++.......                                                ",
"                                                                                                                                                                                                                                                                                                                                                                              ..............++++++++++++++++++++++++++++++++++++++++++++++++++++++++++++++++++++++@@@@@@@#######.....................+++++++++++++++++++++.......                                                ",
"                                                                                                                                                                                                                                                                                                                                                                              ..............++++++++++++++++++++++++++++++++++++++++++++++++++++++++++++++++++++++@@@@@@@#######.....................+++++++++++++++++++++.......                                                ",
"                                                                                                                                                                                                                                                                                                                                                                              ..............++++++++++++++++++++++++++++++++++++++++++++++++++++++++++++++++++++++@@@@@@@#######.....................+++++++++++++++++++++.......                                                ",
"                                                                                                                                                                                                                                                                                                                                                                              ..............++++++++++++++++++++++++++++++++++++++++++++++++++++++++++++++++++++++@@@@@@@#######.....................+++++++++++++++++++++.......                                                ",
"                                                                                                                                                                                                                                                                                                                                                                              ..............++++++++++++++++++++++++++++++++++++++++++++++++++++++++++++++++++++++@@@@@@@#######.....................+++++++++++++++++++++.......                                                ",
"                                                                                                                                                                                                                                                                                                                                                                ..............++++++++++++++++++++++++++++++++++++++++++##############++++++++++++++++++++++++++++@@@@@@@############################..............++++++++++++++.......                                         ",
"                                                                                                                                                                                                                                                                                                                                                                ..............++++++++++++++++++++++++++++++++++++++++++##############++++++++++++++++++++++++++++@@@@@@@############################..............++++++++++++++.......                                         ",
"                                                                                                                                                                                                                                                                                                                                                                ..............++++++++++++++++++++++++++++++++++++++++++##############++++++++++++++++++++++++++++@@@@@@@############################..............++++++++++++++.......                                         ",
"                                                                                                                                                                                                                                                                                                                                                                ..............++++++++++++++++++++++++++++++++++++++++++##############++++++++++++++++++++++++++++@@@@@@@############################..............++++++++++++++.......                                         ",
"                                                                                                                                                                                                                                                                                                                                                                ..............++++++++++++++++++++++++++++++++++++++++++##############++++++++++++++++++++++++++++@@@@@@@############################..............++++++++++++++.......                                         ",
"                                                                                                                                                                                                                                                                                                                                                                ..............++++++++++++++++++++++++++++++++++++++++++##############++++++++++++++++++++++++++++@@@@@@@############################..............++++++++++++++.......                                         ",
"                                                                                                                                                                                                                                                                                                                                                                ..............++++++++++++++++++++++++++++++++++++++++++##############++++++++++++++++++++++++++++@@@@@@@############################..............++++++++++++++.......                                         ",
"                                                                                                                                                                                                                                                                                                                                                         .......++++++++++++++++++++++++++++++++++++++++++++++++++++++++#######.......+++++++++++++++++++++++++++++++++++@@@@@@@@@@@@@@@@@@@@@@@@@@@@+++++++.......+++++++++++++++++++++.......                                  ",
"                                                                                                                                                                                                                                                                                                                                                         .......++++++++++++++++++++++++++++++++++++++++++++++++++++++++#######.......+++++++++++++++++++++++++++++++++++@@@@@@@@@@@@@@@@@@@@@@@@@@@@+++++++.......+++++++++++++++++++++.......                                  ",
"                                                                                                                                                                                                                                                                                                                                                         .......++++++++++++++++++++++++++++++++++++++++++++++++++++++++#######.......+++++++++++++++++++++++++++++++++++@@@@@@@@@@@@@@@@@@@@@@@@@@@@+++++++.......+++++++++++++++++++++.......                                  ",
"                                                                                                                                                                                                                                                                                                                                                         .......++++++++++++++++++++++++++++++++++++++++++++++++++++++++#######.......+++++++++++++++++++++++++++++++++++@@@@@@@@@@@@@@@@@@@@@@@@@@@@+++++++.......+++++++++++++++++++++.......                                  ",
"                                                                                                                                                                                                                                                                                                                                                         .......++++++++++++++++++++++++++++++++++++++++++++++++++++++++#######.......+++++++++++++++++++++++++++++++++++@@@@@@@@@@@@@@@@@@@@@@@@@@@@+++++++.......+++++++++++++++++++++.......                                  ",
"                                                                                                                                                                                                                                                                                                                                                         .......++++++++++++++++++++++++++++++++++++++++++++++++++++++++#######.......+++++++++++++++++++++++++++++++++++@@@@@@@@@@@@@@@@@@@@@@@@@@@@+++++++.......+++++++++++++++++++++.......                                  ",
"                                                                                                                                                                                                                                                                                                                                                         .......++++++++++++++++++++++++++++++++++++++++++++++++++++++++#######.......+++++++++++++++++++++++++++++++++++@@@@@@@@@@@@@@@@@@@@@@@@@@@@+++++++.......+++++++++++++++++++++.......                                  ",
"                                                                                                                                                                                                                                                                                                                                                  .......+++++++++++++++++++++++++++++++++++++++++++++++++#####################.......++++++++++++++++++++++++++++++++++++++++++++++++++++++++++++++++++++++.......+++++++++++++++++++++.......                                  ",
"                                                                                                                                                                                                                                                                                                                                                  .......+++++++++++++++++++++++++++++++++++++++++++++++++#####################.......++++++++++++++++++++++++++++++++++++++++++++++++++++++++++++++++++++++.......+++++++++++++++++++++.......                                  ",
"                                                                                                                                                                                                                                                                                                                                                  .......+++++++++++++++++++++++++++++++++++++++++++++++++#####################.......++++++++++++++++++++++++++++++++++++++++++++++++++++++++++++++++++++++.......+++++++++++++++++++++.......                                  ",
"                                                                                                                                                                                                                                                                                                                                                  .......+++++++++++++++++++++++++++++++++++++++++++++++++#####################.......++++++++++++++++++++++++++++++++++++++++++++++++++++++++++++++++++++++.......+++++++++++++++++++++.......                                  ",
"                                                                                                                                                                                                                                                                                                                                                  .......+++++++++++++++++++++++++++++++++++++++++++++++++#####################.......++++++++++++++++++++++++++++++++++++++++++++++++++++++++++++++++++++++.......+++++++++++++++++++++.......                                  ",
"                                                                                                                                                                                                                                                                                                                                                  .......+++++++++++++++++++++++++++++++++++++++++++++++++#####################.......++++++++++++++++++++++++++++++++++++++++++++++++++++++++++++++++++++++.......+++++++++++++++++++++.......                                  ",
"                                                                                                                                                                                                                                                                                                                                                  .......+++++++++++++++++++++++++++++++++++++++++++++++++#####################.......++++++++++++++++++++++++++++++++++++++++++++++++++++++++++++++++++++++.......+++++++++++++++++++++.......                                  ",
"                                                                                                                                                                                                                                                                                                                                           .......+++++++++++++++++++++++++++++++++++++++++++++++++############################.......++++++++++++++++++++++++++++++++++++++++++++++++++++++++++++++++++++++.......+++++++++++++++++++++.......                                  ",
"                                                                                                                                                                                                                                                                                                                                           .......+++++++++++++++++++++++++++++++++++++++++++++++++############################.......++++++++++++++++++++++++++++++++++++++++++++++++++++++++++++++++++++++.......+++++++++++++++++++++.......                                  ",
"                                                                                                                                                                                                                                                                                                                                           .......+++++++++++++++++++++++++++++++++++++++++++++++++############################.......++++++++++++++++++++++++++++++++++++++++++++++++++++++++++++++++++++++.......+++++++++++++++++++++.......                                  ",
"                                                                                                                                                                                                                                                                                                                                           .......+++++++++++++++++++++++++++++++++++++++++++++++++############################.......++++++++++++++++++++++++++++++++++++++++++++++++++++++++++++++++++++++.......+++++++++++++++++++++.......                                  ",
"                                                                                                                                                                                                                                                                                                                                           .......+++++++++++++++++++++++++++++++++++++++++++++++++############################.......++++++++++++++++++++++++++++++++++++++++++++++++++++++++++++++++++++++.......+++++++++++++++++++++.......                                  ",
"                                                                                                                                                                                                                                                                                                                                           .......+++++++++++++++++++++++++++++++++++++++++++++++++############################.......++++++++++++++++++++++++++++++++++++++++++++++++++++++++++++++++++++++.......+++++++++++++++++++++.......                                  ",
"                                                                                                                                                                                                                                                                                                                                           .......+++++++++++++++++++++++++++++++++++++++++++++++++############################.......++++++++++++++++++++++++++++++++++++++++++++++++++++++++++++++++++++++.......++++++++++++++..............                                  ",
"                                                                                                                                                                                                                                                                                                                                    .......+++++++++++++++++++++++++++++++++++++++++++++++++##########################################.......+++++++++++++++++++++++++++++++++++++++++++++++++.....................++++++++++++++..............                                  ",
"                                                                                                                                                                                                                                                                                                                                    .......+++++++++++++++++++++++++++++++++++++++++++++++++##########################################.......+++++++++++++++++++++++++++++++++++++++++++++++++.....................++++++++++++++..............                                  ",
"                                                                                                                                                                                                                                                                                                                                    .......+++++++++++++++++++++++++++++++++++++++++++++++++##########################################.......+++++++++++++++++++++++++++++++++++++++++++++++++.....................++++++++++++++..............                                  ",
"                                                                                                                                                                                                                                                                                                                                    .......+++++++++++++++++++++++++++++++++++++++++++++++++##########################################.......+++++++++++++++++++++++++++++++++++++++++++++++++.....................++++++++++++++..............                                  ",
"                                                                                                                                                                                                                                                                                                                                    .......+++++++++++++++++++++++++++++++++++++++++++++++++##########################################.......+++++++++++++++++++++++++++++++++++++++++++++++++.....................++++++++++++++..............                                  ",
"                                                                                                                                                                                                                                                                                                                                    .......+++++++++++++++++++++++++++++++++++++++++++++++++##########################################.......+++++++++++++++++++++++++++++++++++++++++++++++++.....................++++++++++++++..............                                  ",
"                                                                                                                                                                                                                                                                                                                                    .......+++++++++++++++++++++++++++++++++++++++++++++++++##########################################.......+++++++++++++++++++++++++++++++++++++++++++++++++.....................++++++++++++++..............                                  ",
"                                                                                                                                                                                                                                                                                                                             .......#######++++++++++++++++++++++++++++++++++++++++++##########################################...............................................................#####################+++++++.......++++++++++++++.......                           ",
"                                                                                                                                                                                                                                                                                                                             .......#######++++++++++++++++++++++++++++++++++++++++++##########################################...............................................................#####################+++++++.......++++++++++++++.......                           ",
"                                                                                                                                                                                                                                                                                                                             .......#######++++++++++++++++++++++++++++++++++++++++++##########################################...............................................................#####################+++++++.......++++++++++++++.......                           ",
"                                                                                                                                                                                                                                                                                                                             .......#######++++++++++++++++++++++++++++++++++++++++++##########################################...............................................................#####################+++++++.......++++++++++++++.......                           ",
"                                                                                                                                                                                                                                                                                                                             .......#######++++++++++++++++++++++++++++++++++++++++++##########################################...............................................................#####################+++++++.......++++++++++++++.......                           ",
"                                                                                                                                                                                                                                                                                                                             .......#######++++++++++++++++++++++++++++++++++++++++++##########################################...............................................................#####################+++++++.......++++++++++++++.......                           ",
"                                                                                                                                                                                                                                                                                                                             .......#######++++++++++++++++++++++++++++++++++++++++++##########################################...............................................................#####################+++++++.......++++++++++++++.......                           ",
"                                                                                                                                                                                                                                                                                                                             .......#######+++++++++++++++++++++++++++++++++++###################################.....................#######+++++++.......##########################################++++++++++++++..............+++++++++++++++++++++.......                    ",
"                                                                                                                                                                                                                                                                                                                             .......#######+++++++++++++++++++++++++++++++++++###################################.....................#######+++++++.......##########################################++++++++++++++..............+++++++++++++++++++++.......                    ",
"                                                                                                                                                                                                                                                                                                                             .......#######+++++++++++++++++++++++++++++++++++###################################.....................#######+++++++.......##########################################++++++++++++++..............+++++++++++++++++++++.......                    ",
"                                                                                                                                                                                                                                                                                                                             .......#######+++++++++++++++++++++++++++++++++++###################################.....................#######+++++++.......##########################################++++++++++++++..............+++++++++++++++++++++.......                    ",
"                                                                                                                                                                                                                                                                                                                             .......#######+++++++++++++++++++++++++++++++++++###################################.....................#######+++++++.......##########################################++++++++++++++..............+++++++++++++++++++++.......                    ",
"                                                                                                                                                                                                                                                                                                                             .......#######+++++++++++++++++++++++++++++++++++###################################.....................#######+++++++.......##########################################++++++++++++++..............+++++++++++++++++++++.......                    ",
"                                                                                                                                                                                                                                                                                                                             .......#######+++++++++++++++++++++++++++++++++++###################################.....................#######+++++++.......##########################################++++++++++++++..............+++++++++++++++++++++.......                    ",
"                                                                                                                                                                                                                                                                                                                             .......#######++++++++++++++++++++++++++++###################################..............##############+++++++.......############################++++++++++++++++++++++++++++..............+++++++++++++++++++++++++++++++++++.......             ",
"                                                                                                                                                                                                                                                                                                                             .......#######++++++++++++++++++++++++++++###################################..............##############+++++++.......############################++++++++++++++++++++++++++++..............+++++++++++++++++++++++++++++++++++.......             ",
"                                                                                                                                                                                                                                                                                                                             .......#######++++++++++++++++++++++++++++###################################..............##############+++++++.......############################++++++++++++++++++++++++++++..............+++++++++++++++++++++++++++++++++++.......             ",
"                                                                                                                                                                                                                                                                                                                             .......#######++++++++++++++++++++++++++++###################################..............##############+++++++.......############################++++++++++++++++++++++++++++..............+++++++++++++++++++++++++++++++++++.......             ",
"                                                                                                                                                                                                                                                                                                                             .......#######++++++++++++++++++++++++++++###################################..............##############+++++++.......############################++++++++++++++++++++++++++++..............+++++++++++++++++++++++++++++++++++.......             ",
"                                                                                                                                                                                                                                                                                                                             .......#######++++++++++++++++++++++++++++###################################..............##############+++++++.......############################++++++++++++++++++++++++++++..............+++++++++++++++++++++++++++++++++++.......             ",
"                                                                                                                                                                                                                                                                                                                             .......#######++++++++++++++++++++++++++++###################################..............##############+++++++.......############################++++++++++++++++++++++++++++..............+++++++++++++++++++++++++++++++++++.......             ",
"                                                                                                                                                                                                                                                                                                                             .......#######++++++++++++++++++++++++++++###################################.....................+++++++.......#####################+++++++++++++++++++++++++++++++++++..............#######+++++++++++++++++++++++++++++++++++.......             ",
"                                                                                                                                                                                                                                                                                                                             .......#######++++++++++++++++++++++++++++###################################.....................+++++++.......#####################+++++++++++++++++++++++++++++++++++..............#######+++++++++++++++++++++++++++++++++++.......             ",
"                                                                                                                                                                                                                                                                                                                             .......#######++++++++++++++++++++++++++++###################################.....................+++++++.......#####################+++++++++++++++++++++++++++++++++++..............#######+++++++++++++++++++++++++++++++++++.......             ",
"                                                                                                                                                                                                                                                                                                                             .......#######++++++++++++++++++++++++++++###################################.....................+++++++.......#####################+++++++++++++++++++++++++++++++++++..............#######+++++++++++++++++++++++++++++++++++.......             ",
"                                                                                                                                                                                                                                                                                                                             .......#######++++++++++++++++++++++++++++###################################.....................+++++++.......#####################+++++++++++++++++++++++++++++++++++..............#######+++++++++++++++++++++++++++++++++++.......             ",
"                                                                                                                                                                                                                                                                                                                             .......#######++++++++++++++++++++++++++++###################################.....................+++++++.......#####################+++++++++++++++++++++++++++++++++++..............#######+++++++++++++++++++++++++++++++++++.......             ",
"                                                                                                                                                                                                                                                                                                                             .......#######++++++++++++++++++++++++++++###################################.....................+++++++.......#####################+++++++++++++++++++++++++++++++++++..............#######+++++++++++++++++++++++++++++++++++.......             ",
"                                                                                                                                                                                                                                                                                                                             .......#######++++++++++++++++++++++++++++#######@@@@@@@@@@@@@@@@@@@@@@@@@@@@@@@@@@@.....................#####################+++++++++++++++++++++++++++++++++++..............#######++++++++++++++++++++++++++++++++++++++++++.......             ",
"                                                                                                                                                                                                                                                                                                                             .......#######++++++++++++++++++++++++++++#######@@@@@@@@@@@@@@@@@@@@@@@@@@@@@@@@@@@.....................#####################+++++++++++++++++++++++++++++++++++..............#######++++++++++++++++++++++++++++++++++++++++++.......             ",
"                                                                                                                                                                                                                                                                                                                             .......#######++++++++++++++++++++++++++++#######@@@@@@@@@@@@@@@@@@@@@@@@@@@@@@@@@@@.....................#####################+++++++++++++++++++++++++++++++++++..............#######++++++++++++++++++++++++++++++++++++++++++.......             ",
"                                                                                                                                                                                                                                                                                                                             .......#######++++++++++++++++++++++++++++#######@@@@@@@@@@@@@@@@@@@@@@@@@@@@@@@@@@@.....................#####################+++++++++++++++++++++++++++++++++++..............#######++++++++++++++++++++++++++++++++++++++++++.......             ",
"                                                                                                                                                                                                                                                                                                                             .......#######++++++++++++++++++++++++++++#######@@@@@@@@@@@@@@@@@@@@@@@@@@@@@@@@@@@.....................#####################+++++++++++++++++++++++++++++++++++..............#######++++++++++++++++++++++++++++++++++++++++++.......             ",
"                                                                                                                                                                                                                                                                                                                             .......#######++++++++++++++++++++++++++++#######@@@@@@@@@@@@@@@@@@@@@@@@@@@@@@@@@@@.....................#####################+++++++++++++++++++++++++++++++++++..............#######++++++++++++++++++++++++++++++++++++++++++.......             ",
"                                                                                                                                                                                                                                                                                                                             .......#######++++++++++++++++++++++++++++#######@@@@@@@@@@@@@@@@@@@@@@@@@@@@@@@@@@@.....................#####################+++++++++++++++++++++++++++++++++++..............#######++++++++++++++++++++++++++++++++++++++++++.......             ",
"                                                                                                                                                                                                                                                                                                                             .......#######++++++++++++++++++++++++++++++++++++++++++############################.....................#######++++++++++++++++++++++++++++++++++++++++++..............#######++++++++++++++++++++++++++++++++++++++++++.......                    ",
"                                                                                                                                                                                                                                                                                                                             .......#######++++++++++++++++++++++++++++++++++++++++++############################.....................#######++++++++++++++++++++++++++++++++++++++++++..............#######++++++++++++++++++++++++++++++++++++++++++.......                    ",
"                                                                                                                                                                                                                                                                                                                             .......#######++++++++++++++++++++++++++++++++++++++++++############################.....................#######++++++++++++++++++++++++++++++++++++++++++..............#######++++++++++++++++++++++++++++++++++++++++++.......                    ",
"                                                                                                                                                                                                                                                                                                                             .......#######++++++++++++++++++++++++++++++++++++++++++############################.....................#######++++++++++++++++++++++++++++++++++++++++++..............#######++++++++++++++++++++++++++++++++++++++++++.......                    ",
"                                                                                                                                                                                                                                                                                                                             .......#######++++++++++++++++++++++++++++++++++++++++++############################.....................#######++++++++++++++++++++++++++++++++++++++++++..............#######++++++++++++++++++++++++++++++++++++++++++.......                    ",
"                                                                                                                                                                                                                                                                                                                             .......#######++++++++++++++++++++++++++++++++++++++++++############################.....................#######++++++++++++++++++++++++++++++++++++++++++..............#######++++++++++++++++++++++++++++++++++++++++++.......                    ",
"                                                                                                                                                                                                                                                                                                                             .......#######++++++++++++++++++++++++++++++++++++++++++############################.....................#######++++++++++++++++++++++++++++++++++++++++++..............#######++++++++++++++++++++++++++++++++++++++++++.......                    ",
"                                                                                                                                                                                                                                                                                                                             .......#######++++++++++++++++++++++++++++++++++++++++++###################################.....................+++++++++++++++++++++++++++++++++++..............#######+++++++++++++++++++++++++++++++++++.....................                    ",
"                                                                                                                                                                                                                                                                                                                             .......#######++++++++++++++++++++++++++++++++++++++++++###################################.....................+++++++++++++++++++++++++++++++++++..............#######+++++++++++++++++++++++++++++++++++.....................                    ",
"                                                                                                                                                                                                                                                                                                                             .......#######++++++++++++++++++++++++++++++++++++++++++###################################.....................+++++++++++++++++++++++++++++++++++..............#######+++++++++++++++++++++++++++++++++++.....................                    ",
"                                                                                                                                                                                                                                                                                                                             .......#######++++++++++++++++++++++++++++++++++++++++++###################################.....................+++++++++++++++++++++++++++++++++++..............#######+++++++++++++++++++++++++++++++++++.....................                    ",
"                                                                                                                                                                                                                                                                                                                             .......#######++++++++++++++++++++++++++++++++++++++++++###################################.....................+++++++++++++++++++++++++++++++++++..............#######+++++++++++++++++++++++++++++++++++.....................                    ",
"                                                                                                                                                                                                                                                                                                                             .......#######++++++++++++++++++++++++++++++++++++++++++###################################.....................+++++++++++++++++++++++++++++++++++..............#######+++++++++++++++++++++++++++++++++++.....................                    ",
"                                                                                                                                                                                                                                                                                                                             .......#######++++++++++++++++++++++++++++++++++++++++++###################################.....................+++++++++++++++++++++++++++++++++++..............#######+++++++++++++++++++++++++++++++++++.....................                    ",
"                                                                                                                                                                                                                                                                                                                      .......##############+++++++++++++++++++++++++++++++++++++++++++++++++###################################.....................++++++++++++++..............##############+++++++++++++++++++++++++++++++++++.......#######++++++++++++++..............      ",
"                                                                                                                                                                                                                                                                                                                      .......##############+++++++++++++++++++++++++++++++++++++++++++++++++###################################.....................++++++++++++++..............##############+++++++++++++++++++++++++++++++++++.......#######++++++++++++++..............      ",
"                                                                                                                                                                                                                                                                                                                      .......##############+++++++++++++++++++++++++++++++++++++++++++++++++###################################.....................++++++++++++++..............##############+++++++++++++++++++++++++++++++++++.......#######++++++++++++++..............      ",
"                                                                                                                                                                                                                                                                                                                      .......##############+++++++++++++++++++++++++++++++++++++++++++++++++###################################.....................++++++++++++++..............##############+++++++++++++++++++++++++++++++++++.......#######++++++++++++++..............      ",
"                                                                                                                                                                                                                                                                                                                      .......##############+++++++++++++++++++++++++++++++++++++++++++++++++###################################.....................++++++++++++++..............##############+++++++++++++++++++++++++++++++++++.......#######++++++++++++++..............      ",
"                                                                                                                                                                                                                                                                                                                      .......##############+++++++++++++++++++++++++++++++++++++++++++++++++###################################.....................++++++++++++++..............##############+++++++++++++++++++++++++++++++++++.......#######++++++++++++++..............      ",
"                                                                                                                                                                                                                                                                                                                      .......##############+++++++++++++++++++++++++++++++++++++++++++++++++###################################.....................++++++++++++++..............##############+++++++++++++++++++++++++++++++++++.......#######++++++++++++++..............      ",
"                                                                                                                                                                                                                                                                                                                      .......##############++++++++++++++++++++++++++++++++++++++++++++++++++++++++###################################...................................#######++++++++++++++++++++++++++++++++++++++++++..............#######+++++++++++++++++++++.......      ",
"                                                                                                                                                                                                                                                                                                                      .......##############++++++++++++++++++++++++++++++++++++++++++++++++++++++++###################################...................................#######++++++++++++++++++++++++++++++++++++++++++..............#######+++++++++++++++++++++.......      ",
"                                                                                                                                                                                                                                                                                                                      .......##############++++++++++++++++++++++++++++++++++++++++++++++++++++++++###################################...................................#######++++++++++++++++++++++++++++++++++++++++++..............#######+++++++++++++++++++++.......      ",
"                                                                                                                                                                                                                                                                                                                      .......##############++++++++++++++++++++++++++++++++++++++++++++++++++++++++###################################...................................#######++++++++++++++++++++++++++++++++++++++++++..............#######+++++++++++++++++++++.......      ",
"                                                                                                                                                                                                                                                                                                                      .......##############++++++++++++++++++++++++++++++++++++++++++++++++++++++++###################################...................................#######++++++++++++++++++++++++++++++++++++++++++..............#######+++++++++++++++++++++.......      ",
"                                                                                                                                                                                                                                                                                                                      .......##############++++++++++++++++++++++++++++++++++++++++++++++++++++++++###################################...................................#######++++++++++++++++++++++++++++++++++++++++++..............#######+++++++++++++++++++++.......      ",
"                                                                                                                                                                                                                                                                                                                      .......##############++++++++++++++++++++++++++++++++++++++++++++++++++++++++###################################...................................#######++++++++++++++++++++++++++++++++++++++++++..............#######+++++++++++++++++++++.......      ",
"                                                                                                                                                                                                                                                                                                                      .......##############++++++++++++++++++++++++++++++++++++++++++++++++++++++++##########################################.....................#######++++++++++++++++++++++++++++++++++++++++++..............#######++++++++++++++++++++++++++++.......      ",
"                                                                                                                                                                                                                                                                                                                      .......##############++++++++++++++++++++++++++++++++++++++++++++++++++++++++##########################################.....................#######++++++++++++++++++++++++++++++++++++++++++..............#######++++++++++++++++++++++++++++.......      ",
"                                                                                                                                                                                                                                                                                                                      .......##############++++++++++++++++++++++++++++++++++++++++++++++++++++++++##########################################.....................#######++++++++++++++++++++++++++++++++++++++++++..............#######++++++++++++++++++++++++++++.......      ",
"                                                                                                                                                                                                                                                                                                                      .......##############++++++++++++++++++++++++++++++++++++++++++++++++++++++++##########################################.....................#######++++++++++++++++++++++++++++++++++++++++++..............#######++++++++++++++++++++++++++++.......      ",
"                                                                                                                                                                                                                                                                                                                      .......##############++++++++++++++++++++++++++++++++++++++++++++++++++++++++##########################################.....................#######++++++++++++++++++++++++++++++++++++++++++..............#######++++++++++++++++++++++++++++.......      ",
"                                                                                                                                                                                                                                                                                                                      .......##############++++++++++++++++++++++++++++++++++++++++++++++++++++++++##########################################.....................#######++++++++++++++++++++++++++++++++++++++++++..............#######++++++++++++++++++++++++++++.......      ",
"                                                                                                                                                                                                                                                                                                                      .......##############++++++++++++++++++++++++++++++++++++++++++++++++++++++++##########################################.....................#######++++++++++++++++++++++++++++++++++++++++++..............#######++++++++++++++++++++++++++++.......      ",
"                                                                                                                                                                                                                                                                                                                      .......##############+++++++++++++++++++++++++++++++++++++++++++++++++++++++++++++++##########################################..............++++++++++++++++++++++++++++++++++++++++++..............#######+++++++++++++++++++++++++++++++++++.......      ",
"                                                                                                                                                                                                                                                                                                                      .......##############+++++++++++++++++++++++++++++++++++++++++++++++++++++++++++++++##########################################..............++++++++++++++++++++++++++++++++++++++++++..............#######+++++++++++++++++++++++++++++++++++.......      ",
"                                                                                                                                                                                                                                                                                                                      .......##############+++++++++++++++++++++++++++++++++++++++++++++++++++++++++++++++##########################################..............++++++++++++++++++++++++++++++++++++++++++..............#######+++++++++++++++++++++++++++++++++++.......      ",
"                                                                                                                                                                                                                                                                                                                      .......##############+++++++++++++++++++++++++++++++++++++++++++++++++++++++++++++++##########################################..............++++++++++++++++++++++++++++++++++++++++++..............#######+++++++++++++++++++++++++++++++++++.......      ",
"                                                                                                                                                                                                                                                                                                                      .......##############+++++++++++++++++++++++++++++++++++++++++++++++++++++++++++++++##########################################..............++++++++++++++++++++++++++++++++++++++++++..............#######+++++++++++++++++++++++++++++++++++.......      ",
"                                                                                                                                                                                                                                                                                                                      .......##############+++++++++++++++++++++++++++++++++++++++++++++++++++++++++++++++##########################################..............++++++++++++++++++++++++++++++++++++++++++..............#######+++++++++++++++++++++++++++++++++++.......      ",
"                                                                                                                                                                                                                                                                                                                      .......##############+++++++++++++++++++++++++++++++++++++++++++++++++++++++++++++++##########################################..............++++++++++++++++++++++++++++++++++++++++++..............#######+++++++++++++++++++++++++++++++++++.......      ",
"                                                                                                                                                                                                                                                                                                               .......#####################+++++++++++++++++++++++++++++++++++++++++++++++++++++++++++++++#################################################..............+++++++++++++++++++++++++++++++++++.......#######++++++++++++++++++++++++++++++++++++++++++.......      ",
"                                                                                                                                                                                                                                                                                                               .......#####################+++++++++++++++++++++++++++++++++++++++++++++++++++++++++++++++#################################################..............+++++++++++++++++++++++++++++++++++.......#######++++++++++++++++++++++++++++++++++++++++++.......      ",
"                                                                                                                                                                                                                                                                                                               .......#####################+++++++++++++++++++++++++++++++++++++++++++++++++++++++++++++++#################################################..............+++++++++++++++++++++++++++++++++++.......#######++++++++++++++++++++++++++++++++++++++++++.......      ",
"                                                                                                                                                                                                                                                                                                               .......#####################+++++++++++++++++++++++++++++++++++++++++++++++++++++++++++++++#################################################..............+++++++++++++++++++++++++++++++++++.......#######++++++++++++++++++++++++++++++++++++++++++.......      ",
"                                                                                                                                                                                                                                                                                                               .......#####################+++++++++++++++++++++++++++++++++++++++++++++++++++++++++++++++#################################################..............+++++++++++++++++++++++++++++++++++.......#######++++++++++++++++++++++++++++++++++++++++++.......      ",
"                                                                                                                                                                                                                                                                                                               .......#####################+++++++++++++++++++++++++++++++++++++++++++++++++++++++++++++++#################################################..............+++++++++++++++++++++++++++++++++++.......#######++++++++++++++++++++++++++++++++++++++++++.......      ",
"                                                                                                                                                                                                                                                                                                               .......#####################+++++++++++++++++++++++++++++++++++++++++++++++++++++++++++++++#################################################..............+++++++++++++++++++++++++++++++++++.......#######++++++++++++++++++++++++++++++++++++++++++.......      ",
"                                                                                                                                                                                                                                                                                                               .......#####################++++++++++++++++++++++++++++++++++++++++++++++++++++++++++++++++++++++##########################################+++++++..............++++++++++++++..............#######++++++++++++++++++++++++++++++++++++++++++..............      ",
"                                                                                                                                                                                                                                                                                                               .......#####################++++++++++++++++++++++++++++++++++++++++++++++++++++++++++++++++++++++##########################################+++++++..............++++++++++++++..............#######++++++++++++++++++++++++++++++++++++++++++..............      ",
"                                                                                                                                                                                                                                                                                                               .......#####################++++++++++++++++++++++++++++++++++++++++++++++++++++++++++++++++++++++##########################################+++++++..............++++++++++++++..............#######++++++++++++++++++++++++++++++++++++++++++..............      ",
"                                                                                                                                                                                                                                                                                                               .......#####################++++++++++++++++++++++++++++++++++++++++++++++++++++++++++++++++++++++##########################################+++++++..............++++++++++++++..............#######++++++++++++++++++++++++++++++++++++++++++..............      ",
"                                                                                                                                                                                                                                                                                                               .......#####################++++++++++++++++++++++++++++++++++++++++++++++++++++++++++++++++++++++##########################################+++++++..............++++++++++++++..............#######++++++++++++++++++++++++++++++++++++++++++..............      ",
"                                                                                                                                                                                                                                                                                                               .......#####################++++++++++++++++++++++++++++++++++++++++++++++++++++++++++++++++++++++##########################################+++++++..............++++++++++++++..............#######++++++++++++++++++++++++++++++++++++++++++..............      ",
"                                                                                                                                                                                                                                                                                                               .......#####################++++++++++++++++++++++++++++++++++++++++++++++++++++++++++++++++++++++##########################################+++++++..............++++++++++++++..............#######++++++++++++++++++++++++++++++++++++++++++..............      ",
"                                                                                                                                                                                                                                                                                                               .......#####################++++++++++++++++++++++++++++++++++++++++++++++++++++++++++++++++++++++##########################################++++++++++++++............................#######++++++++++++++++++++++++++++++++++++++++++..............             ",
"                                                                                                                                                                                                                                                                                                               .......#####################++++++++++++++++++++++++++++++++++++++++++++++++++++++++++++++++++++++##########################################++++++++++++++............................#######++++++++++++++++++++++++++++++++++++++++++..............             ",
"                                                                                                                                                                                                                                                                                                               .......#####################++++++++++++++++++++++++++++++++++++++++++++++++++++++++++++++++++++++##########################################++++++++++++++............................#######++++++++++++++++++++++++++++++++++++++++++..............             ",
"                                                                                                                                                                                                                                                                                                               .......#####################++++++++++++++++++++++++++++++++++++++++++++++++++++++++++++++++++++++##########################################++++++++++++++............................#######++++++++++++++++++++++++++++++++++++++++++..............             ",
"                                                                                                                                                                                                                                                                                                               .......#####################++++++++++++++++++++++++++++++++++++++++++++++++++++++++++++++++++++++##########################################++++++++++++++............................#######++++++++++++++++++++++++++++++++++++++++++..............             ",
"                                                                                                                                                                                                                                                                                                               .......#####################++++++++++++++++++++++++++++++++++++++++++++++++++++++++++++++++++++++##########################################++++++++++++++............................#######++++++++++++++++++++++++++++++++++++++++++..............             ",
"                                                                                                                                                                                                                                                                                                               .......#####################++++++++++++++++++++++++++++++++++++++++++++++++++++++++++++++++++++++##########################################++++++++++++++............................#######++++++++++++++++++++++++++++++++++++++++++..............             ",
"                                                                                                                                                                                                                                                                                                               .......############################+++++++++++++++++++++++++++++++++++++++++++++++++++++++++++++++##########################################+++++++++++++++++++++..............#######+++++++++++++++++++++++++++++++++++..............#######.......             ",
"                                                                                                                                                                                                                                                                                                               .......############################+++++++++++++++++++++++++++++++++++++++++++++++++++++++++++++++##########################################+++++++++++++++++++++..............#######+++++++++++++++++++++++++++++++++++..............#######.......             ",
"                                                                                                                                                                                                                                                                                                               .......############################+++++++++++++++++++++++++++++++++++++++++++++++++++++++++++++++##########################################+++++++++++++++++++++..............#######+++++++++++++++++++++++++++++++++++..............#######.......             ",
"                                                                                                                                                                                                                                                                                                               .......############################+++++++++++++++++++++++++++++++++++++++++++++++++++++++++++++++##########################################+++++++++++++++++++++..............#######+++++++++++++++++++++++++++++++++++..............#######.......             ",
"                                                                                                                                                                                                                                                                                                               .......############################+++++++++++++++++++++++++++++++++++++++++++++++++++++++++++++++##########################################+++++++++++++++++++++..............#######+++++++++++++++++++++++++++++++++++..............#######.......             ",
"                                                                                                                                                                                                                                                                                                               .......############################+++++++++++++++++++++++++++++++++++++++++++++++++++++++++++++++##########################################+++++++++++++++++++++..............#######+++++++++++++++++++++++++++++++++++..............#######.......             ",
"                                                                                                                                                                                                                                                                                                               .......############################+++++++++++++++++++++++++++++++++++++++++++++++++++++++++++++++##########################################+++++++++++++++++++++..............#######+++++++++++++++++++++++++++++++++++..............#######.......             ",
"                                                                                                                                                                                                                                                                                                        .......##########################################+++++++++++++++++++++++++++++++++++++++++++++++++###################################@@@@@@@+++++++++++++++++++++++++++++++++++.......+++++++++++++++++++++++++++++++++++..............#######.......                    ",
"                                                                                                                                                                                                                                                                                                        .......##########################################+++++++++++++++++++++++++++++++++++++++++++++++++###################################@@@@@@@+++++++++++++++++++++++++++++++++++.......+++++++++++++++++++++++++++++++++++..............#######.......                    ",
"                                                                                                                                                                                                                                                                                                        .......##########################################+++++++++++++++++++++++++++++++++++++++++++++++++###################################@@@@@@@+++++++++++++++++++++++++++++++++++.......+++++++++++++++++++++++++++++++++++..............#######.......                    ",
"                                                                                                                                                                                                                                                                                                        .......##########################################+++++++++++++++++++++++++++++++++++++++++++++++++###################################@@@@@@@+++++++++++++++++++++++++++++++++++.......+++++++++++++++++++++++++++++++++++..............#######.......                    ",
"                                                                                                                                                                                                                                                                                                        .......##########################################+++++++++++++++++++++++++++++++++++++++++++++++++###################################@@@@@@@+++++++++++++++++++++++++++++++++++.......+++++++++++++++++++++++++++++++++++..............#######.......                    ",
"                                                                                                                                                                                                                                                                                                        .......##########################################+++++++++++++++++++++++++++++++++++++++++++++++++###################################@@@@@@@+++++++++++++++++++++++++++++++++++.......+++++++++++++++++++++++++++++++++++..............#######.......                    ",
"                                                                                                                                                                                                                                                                                                        .......##########################################+++++++++++++++++++++++++++++++++++++++++++++++++###################################@@@@@@@+++++++++++++++++++++++++++++++++++.......+++++++++++++++++++++++++++++++++++..............#######.......                    ",
"                                                                                                                                                                                                                                                                                                        .......#######@@@@@@@@@@@@@@###########################################################################################@@@@@@@@@@@@@@+++++++++++++++++++++++++++++++++++++++++++++++++.......+++++++++++++++++++++.......##############..............                    ",
"                                                                                                                                                                                                                                                                                                        .......#######@@@@@@@@@@@@@@###########################################################################################@@@@@@@@@@@@@@+++++++++++++++++++++++++++++++++++++++++++++++++.......+++++++++++++++++++++.......##############..............                    ",
"                                                                                                                                                                                                                                                                                                        .......#######@@@@@@@@@@@@@@###########################################################################################@@@@@@@@@@@@@@+++++++++++++++++++++++++++++++++++++++++++++++++.......+++++++++++++++++++++.......##############..............                    ",
"                                                                                                                                                                                                                                                                                                        .......#######@@@@@@@@@@@@@@###########################################################################################@@@@@@@@@@@@@@+++++++++++++++++++++++++++++++++++++++++++++++++.......+++++++++++++++++++++.......##############..............                    ",
"                                                                                                                                                                                                                                                                                                        .......#######@@@@@@@@@@@@@@###########################################################################################@@@@@@@@@@@@@@+++++++++++++++++++++++++++++++++++++++++++++++++.......+++++++++++++++++++++.......##############..............                    ",
"                                                                                                                                                                                                                                                                                                        .......#######@@@@@@@@@@@@@@###########################################################################################@@@@@@@@@@@@@@+++++++++++++++++++++++++++++++++++++++++++++++++.......+++++++++++++++++++++.......##############..............                    ",
"                                                                                                                                                                                                                                                                                                        .......#######@@@@@@@@@@@@@@###########################################################################################@@@@@@@@@@@@@@+++++++++++++++++++++++++++++++++++++++++++++++++.......+++++++++++++++++++++.......##############..............                    ",
"                                                                                                                                                                                                                                                                                                 .......##############++++++++++++++@@@@@@@@@@@@@@@@@@@@@###############################################################@@@@@@@++++++++++++++++++++++++++++++++++++++++++++++++++++++++++++++++++++++.....................##############.......                                  ",
"                                                                                                                                                                                                                                                                                                 .......##############++++++++++++++@@@@@@@@@@@@@@@@@@@@@###############################################################@@@@@@@++++++++++++++++++++++++++++++++++++++++++++++++++++++++++++++++++++++.....................##############.......                                  ",
"                                                                                                                                                                                                                                                                                                 .......##############++++++++++++++@@@@@@@@@@@@@@@@@@@@@###############################################################@@@@@@@++++++++++++++++++++++++++++++++++++++++++++++++++++++++++++++++++++++.....................##############.......                                  ",
"                                                                                                                                                                                                                                                                                                 .......##############++++++++++++++@@@@@@@@@@@@@@@@@@@@@###############################################################@@@@@@@++++++++++++++++++++++++++++++++++++++++++++++++++++++++++++++++++++++.....................##############.......                                  ",
"                                                                                                                                                                                                                                                                                                 .......##############++++++++++++++@@@@@@@@@@@@@@@@@@@@@###############################################################@@@@@@@++++++++++++++++++++++++++++++++++++++++++++++++++++++++++++++++++++++.....................##############.......                                  ",
"                                                                                                                                                                                                                                                                                                 .......##############++++++++++++++@@@@@@@@@@@@@@@@@@@@@###############################################################@@@@@@@++++++++++++++++++++++++++++++++++++++++++++++++++++++++++++++++++++++.....................##############.......                                  ",
"                                                                                                                                                                                                                                                                                                 .......##############++++++++++++++@@@@@@@@@@@@@@@@@@@@@###############################################################@@@@@@@++++++++++++++++++++++++++++++++++++++++++++++++++++++++++++++++++++++.....................##############.......                                  ",
"                                                                                                                                                                                                                                                                                                 .......##############+++++++++++++++++++++++++++++++++++@@@@@@@@@@@@@@@@@@@@@###################################@@@@@@@+++++++++++++++++++++++++++++++++++++++++++++++++++++++++++++++++++++++++++++++++++++++++++#####################.......                                  ",
"                                                                                                                                                                                                                                                                                                 .......##############+++++++++++++++++++++++++++++++++++@@@@@@@@@@@@@@@@@@@@@###################################@@@@@@@+++++++++++++++++++++++++++++++++++++++++++++++++++++++++++++++++++++++++++++++++++++++++++#####################.......                                  ",
"                                                                                                                                                                                                                                                                                                 .......##############+++++++++++++++++++++++++++++++++++@@@@@@@@@@@@@@@@@@@@@###################################@@@@@@@+++++++++++++++++++++++++++++++++++++++++++++++++++++++++++++++++++++++++++++++++++++++++++#####################.......                                  ",
"                                                                                                                                                                                                                                                                                                 .......##############+++++++++++++++++++++++++++++++++++@@@@@@@@@@@@@@@@@@@@@###################################@@@@@@@+++++++++++++++++++++++++++++++++++++++++++++++++++++++++++++++++++++++++++++++++++++++++++#####################.......                                  ",
"                                                                                                                                                                                                                                                                                                 .......##############+++++++++++++++++++++++++++++++++++@@@@@@@@@@@@@@@@@@@@@###################################@@@@@@@+++++++++++++++++++++++++++++++++++++++++++++++++++++++++++++++++++++++++++++++++++++++++++#####################.......                                  ",
"                                                                                                                                                                                                                                                                                                 .......##############+++++++++++++++++++++++++++++++++++@@@@@@@@@@@@@@@@@@@@@###################################@@@@@@@+++++++++++++++++++++++++++++++++++++++++++++++++++++++++++++++++++++++++++++++++++++++++++#####################.......                                  ",
"                                                                                                                                                                                                                                                                                                 .......##############+++++++++++++++++++++++++++++++++++@@@@@@@@@@@@@@@@@@@@@###################################@@@@@@@+++++++++++++++++++++++++++++++++++++++++++++++++++++++++++++++++++++++++++++++++++++++++++#####################.......                                  ",
"                                                                                                                                                                                                                                                                                          .......##############+++++++++++++++++++++++++++++++++++++++++++++++++++++++++++++++@@@@@@@@@@@@@@@@@@@@@@@@@@@@@@@@@@@+++++++++++++++++++++++++++++++++++++++++++++++++++++++++++++++++++++++++++++++++++++++++++#####################.......                                         ",
"                                                                                                                                                                                                                                                                                          .......##############+++++++++++++++++++++++++++++++++++++++++++++++++++++++++++++++@@@@@@@@@@@@@@@@@@@@@@@@@@@@@@@@@@@+++++++++++++++++++++++++++++++++++++++++++++++++++++++++++++++++++++++++++++++++++++++++++#####################.......                                         ",
"                                                                                                                                                                                                                                                                                          .......##############+++++++++++++++++++++++++++++++++++++++++++++++++++++++++++++++@@@@@@@@@@@@@@@@@@@@@@@@@@@@@@@@@@@+++++++++++++++++++++++++++++++++++++++++++++++++++++++++++++++++++++++++++++++++++++++++++#####################.......                                         ",
"                                                                                                                                                                                                                                                                                          .......##############+++++++++++++++++++++++++++++++++++++++++++++++++++++++++++++++@@@@@@@@@@@@@@@@@@@@@@@@@@@@@@@@@@@+++++++++++++++++++++++++++++++++++++++++++++++++++++++++++++++++++++++++++++++++++++++++++#####################.......                                         ",
"                                                                                                                                                                                                                                                                                          .......##############+++++++++++++++++++++++++++++++++++++++++++++++++++++++++++++++@@@@@@@@@@@@@@@@@@@@@@@@@@@@@@@@@@@+++++++++++++++++++++++++++++++++++++++++++++++++++++++++++++++++++++++++++++++++++++++++++#####################.......                                         ",
"                                                                                                                                                                                                                                                                                          .......##############+++++++++++++++++++++++++++++++++++++++++++++++++++++++++++++++@@@@@@@@@@@@@@@@@@@@@@@@@@@@@@@@@@@+++++++++++++++++++++++++++++++++++++++++++++++++++++++++++++++++++++++++++++++++++++++++++#####################.......                                         ",
"                                                                                                                                                                                                                                                                                          .......##############+++++++++++++++++++++++++++++++++++++++++++++++++++++++++++++++@@@@@@@@@@@@@@@@@@@@@@@@@@@@@@@@@@@+++++++++++++++++++++++++++++++++++++++++++++++++++++++++++++++++++++++++++++++++++++++++++#####################.......                                         ",
"                                                                                                                                                                                                                                                                                          .......##############+++++++++++++++++++++++++++++++++++++++++++++++++++++++++++++++++++++++++++++++++++++++++++++++++++++++++++++++++++++++++++++++++++++++++++++++++++++++++++++++++++++++++++++++++++++++++++++##############.......                                                ",
"                                                                                                                                                                                                                                                                                          .......##############+++++++++++++++++++++++++++++++++++++++++++++++++++++++++++++++++++++++++++++++++++++++++++++++++++++++++++++++++++++++++++++++++++++++++++++++++++++++++++++++++++++++++++++++++++++++++++++##############.......                                                ",
"                                                                                                                                                                                                                                                                                          .......##############+++++++++++++++++++++++++++++++++++++++++++++++++++++++++++++++++++++++++++++++++++++++++++++++++++++++++++++++++++++++++++++++++++++++++++++++++++++++++++++++++++++++++++++++++++++++++++++##############.......                                                ",
"                                                                                                                                                                                                                                                                                          .......##############+++++++++++++++++++++++++++++++++++++++++++++++++++++++++++++++++++++++++++++++++++++++++++++++++++++++++++++++++++++++++++++++++++++++++++++++++++++++++++++++++++++++++++++++++++++++++++++##############.......                                                ",
"                                                                                                                                                                                                                                                                                          .......##############+++++++++++++++++++++++++++++++++++++++++++++++++++++++++++++++++++++++++++++++++++++++++++++++++++++++++++++++++++++++++++++++++++++++++++++++++++++++++++++++++++++++++++++++++++++++++++++##############.......                                                ",
"                                                                                                                                                                                                                                                                                          .......##############+++++++++++++++++++++++++++++++++++++++++++++++++++++++++++++++++++++++++++++++++++++++++++++++++++++++++++++++++++++++++++++++++++++++++++++++++++++++++++++++++++++++++++++++++++++++++++++##############.......                                                ",
"                                                                                                                                                                                                                                                                                          .......##############+++++++++++++++++++++++++++++++++++++++++++++++++++++++++++++++++++++++++++++++++++++++++++++++++++++++++++++++++++++++++++++++++++++++++++++++++++++++++++++++++++++++++++++++++++++++++++++##############.......                                                ",
"                                                                                                                                                                                                                                                                                   .......#####################++++++++++++++++++++++++++++++++++++++++++++++++++++++++++++++++++++++++++++++++++++++++++++++++++++++++++++++++++++++++++++++++++++++++++++++++++++++++++++++++++++++++++++++++++++++##############..............                                                ",
"                                                                                                                                                                                                                                                                                   .......#####################++++++++++++++++++++++++++++++++++++++++++++++++++++++++++++++++++++++++++++++++++++++++++++++++++++++++++++++++++++++++++++++++++++++++++++++++++++++++++++++++++++++++++++++++++++++##############..............                                                ",
"                                                                                                                                                                                                                                                                                   .......#####################++++++++++++++++++++++++++++++++++++++++++++++++++++++++++++++++++++++++++++++++++++++++++++++++++++++++++++++++++++++++++++++++++++++++++++++++++++++++++++++++++++++++++++++++++++++##############..............                                                ",
"                                                                                                                                                                                                                                                                                   .......#####################++++++++++++++++++++++++++++++++++++++++++++++++++++++++++++++++++++++++++++++++++++++++++++++++++++++++++++++++++++++++++++++++++++++++++++++++++++++++++++++++++++++++++++++++++++++##############..............                                                ",
"                                                                                                                                                                                                                                                                                   .......#####################++++++++++++++++++++++++++++++++++++++++++++++++++++++++++++++++++++++++++++++++++++++++++++++++++++++++++++++++++++++++++++++++++++++++++++++++++++++++++++++++++++++++++++++++++++++##############..............                                                ",
"                                                                                                                                                                                                                                                                                   .......#####################++++++++++++++++++++++++++++++++++++++++++++++++++++++++++++++++++++++++++++++++++++++++++++++++++++++++++++++++++++++++++++++++++++++++++++++++++++++++++++++++++++++++++++++++++++++##############..............                                                ",
"                                                                                                                                                                                                                                                                                   .......#####################++++++++++++++++++++++++++++++++++++++++++++++++++++++++++++++++++++++++++++++++++++++++++++++++++++++++++++++++++++++++++++++++++++++++++++++++++++++++++++++++++++++++++++++++++++++##############..............                                                ",
"                                                                                                                                                                                                                                                                            .......#####################++++++++++++++++++++++++++++++++++++++++++++++++++++++++++++++++++++++++++++++++++++++++++++++++++++++++++++++++++++++++++++++++++++++++++++++++++++++++++++++++++++++++++++++++++++++#####################.......                                                       ",
"                                                                                                                                                                                                                                                                            .......#####################++++++++++++++++++++++++++++++++++++++++++++++++++++++++++++++++++++++++++++++++++++++++++++++++++++++++++++++++++++++++++++++++++++++++++++++++++++++++++++++++++++++++++++++++++++++#####################.......                                                       ",
"                                                                                                                                                                                                                                                                            .......#####################++++++++++++++++++++++++++++++++++++++++++++++++++++++++++++++++++++++++++++++++++++++++++++++++++++++++++++++++++++++++++++++++++++++++++++++++++++++++++++++++++++++++++++++++++++++#####################.......                                                       ",
"                                                                                                                                                                                                                                                                            .......#####################++++++++++++++++++++++++++++++++++++++++++++++++++++++++++++++++++++++++++++++++++++++++++++++++++++++++++++++++++++++++++++++++++++++++++++++++++++++++++++++++++++++++++++++++++++++#####################.......                                                       ",
"                                                                                                                                                                                                                                                                            .......#####################++++++++++++++++++++++++++++++++++++++++++++++++++++++++++++++++++++++++++++++++++++++++++++++++++++++++++++++++++++++++++++++++++++++++++++++++++++++++++++++++++++++++++++++++++++++#####################.......                                                       ",
"                                                                                                                                                                                                                                                                            .......#####################++++++++++++++++++++++++++++++++++++++++++++++++++++++++++++++++++++++++++++++++++++++++++++++++++++++++++++++++++++++++++++++++++++++++++++++++++++++++++++++++++++++++++++++++++++++#####################.......                                                       ",
"                                                                                                                                                                                                                                                                            .......#####################++++++++++++++++++++++++++++++++++++++++++++++++++++++++++++++++++++++++++++++++++++++++++++++++++++++++++++++++++++++++++++++++++++++++++++++++++++++++++++++++++++++++++++++++++++++#####################.......                                                       ",
"                                                                                                                                                                                                                                                                     .......#####################++++++++++++++++++++++++++++++++++++++++++++++++++++++++++++++++++++++++++++++++++++++++++++++++++++++++++++++++++++++++++++++++++++++++++++++++++++++++++++++++++++++++++++++++++++++#####################..............                                                       ",
"                                                                                                                                                                                                                                                                     .......#####################++++++++++++++++++++++++++++++++++++++++++++++++++++++++++++++++++++++++++++++++++++++++++++++++++++++++++++++++++++++++++++++++++++++++++++++++++++++++++++++++++++++++++++++++++++++#####################..............                                                       ",
"                                                                                                                                                                                                                                                                     .......#####################++++++++++++++++++++++++++++++++++++++++++++++++++++++++++++++++++++++++++++++++++++++++++++++++++++++++++++++++++++++++++++++++++++++++++++++++++++++++++++++++++++++++++++++++++++++#####################..............                                                       ",
"                                                                                                                                                                                                                                                                     .......#####################++++++++++++++++++++++++++++++++++++++++++++++++++++++++++++++++++++++++++++++++++++++++++++++++++++++++++++++++++++++++++++++++++++++++++++++++++++++++++++++++++++++++++++++++++++++#####################..............                                                       ",
"                                                                                                                                                                                                                                                                     .......#####################++++++++++++++++++++++++++++++++++++++++++++++++++++++++++++++++++++++++++++++++++++++++++++++++++++++++++++++++++++++++++++++++++++++++++++++++++++++++++++++++++++++++++++++++++++++#####################..............                                                       ",
"                                                                                                                                                                                                                                                                     .......#####################++++++++++++++++++++++++++++++++++++++++++++++++++++++++++++++++++++++++++++++++++++++++++++++++++++++++++++++++++++++++++++++++++++++++++++++++++++++++++++++++++++++++++++++++++++++#####################..............                                                       ",
"                                                                                                                                                                                                                                                                     .......#####################++++++++++++++++++++++++++++++++++++++++++++++++++++++++++++++++++++++++++++++++++++++++++++++++++++++++++++++++++++++++++++++++++++++++++++++++++++++++++++++++++++++++++++++++++++++#####################..............                                                       ",
"                                                                                                                                                                                                                                                              .......#####################++++++++++++++++++++++++++++++++++++++++++++++++++++++++++++++++++++++++++++++++++++++++++++++++++++++++++++++++++++++++++++++++++++++++++++++++++++++++++++++++++++++++++++++++++++++#####################.......                                                                     ",
"                                                                                                                                                                                                                                                              .......#####################++++++++++++++++++++++++++++++++++++++++++++++++++++++++++++++++++++++++++++++++++++++++++++++++++++++++++++++++++++++++++++++++++++++++++++++++++++++++++++++++++++++++++++++++++++++#####################.......                                                                     ",
"                                                                                                                                                                                                                                                              .......#####################++++++++++++++++++++++++++++++++++++++++++++++++++++++++++++++++++++++++++++++++++++++++++++++++++++++++++++++++++++++++++++++++++++++++++++++++++++++++++++++++++++++++++++++++++++++#####################.......                                                                     ",
"                                                                                                                                                                                                                                                              .......#####################++++++++++++++++++++++++++++++++++++++++++++++++++++++++++++++++++++++++++++++++++++++++++++++++++++++++++++++++++++++++++++++++++++++++++++++++++++++++++++++++++++++++++++++++++++++#####################.......                                                                     ",
"                                                                                                                                                                                                                                                              .......#####################++++++++++++++++++++++++++++++++++++++++++++++++++++++++++++++++++++++++++++++++++++++++++++++++++++++++++++++++++++++++++++++++++++++++++++++++++++++++++++++++++++++++++++++++++++++#####################.......                                                                     ",
"                                                                                                                                                                                                                                                              .......#####################++++++++++++++++++++++++++++++++++++++++++++++++++++++++++++++++++++++++++++++++++++++++++++++++++++++++++++++++++++++++++++++++++++++++++++++++++++++++++++++++++++++++++++++++++++++#####################.......                                                                     ",
"                                                                                                                                                                                                                                                              .......#####################++++++++++++++++++++++++++++++++++++++++++++++++++++++++++++++++++++++++++++++++++++++++++++++++++++++++++++++++++++++++++++++++++++++++++++++++++++++++++++++++++++++++++++++++++++++#####################.......                                                                     ",
"                                                                                                                                                                                                                                                       .......#####################+++++++++++++++++++++++++++++++++++++++++++++++++++++++++++++++++++++++++++++++++++++++++++++++++++++++++++++++++++++++++++++++++++++.......+++++++++++++++++++++++++++++++++++############################.......                                                                            ",
"                                                                                                                                                                                                                                                       .......#####################+++++++++++++++++++++++++++++++++++++++++++++++++++++++++++++++++++++++++++++++++++++++++++++++++++++++++++++++++++++++++++++++++++++.......+++++++++++++++++++++++++++++++++++############################.......                                                                            ",
"                                                                                                                                                                                                                                                       .......#####################+++++++++++++++++++++++++++++++++++++++++++++++++++++++++++++++++++++++++++++++++++++++++++++++++++++++++++++++++++++++++++++++++++++.......+++++++++++++++++++++++++++++++++++############################.......                                                                            ",
"                                                                                                                                                                                                                                                       .......#####################+++++++++++++++++++++++++++++++++++++++++++++++++++++++++++++++++++++++++++++++++++++++++++++++++++++++++++++++++++++++++++++++++++++.......+++++++++++++++++++++++++++++++++++############################.......                                                                            ",
"                                                                                                                                                                                                                                                       .......#####################+++++++++++++++++++++++++++++++++++++++++++++++++++++++++++++++++++++++++++++++++++++++++++++++++++++++++++++++++++++++++++++++++++++.......+++++++++++++++++++++++++++++++++++############################.......                                                                            ",
"                                                                                                                                                                                                                                                       .......#####################+++++++++++++++++++++++++++++++++++++++++++++++++++++++++++++++++++++++++++++++++++++++++++++++++++++++++++++++++++++++++++++++++++++.......+++++++++++++++++++++++++++++++++++############################.......                                                                            ",
"                                                                                                                                                                                                                                                       .......#####################+++++++++++++++++++++++++++++++++++++++++++++++++++++++++++++++++++++++++++++++++++++++++++++++++++++++++++++++++++++++++++++++++++++.......+++++++++++++++++++++++++++++++++++############################.......                                                                            ",
"                                                                                                                                                                                                                                                .......#####################++++++++++++++++++++++++++++++++++++++++++++++++++++++++++++++++++++++++++++++++++++++++++++++++++++++++++++++++++++++++++++++++++++++++++++#######.......++++++++++++++############################..............                                                                                   ",
"                                                                                                                                                                                                                                                .......#####################++++++++++++++++++++++++++++++++++++++++++++++++++++++++++++++++++++++++++++++++++++++++++++++++++++++++++++++++++++++++++++++++++++++++++++#######.......++++++++++++++############################..............                                                                                   ",
"                                                                                                                                                                                                                                                .......#####################++++++++++++++++++++++++++++++++++++++++++++++++++++++++++++++++++++++++++++++++++++++++++++++++++++++++++++++++++++++++++++++++++++++++++++#######.......++++++++++++++############################..............                                                                                   ",
"                                                                                                                                                                                                                                                .......#####################++++++++++++++++++++++++++++++++++++++++++++++++++++++++++++++++++++++++++++++++++++++++++++++++++++++++++++++++++++++++++++++++++++++++++++#######.......++++++++++++++############################..............                                                                                   ",
"                                                                                                                                                                                                                                                .......#####################++++++++++++++++++++++++++++++++++++++++++++++++++++++++++++++++++++++++++++++++++++++++++++++++++++++++++++++++++++++++++++++++++++++++++++#######.......++++++++++++++############################..............                                                                                   ",
"                                                                                                                                                                                                                                                .......#####################++++++++++++++++++++++++++++++++++++++++++++++++++++++++++++++++++++++++++++++++++++++++++++++++++++++++++++++++++++++++++++++++++++++++++++#######.......++++++++++++++############################..............                                                                                   ",
"                                                                                                                                                                                                                                                .......#####################++++++++++++++++++++++++++++++++++++++++++++++++++++++++++++++++++++++++++++++++++++++++++++++++++++++++++++++++++++++++++++++++++++++++++++#######.......++++++++++++++############################..............                                                                                   ",
"                                                                                                                                                                                                                                         .......#####################+++++++++++++++++++++++++++++++++++++++++++++++++++++++++++++++++++++++++++++++++++++++++++++++++++++++++++++++++++++++++++++++++++++++++++++++++++##############.......#####################..............                                                                                                 ",
"                                                                                                                                                                                                                                         .......#####################+++++++++++++++++++++++++++++++++++++++++++++++++++++++++++++++++++++++++++++++++++++++++++++++++++++++++++++++++++++++++++++++++++++++++++++++++++##############.......#####################..............                                                                                                 ",
"                                                                                                                                                                                                                                         .......#####################+++++++++++++++++++++++++++++++++++++++++++++++++++++++++++++++++++++++++++++++++++++++++++++++++++++++++++++++++++++++++++++++++++++++++++++++++++##############.......#####################..............                                                                                                 ",
"                                                                                                                                                                                                                                         .......#####################+++++++++++++++++++++++++++++++++++++++++++++++++++++++++++++++++++++++++++++++++++++++++++++++++++++++++++++++++++++++++++++++++++++++++++++++++++##############.......#####################..............                                                                                                 ",
"                                                                                                                                                                                                                                         .......#####################+++++++++++++++++++++++++++++++++++++++++++++++++++++++++++++++++++++++++++++++++++++++++++++++++++++++++++++++++++++++++++++++++++++++++++++++++++##############.......#####################..............                                                                                                 ",
"                                                                                                                                                                                                                                         .......#####################+++++++++++++++++++++++++++++++++++++++++++++++++++++++++++++++++++++++++++++++++++++++++++++++++++++++++++++++++++++++++++++++++++++++++++++++++++##############.......#####################..............                                                                                                 ",
"                                                                                                                                                                                                                                         .......#####################+++++++++++++++++++++++++++++++++++++++++++++++++++++++++++++++++++++++++++++++++++++++++++++++++++++++++++++++++++++++++++++++++++++++++++++++++++##############.......#####################..............                                                                                                 ",
"                                                                                                                                                                                                                                  .......#####################++++++++++++++++++++++++++++++++++++++++++++++++++++++++++++++++++++++++++++++++++++++++++++++++++++++++++++++++++++++++++++++++++++++++++++++++++++++++++#####################.....................                                                                                                               ",
"                                                                                                                                                                                                                                  .......#####################++++++++++++++++++++++++++++++++++++++++++++++++++++++++++++++++++++++++++++++++++++++++++++++++++++++++++++++++++++++++++++++++++++++++++++++++++++++++++#####################.....................                                                                                                               ",
"                                                                                                                                                                                                                                  .......#####################++++++++++++++++++++++++++++++++++++++++++++++++++++++++++++++++++++++++++++++++++++++++++++++++++++++++++++++++++++++++++++++++++++++++++++++++++++++++++#####################.....................                                                                                                               ",
"                                                                                                                                                                                                                                  .......#####################++++++++++++++++++++++++++++++++++++++++++++++++++++++++++++++++++++++++++++++++++++++++++++++++++++++++++++++++++++++++++++++++++++++++++++++++++++++++++#####################.....................                                                                                                               ",
"                                                                                                                                                                                                                                  .......#####################++++++++++++++++++++++++++++++++++++++++++++++++++++++++++++++++++++++++++++++++++++++++++++++++++++++++++++++++++++++++++++++++++++++++++++++++++++++++++#####################.....................                                                                                                               ",
"                                                                                                                                                                                                                                  .......#####################++++++++++++++++++++++++++++++++++++++++++++++++++++++++++++++++++++++++++++++++++++++++++++++++++++++++++++++++++++++++++++++++++++++++++++++++++++++++++#####################.....................                                                                                                               ",
"                                                                                                                                                                                                                                  .......#####################++++++++++++++++++++++++++++++++++++++++++++++++++++++++++++++++++++++++++++++++++++++++++++++++++++++++++++++++++++++++++++++++++++++++++++++++++++++++++#####################.....................                                                                                                               ",
"                                                                                                                                                                                                                           .......#####################+++++++++++++++++++++++++++++++++++++++++++++++++++++++++++++++++++++++++++++++++++++++++++++++++++++++++++++++++++++++++++++++++++++++++++++++++++++++++++++++++#####################.......                                                                                                                             ",
"                                                                                                                                                                                                                           .......#####################+++++++++++++++++++++++++++++++++++++++++++++++++++++++++++++++++++++++++++++++++++++++++++++++++++++++++++++++++++++++++++++++++++++++++++++++++++++++++++++++++#####################.......                                                                                                                             ",
"                                                                                                                                                                                                                           .......#####################+++++++++++++++++++++++++++++++++++++++++++++++++++++++++++++++++++++++++++++++++++++++++++++++++++++++++++++++++++++++++++++++++++++++++++++++++++++++++++++++++#####################.......                                                                                                                             ",
"                                                                                                                                                                                                                           .......#####################+++++++++++++++++++++++++++++++++++++++++++++++++++++++++++++++++++++++++++++++++++++++++++++++++++++++++++++++++++++++++++++++++++++++++++++++++++++++++++++++++#####################.......                                                                                                                             ",
"                                                                                                                                                                                                                           .......#####################+++++++++++++++++++++++++++++++++++++++++++++++++++++++++++++++++++++++++++++++++++++++++++++++++++++++++++++++++++++++++++++++++++++++++++++++++++++++++++++++++#####################.......                                                                                                                             ",
"                                                                                                                                                                                                                           .......#####################+++++++++++++++++++++++++++++++++++++++++++++++++++++++++++++++++++++++++++++++++++++++++++++++++++++++++++++++++++++++++++++++++++++++++++++++++++++++++++++++++#####################.......                                                                                                                             ",
"                                                                                                                                                                                                                           .......#####################+++++++++++++++++++++++++++++++++++++++++++++++++++++++++++++++++++++++++++++++++++++++++++++++++++++++++++++++++++++++++++++++++++++++++++++++++++++++++++++++++#####################.......                                                                                                                             ",
"                                                                                                                                                                                                                    .......#####################+++++++++++++++++++++++++++++++++++++++++++++++++++++++++++++++++++++++++++++++++++++++++++++++++++++++++++++++++++++++++++++++++++++++++++++++++++++++++++++++++#####################..............                                                                                                                             ",
"                                                                                                                                                                                                                    .......#####################+++++++++++++++++++++++++++++++++++++++++++++++++++++++++++++++++++++++++++++++++++++++++++++++++++++++++++++++++++++++++++++++++++++++++++++++++++++++++++++++++#####################..............                                                                                                                             ",
"                                                                                                                                                                                                                    .......#####################+++++++++++++++++++++++++++++++++++++++++++++++++++++++++++++++++++++++++++++++++++++++++++++++++++++++++++++++++++++++++++++++++++++++++++++++++++++++++++++++++#####################..............                                                                                                                             ",
"                                                                                                                                                                                                                    .......#####################+++++++++++++++++++++++++++++++++++++++++++++++++++++++++++++++++++++++++++++++++++++++++++++++++++++++++++++++++++++++++++++++++++++++++++++++++++++++++++++++++#####################..............                                                                                                                             ",
"                                                                                                                                                                                                                    .......#####################+++++++++++++++++++++++++++++++++++++++++++++++++++++++++++++++++++++++++++++++++++++++++++++++++++++++++++++++++++++++++++++++++++++++++++++++++++++++++++++++++#####################..............                                                                                                                             ",
"                                                                                                                                                                                                                    .......#####################+++++++++++++++++++++++++++++++++++++++++++++++++++++++++++++++++++++++++++++++++++++++++++++++++++++++++++++++++++++++++++++++++++++++++++++++++++++++++++++++++#####################..............                                                                                                                             ",
"                                                                                                                                                                                                                    .......#####################+++++++++++++++++++++++++++++++++++++++++++++++++++++++++++++++++++++++++++++++++++++++++++++++++++++++++++++++++++++++++++++++++++++++++++++++++++++++++++++++++#####################..............                                                                                                                             ",
"                                                                                                                                                                                                             .......#####################+++++++++++++++++++++++++++++++++++++++++++++++++++++++++++++++++++++++++++++++++++++++++++++++++++++++++++++++++++++++++++++++++++++++++++++++++++++++++++++++++############################.......                                                                                                                                    ",
"                                                                                                                                                                                                             .......#####################+++++++++++++++++++++++++++++++++++++++++++++++++++++++++++++++++++++++++++++++++++++++++++++++++++++++++++++++++++++++++++++++++++++++++++++++++++++++++++++++++############################.......                                                                                                                                    ",
"                                                                                                                                                                                                             .......#####################+++++++++++++++++++++++++++++++++++++++++++++++++++++++++++++++++++++++++++++++++++++++++++++++++++++++++++++++++++++++++++++++++++++++++++++++++++++++++++++++++############################.......                                                                                                                                    ",
"                                                                                                                                                                                                             .......#####################+++++++++++++++++++++++++++++++++++++++++++++++++++++++++++++++++++++++++++++++++++++++++++++++++++++++++++++++++++++++++++++++++++++++++++++++++++++++++++++++++############################.......                                                                                                                                    ",
"                                                                                                                                                                                                             .......#####################+++++++++++++++++++++++++++++++++++++++++++++++++++++++++++++++++++++++++++++++++++++++++++++++++++++++++++++++++++++++++++++++++++++++++++++++++++++++++++++++++############################.......                                                                                                                                    ",
"                                                                                                                                                                                                             .......#####################+++++++++++++++++++++++++++++++++++++++++++++++++++++++++++++++++++++++++++++++++++++++++++++++++++++++++++++++++++++++++++++++++++++++++++++++++++++++++++++++++############################.......                                                                                                                                    ",
"                                                                                                                                                                                                             .......#####################+++++++++++++++++++++++++++++++++++++++++++++++++++++++++++++++++++++++++++++++++++++++++++++++++++++++++++++++++++++++++++++++++++++++++++++++++++++++++++++++++############################.......                                                                                                                                    ",
"                                                                                                                                                                                                      .......#####################++++++++++++++++++++++++++++++++++++++++++++++++++++++++++++++++++++++++++++++++++++++++++++++++++++++++++++++++++++++++++++++++++++++++++++++++++++++++++++++++++++++++#####################..............                                                                                                                                    ",
"                                                                                                                                                                                                      .......#####################++++++++++++++++++++++++++++++++++++++++++++++++++++++++++++++++++++++++++++++++++++++++++++++++++++++++++++++++++++++++++++++++++++++++++++++++++++++++++++++++++++++++#####################..............                                                                                                                                    ",
"                                                                                                                                                                                                      .......#####################++++++++++++++++++++++++++++++++++++++++++++++++++++++++++++++++++++++++++++++++++++++++++++++++++++++++++++++++++++++++++++++++++++++++++++++++++++++++++++++++++++++++#####################..............                                                                                                                                    ",
"                                                                                                                                                                                                      .......#####################++++++++++++++++++++++++++++++++++++++++++++++++++++++++++++++++++++++++++++++++++++++++++++++++++++++++++++++++++++++++++++++++++++++++++++++++++++++++++++++++++++++++#####################..............                                                                                                                                    ",
"                                                                                                                                                                                                      .......#####################++++++++++++++++++++++++++++++++++++++++++++++++++++++++++++++++++++++++++++++++++++++++++++++++++++++++++++++++++++++++++++++++++++++++++++++++++++++++++++++++++++++++#####################..............                                                                                                                                    ",
"                                                                                                                                                                                                      .......#####################++++++++++++++++++++++++++++++++++++++++++++++++++++++++++++++++++++++++++++++++++++++++++++++++++++++++++++++++++++++++++++++++++++++++++++++++++++++++++++++++++++++++#####################..............                                                                                                                                    ",
"                                                                                                                                                                                                      .......#####################++++++++++++++++++++++++++++++++++++++++++++++++++++++++++++++++++++++++++++++++++++++++++++++++++++++++++++++++++++++++++++++++++++++++++++++++++++++++++++++++++++++++#####################..............                                                                                                                                    ",
"                                                                                                                                                                                               .......##############++++++++++++++++++++++++++++++++++++++++++++++++++++++++++++++++++++++++++++++++++++++++++++++++++++++++++++++++++++++++++++++++++++++++++++++++++++++++++++++++++++++++++++++++++++++#####################.......                                                                                                                                           ",
"                                                                                                                                                                                               .......##############++++++++++++++++++++++++++++++++++++++++++++++++++++++++++++++++++++++++++++++++++++++++++++++++++++++++++++++++++++++++++++++++++++++++++++++++++++++++++++++++++++++++++++++++++++++#####################.......                                                                                                                                           ",
"                                                                                                                                                                                               .......##############++++++++++++++++++++++++++++++++++++++++++++++++++++++++++++++++++++++++++++++++++++++++++++++++++++++++++++++++++++++++++++++++++++++++++++++++++++++++++++++++++++++++++++++++++++++#####################.......                                                                                                                                           ",
"                                                                                                                                                                                               .......##############++++++++++++++++++++++++++++++++++++++++++++++++++++++++++++++++++++++++++++++++++++++++++++++++++++++++++++++++++++++++++++++++++++++++++++++++++++++++++++++++++++++++++++++++++++++#####################.......                                                                                                                                           ",
"                                                                                                                                                                                               .......##############++++++++++++++++++++++++++++++++++++++++++++++++++++++++++++++++++++++++++++++++++++++++++++++++++++++++++++++++++++++++++++++++++++++++++++++++++++++++++++++++++++++++++++++++++++++#####################.......                                                                                                                                           ",
"                                                                                                                                                                                               .......##############++++++++++++++++++++++++++++++++++++++++++++++++++++++++++++++++++++++++++++++++++++++++++++++++++++++++++++++++++++++++++++++++++++++++++++++++++++++++++++++++++++++++++++++++++++++#####################.......                                                                                                                                           ",
"                                                                                                                                                                                               .......##############++++++++++++++++++++++++++++++++++++++++++++++++++++++++++++++++++++++++++++++++++++++++++++++++++++++++++++++++++++++++++++++++++++++++++++++++++++++++++++++++++++++++++++++++++++++#####################.......                                                                                                                                           ",
"                                                                                                                                                                                        .......##############++++++++++++++++++++++++++++++++++++++++++++++++++++++++++++++++++++++++++++++++++++++++++++++++++++++++++++++++++++++++++++++++++++++++++++++++++++++++++++++++++++++++++++++++++++++#####################.......                                                                                                                                                  ",
"                                                                                                                                                                                        .......##############++++++++++++++++++++++++++++++++++++++++++++++++++++++++++++++++++++++++++++++++++++++++++++++++++++++++++++++++++++++++++++++++++++++++++++++++++++++++++++++++++++++++++++++++++++++#####################.......                                                                                                                                                  ",
"                                                                                                                                                                                        .......##############++++++++++++++++++++++++++++++++++++++++++++++++++++++++++++++++++++++++++++++++++++++++++++++++++++++++++++++++++++++++++++++++++++++++++++++++++++++++++++++++++++++++++++++++++++++#####################.......                                                                                                                                                  ",
"                                                                                                                                                                                        .......##############++++++++++++++++++++++++++++++++++++++++++++++++++++++++++++++++++++++++++++++++++++++++++++++++++++++++++++++++++++++++++++++++++++++++++++++++++++++++++++++++++++++++++++++++++++++#####################.......                                                                                                                                                  ",
"                                                                                                                                                                                        .......##############++++++++++++++++++++++++++++++++++++++++++++++++++++++++++++++++++++++++++++++++++++++++++++++++++++++++++++++++++++++++++++++++++++++++++++++++++++++++++++++++++++++++++++++++++++++#####################.......                                                                                                                                                  ",
"                                                                                                                                                                                        .......##############++++++++++++++++++++++++++++++++++++++++++++++++++++++++++++++++++++++++++++++++++++++++++++++++++++++++++++++++++++++++++++++++++++++++++++++++++++++++++++++++++++++++++++++++++++++#####################.......                                                                                                                                                  ",
"                                                                                                                                                                                        .......##############++++++++++++++++++++++++++++++++++++++++++++++++++++++++++++++++++++++++++++++++++++++++++++++++++++++++++++++++++++++++++++++++++++++++++++++++++++++++++++++++++++++++++++++++++++++#####################.......                                                                                                                                                  ",
"                                                                                                                                                                                 .......##############+++++++++++++++++++++++++++++++++++++++++++++++++++++++++++++++++++++++++++++++++++++++++++++++++++++++++++++++++++++++++++++++++++++++++++++++++++++++++++++++++++++++++++++++++++++++++++++##############..............                                                                                                                                                  ",
"                                                                                                                                                                                 .......##############+++++++++++++++++++++++++++++++++++++++++++++++++++++++++++++++++++++++++++++++++++++++++++++++++++++++++++++++++++++++++++++++++++++++++++++++++++++++++++++++++++++++++++++++++++++++++++++##############..............                                                                                                                                                  ",
"                                                                                                                                                                                 .......##############+++++++++++++++++++++++++++++++++++++++++++++++++++++++++++++++++++++++++++++++++++++++++++++++++++++++++++++++++++++++++++++++++++++++++++++++++++++++++++++++++++++++++++++++++++++++++++++##############..............                                                                                                                                                  ",
"                                                                                                                                                                                 .......##############+++++++++++++++++++++++++++++++++++++++++++++++++++++++++++++++++++++++++++++++++++++++++++++++++++++++++++++++++++++++++++++++++++++++++++++++++++++++++++++++++++++++++++++++++++++++++++++##############..............                                                                                                                                                  ",
"                                                                                                                                                                                 .......##############+++++++++++++++++++++++++++++++++++++++++++++++++++++++++++++++++++++++++++++++++++++++++++++++++++++++++++++++++++++++++++++++++++++++++++++++++++++++++++++++++++++++++++++++++++++++++++++##############..............                                                                                                                                                  ",
"                                                                                                                                                                                 .......##############+++++++++++++++++++++++++++++++++++++++++++++++++++++++++++++++++++++++++++++++++++++++++++++++++++++++++++++++++++++++++++++++++++++++++++++++++++++++++++++++++++++++++++++++++++++++++++++##############..............                                                                                                                                                  ",
"                                                                                                                                                                                 .......##############+++++++++++++++++++++++++++++++++++++++++++++++++++++++++++++++++++++++++++++++++++++++++++++++++++++++++++++++++++++++++++++++++++++++++++++++++++++++++++++++++++++++++++++++++++++++++++++##############..............                                                                                                                                                  ",
"                                                                                                                                                                          .......##############+++++++++++++++++++++++++++++++++++++++++++++++++++++++++++++++++++++++++++++++++++++++++++++++++++++++++++++++++++++++++++++++++++++++++++++++++++++++++++++++++++++++++++++++++++++++++++++#####################.......                                                                                                                                                         ",
"                                                                                                                                                                          .......##############+++++++++++++++++++++++++++++++++++++++++++++++++++++++++++++++++++++++++++++++++++++++++++++++++++++++++++++++++++++++++++++++++++++++++++++++++++++++++++++++++++++++++++++++++++++++++++++#####################.......                                                                                                                                                         ",
"                                                                                                                                                                          .......##############+++++++++++++++++++++++++++++++++++++++++++++++++++++++++++++++++++++++++++++++++++++++++++++++++++++++++++++++++++++++++++++++++++++++++++++++++++++++++++++++++++++++++++++++++++++++++++++#####################.......                                                                                                                                                         ",
"                                                                                                                                                                          .......##############+++++++++++++++++++++++++++++++++++++++++++++++++++++++++++++++++++++++++++++++++++++++++++++++++++++++++++++++++++++++++++++++++++++++++++++++++++++++++++++++++++++++++++++++++++++++++++++#####################.......                                                                                                                                                         ",
"                                                                                                                                                                          .......##############+++++++++++++++++++++++++++++++++++++++++++++++++++++++++++++++++++++++++++++++++++++++++++++++++++++++++++++++++++++++++++++++++++++++++++++++++++++++++++++++++++++++++++++++++++++++++++++#####################.......                                                                                                                                                         ",
"                                                                                                                                                                          .......##############+++++++++++++++++++++++++++++++++++++++++++++++++++++++++++++++++++++++++++++++++++++++++++++++++++++++++++++++++++++++++++++++++++++++++++++++++++++++++++++++++++++++++++++++++++++++++++++#####################.......                                                                                                                                                         ",
"                                                                                                                                                                          .......##############+++++++++++++++++++++++++++++++++++++++++++++++++++++++++++++++++++++++++++++++++++++++++++++++++++++++++++++++++++++++++++++++++++++++++++++++++++++++++++++++++++++++++++++++++++++++++++++#####################.......                                                                                                                                                         ",
"                                                                                                                                                                   .......##############++++++++++++++++++++++++++++++++++++++++++++++++++++++++++++++++++++++++++++++++++++++++++++++++++++++++++++++++++++++++++++++++++++++++++++++++++++++++++++++++++++++++++++++++++++++++++++++++++++#####################.......                                                                                                                                                         ",
"                                                                                                                                                                   .......##############++++++++++++++++++++++++++++++++++++++++++++++++++++++++++++++++++++++++++++++++++++++++++++++++++++++++++++++++++++++++++++++++++++++++++++++++++++++++++++++++++++++++++++++++++++++++++++++++++++#####################.......                                                                                                                                                         ",
"                                                                                                                                                                   .......##############++++++++++++++++++++++++++++++++++++++++++++++++++++++++++++++++++++++++++++++++++++++++++++++++++++++++++++++++++++++++++++++++++++++++++++++++++++++++++++++++++++++++++++++++++++++++++++++++++++#####################.......                                                                                                                                                         ",
"                                                                                                                                                                   .......##############++++++++++++++++++++++++++++++++++++++++++++++++++++++++++++++++++++++++++++++++++++++++++++++++++++++++++++++++++++++++++++++++++++++++++++++++++++++++++++++++++++++++++++++++++++++++++++++++++++#####################.......                                                                                                                                                         ",
"                                                                                                                                                                   .......##############++++++++++++++++++++++++++++++++++++++++++++++++++++++++++++++++++++++++++++++++++++++++++++++++++++++++++++++++++++++++++++++++++++++++++++++++++++++++++++++++++++++++++++++++++++++++++++++++++++#####################.......                                                                                                                                                         ",
"                                                                                                                                                                   .......##############++++++++++++++++++++++++++++++++++++++++++++++++++++++++++++++++++++++++++++++++++++++++++++++++++++++++++++++++++++++++++++++++++++++++++++++++++++++++++++++++++++++++++++++++++++++++++++++++++++#####################.......                                                                                                                                                         ",
"                                                                                                                                                                   .......##############++++++++++++++++++++++++++++++++++++++++++++++++++++++++++++++++++++++++++++++++++++++++++++++++++++++++++++++++++++++++++++++++++++++++++++++++++++++++++++++++++++++++++++++++++++++++++++++++++++#####################.......                                                                                                                                                         ",
"                                                                                                                                                            .......##############+++++++++++++++++++++++++++++++++++++++++++++++++++++++++++++++++++++++++++++++++++++++++++++++++++++++++++++++++++++++++++++++++++++++++++++++++++++++++++++++++++++++++++++++++++++++++++++++++++++++++++##############.......                                                                                                                                                                ",
"                                                                                                                                                            .......##############+++++++++++++++++++++++++++++++++++++++++++++++++++++++++++++++++++++++++++++++++++++++++++++++++++++++++++++++++++++++++++++++++++++++++++++++++++++++++++++++++++++++++++++++++++++++++++++++++++++++++++##############.......                                                                                                                                                                ",
"                                                                                                                                                            .......##############+++++++++++++++++++++++++++++++++++++++++++++++++++++++++++++++++++++++++++++++++++++++++++++++++++++++++++++++++++++++++++++++++++++++++++++++++++++++++++++++++++++++++++++++++++++++++++++++++++++++++++##############.......                                                                                                                                                                ",
"                                                                                                                                                            .......##############+++++++++++++++++++++++++++++++++++++++++++++++++++++++++++++++++++++++++++++++++++++++++++++++++++++++++++++++++++++++++++++++++++++++++++++++++++++++++++++++++++++++++++++++++++++++++++++++++++++++++++##############.......                                                                                                                                                                ",
"                                                                                                                                                            .......##############+++++++++++++++++++++++++++++++++++++++++++++++++++++++++++++++++++++++++++++++++++++++++++++++++++++++++++++++++++++++++++++++++++++++++++++++++++++++++++++++++++++++++++++++++++++++++++++++++++++++++++##############.......                                                                                                                                                                ",
"                                                                                                                                                            .......##############+++++++++++++++++++++++++++++++++++++++++++++++++++++++++++++++++++++++++++++++++++++++++++++++++++++++++++++++++++++++++++++++++++++++++++++++++++++++++++++++++++++++++++++++++++++++++++++++++++++++++++##############.......                                                                                                                                                                ",
"                                                                                                                                                            .......##############+++++++++++++++++++++++++++++++++++++++++++++++++++++++++++++++++++++++++++++++++++++++++++++++++++++++++++++++++++++++++++++++++++++++++++++++++++++++++++++++++++++++++++++++++++++++++++++++++++++++++++##############.......                                                                                                                                                                ",
"                                                                                                                                                     .......##############+++++++++++++++++++++++++++++++++++++++++++++++++++++++++++++++++++++++++++++++++++++++++++++++++++++++++++++++++++++++++++++++++++++++++++++++++++++++++++++++++++++++++++++++++++++++++++++++++++++++++++#####################.......                                                                                                                                                                ",
"                                                                                                                                                     .......##############+++++++++++++++++++++++++++++++++++++++++++++++++++++++++++++++++++++++++++++++++++++++++++++++++++++++++++++++++++++++++++++++++++++++++++++++++++++++++++++++++++++++++++++++++++++++++++++++++++++++++++#####################.......                                                                                                                                                                ",
"                                                                                                                                                     .......##############+++++++++++++++++++++++++++++++++++++++++++++++++++++++++++++++++++++++++++++++++++++++++++++++++++++++++++++++++++++++++++++++++++++++++++++++++++++++++++++++++++++++++++++++++++++++++++++++++++++++++++#####################.......                                                                                                                                                                ",
"                                                                                                                                                     .......##############+++++++++++++++++++++++++++++++++++++++++++++++++++++++++++++++++++++++++++++++++++++++++++++++++++++++++++++++++++++++++++++++++++++++++++++++++++++++++++++++++++++++++++++++++++++++++++++++++++++++++++#####################.......                                                                                                                                                                ",
"                                                                                                                                                     .......##############+++++++++++++++++++++++++++++++++++++++++++++++++++++++++++++++++++++++++++++++++++++++++++++++++++++++++++++++++++++++++++++++++++++++++++++++++++++++++++++++++++++++++++++++++++++++++++++++++++++++++++#####################.......                                                                                                                                                                ",
"                                                                                                                                                     .......##############+++++++++++++++++++++++++++++++++++++++++++++++++++++++++++++++++++++++++++++++++++++++++++++++++++++++++++++++++++++++++++++++++++++++++++++++++++++++++++++++++++++++++++++++++++++++++++++++++++++++++++#####################.......                                                                                                                                                                ",
"                                                                                                                                                     .......##############+++++++++++++++++++++++++++++++++++++++++++++++++++++++++++++++++++++++++++++++++++++++++++++++++++++++++++++++++++++++++++++++++++++++++++++++++++++++++++++++++++++++++++++++++++++++++++++++++++++++++++#####################.......                                                                                                                                                                ",
"                                                                                                                                              .......##############++++++++++++++++++++++++++++++++++++++++++++++++++++++++++++++++++++++++++++++++++++++++++++++++++++++++++++++++++++++++++++++++++++++++++++++++++++++++++++++++++++++++++++++++++++++++++++++++++++++++++++++++++##############..............                                                                                                                                                                ",
"                                                                                                                                              .......##############++++++++++++++++++++++++++++++++++++++++++++++++++++++++++++++++++++++++++++++++++++++++++++++++++++++++++++++++++++++++++++++++++++++++++++++++++++++++++++++++++++++++++++++++++++++++++++++++++++++++++++++++++##############..............                                                                                                                                                                ",
"                                                                                                                                              .......##############++++++++++++++++++++++++++++++++++++++++++++++++++++++++++++++++++++++++++++++++++++++++++++++++++++++++++++++++++++++++++++++++++++++++++++++++++++++++++++++++++++++++++++++++++++++++++++++++++++++++++++++++++##############..............                                                                                                                                                                ",
"                                                                                                                                              .......##############++++++++++++++++++++++++++++++++++++++++++++++++++++++++++++++++++++++++++++++++++++++++++++++++++++++++++++++++++++++++++++++++++++++++++++++++++++++++++++++++++++++++++++++++++++++++++++++++++++++++++++++++++##############..............                                                                                                                                                                ",
"                                                                                                                                              .......##############++++++++++++++++++++++++++++++++++++++++++++++++++++++++++++++++++++++++++++++++++++++++++++++++++++++++++++++++++++++++++++++++++++++++++++++++++++++++++++++++++++++++++++++++++++++++++++++++++++++++++++++++++##############..............                                                                                                                                                                ",
"                                                                                                                                              .......##############++++++++++++++++++++++++++++++++++++++++++++++++++++++++++++++++++++++++++++++++++++++++++++++++++++++++++++++++++++++++++++++++++++++++++++++++++++++++++++++++++++++++++++++++++++++++++++++++++++++++++++++++++##############..............                                                                                                                                                                ",
"                                                                                                                                              .......##############++++++++++++++++++++++++++++++++++++++++++++++++++++++++++++++++++++++++++++++++++++++++++++++++++++++++++++++++++++++++++++++++++++++++++++++++++++++++++++++++++++++++++++++++++++++++++++++++++++++++++++++++++##############..............                                                                                                                                                                ",
"                                                                                                                                       .......##############++++++++++++++++++++++++++++++++++++++++++++++++++++++++++++++++++++++++++++++++++++++++++++++++++++++++++++++++++++++++++++++++++++++++++++++++++++++++++++++++++++++++++++++++++++++++++++++++++++++++++++++++++#####################.......                                                                                                                                                                       ",
"                                                                                                                                       .......##############++++++++++++++++++++++++++++++++++++++++++++++++++++++++++++++++++++++++++++++++++++++++++++++++++++++++++++++++++++++++++++++++++++++++++++++++++++++++++++++++++++++++++++++++++++++++++++++++++++++++++++++++++#####################.......                                                                                                                                                                       ",
"                                                                                                                                       .......##############++++++++++++++++++++++++++++++++++++++++++++++++++++++++++++++++++++++++++++++++++++++++++++++++++++++++++++++++++++++++++++++++++++++++++++++++++++++++++++++++++++++++++++++++++++++++++++++++++++++++++++++++++#####################.......                                                                                                                                                                       ",
"                                                                                                                                       .......##############++++++++++++++++++++++++++++++++++++++++++++++++++++++++++++++++++++++++++++++++++++++++++++++++++++++++++++++++++++++++++++++++++++++++++++++++++++++++++++++++++++++++++++++++++++++++++++++++++++++++++++++++++#####################.......                                                                                                                                                                       ",
"                                                                                                                                       .......##############++++++++++++++++++++++++++++++++++++++++++++++++++++++++++++++++++++++++++++++++++++++++++++++++++++++++++++++++++++++++++++++++++++++++++++++++++++++++++++++++++++++++++++++++++++++++++++++++++++++++++++++++++#####################.......                                                                                                                                                                       ",
"                                                                                                                                       .......##############++++++++++++++++++++++++++++++++++++++++++++++++++++++++++++++++++++++++++++++++++++++++++++++++++++++++++++++++++++++++++++++++++++++++++++++++++++++++++++++++++++++++++++++++++++++++++++++++++++++++++++++++++#####################.......                                                                                                                                                                       ",
"                                                                                                                                       .......##############++++++++++++++++++++++++++++++++++++++++++++++++++++++++++++++++++++++++++++++++++++++++++++++++++++++++++++++++++++++++++++++++++++++++++++++++++++++++++++++++++++++++++++++++++++++++++++++++++++++++++++++++++#####################.......                                                                                                                                                                       ",
"                                                                                                                                .......##############++++++++++++++++++++++++++++++++++++++++++++++++++++++++++++++++++++++++++++++++++++++++++++++++++++++++++++++++++++++++++++++++++++++++++++++++++++++++++++++++++++++++++++++++++++++++++++++++++++++++++++++++++############################.......                                                                                                                                                                       ",
"                                                                                                                                .......##############++++++++++++++++++++++++++++++++++++++++++++++++++++++++++++++++++++++++++++++++++++++++++++++++++++++++++++++++++++++++++++++++++++++++++++++++++++++++++++++++++++++++++++++++++++++++++++++++++++++++++++++++++############################.......                                                                                                                                                                       ",
"                                                                                                                                .......##############++++++++++++++++++++++++++++++++++++++++++++++++++++++++++++++++++++++++++++++++++++++++++++++++++++++++++++++++++++++++++++++++++++++++++++++++++++++++++++++++++++++++++++++++++++++++++++++++++++++++++++++++++############################.......                                                                                                                                                                       ",
"                                                                                                                                .......##############++++++++++++++++++++++++++++++++++++++++++++++++++++++++++++++++++++++++++++++++++++++++++++++++++++++++++++++++++++++++++++++++++++++++++++++++++++++++++++++++++++++++++++++++++++++++++++++++++++++++++++++++++############################.......                                                                                                                                                                       ",
"                                                                                                                                .......##############++++++++++++++++++++++++++++++++++++++++++++++++++++++++++++++++++++++++++++++++++++++++++++++++++++++++++++++++++++++++++++++++++++++++++++++++++++++++++++++++++++++++++++++++++++++++++++++++++++++++++++++++++############################.......                                                                                                                                                                       ",
"                                                                                                                                .......##############++++++++++++++++++++++++++++++++++++++++++++++++++++++++++++++++++++++++++++++++++++++++++++++++++++++++++++++++++++++++++++++++++++++++++++++++++++++++++++++++++++++++++++++++++++++++++++++++++++++++++++++++++############################.......                                                                                                                                                                       ",
"                                                                                                                                .......##############++++++++++++++++++++++++++++++++++++++++++++++++++++++++++++++++++++++++++++++++++++++++++++++++++++++++++++++++++++++++++++++++++++++++++++++++++++++++++++++++++++++++++++++++++++++++++++++++++++++++++++++++++############################.......                                                                                                                                                                       ",
"                                                                                                                         .......##############+++++++++++++++++++++++++++++++++++++++++++++++++++++++++++++++++++++++++++++++++++++++++++++++++++++++++++++++++++++++++++++++++++++++++++++++++++++++++++++++++++++++++++++++++++++++++++++++++++++++++++++++++++++++++#####################.......                                                                                                                                                                              ",
"                                                                                                                         .......##############+++++++++++++++++++++++++++++++++++++++++++++++++++++++++++++++++++++++++++++++++++++++++++++++++++++++++++++++++++++++++++++++++++++++++++++++++++++++++++++++++++++++++++++++++++++++++++++++++++++++++++++++++++++++++#####################.......                                                                                                                                                                              ",
"                                                                                                                         .......##############+++++++++++++++++++++++++++++++++++++++++++++++++++++++++++++++++++++++++++++++++++++++++++++++++++++++++++++++++++++++++++++++++++++++++++++++++++++++++++++++++++++++++++++++++++++++++++++++++++++++++++++++++++++++++#####################.......                                                                                                                                                                              ",
"                                                                                                                         .......##############+++++++++++++++++++++++++++++++++++++++++++++++++++++++++++++++++++++++++++++++++++++++++++++++++++++++++++++++++++++++++++++++++++++++++++++++++++++++++++++++++++++++++++++++++++++++++++++++++++++++++++++++++++++++++#####################.......                                                                                                                                                                              ",
"                                                                                                                         .......##############+++++++++++++++++++++++++++++++++++++++++++++++++++++++++++++++++++++++++++++++++++++++++++++++++++++++++++++++++++++++++++++++++++++++++++++++++++++++++++++++++++++++++++++++++++++++++++++++++++++++++++++++++++++++++#####################.......                                                                                                                                                                              ",
"                                                                                                                         .......##############+++++++++++++++++++++++++++++++++++++++++++++++++++++++++++++++++++++++++++++++++++++++++++++++++++++++++++++++++++++++++++++++++++++++++++++++++++++++++++++++++++++++++++++++++++++++++++++++++++++++++++++++++++++++++#####################.......                                                                                                                                                                              ",
"                                                                                                                         .......##############+++++++++++++++++++++++++++++++++++++++++++++++++++++++++++++++++++++++++++++++++++++++++++++++++++++++++++++++++++++++++++++++++++++++++++++++++++++++++++++++++++++++++++++++++++++++++++++++++++++++++++++++++++++++++#####################.......                                                                                                                                                                              ",
"                                                                                                                  .......##############+++++++++++++++++++++++++++++++++++++++++++++++++++++++++++++++++++++++++++++++++++++++++++++++++++++++++++++++++++++++++++++++++++++++++++++++++++++++++++++++++++++++++++++++++++++++++++++++++++++++++++++++++++++++++############################.......                                                                                                                                                                              ",
"                                                                                                                  .......##############+++++++++++++++++++++++++++++++++++++++++++++++++++++++++++++++++++++++++++++++++++++++++++++++++++++++++++++++++++++++++++++++++++++++++++++++++++++++++++++++++++++++++++++++++++++++++++++++++++++++++++++++++++++++++############################.......                                                                                                                                                                              ",
"                                                                                                                  .......##############+++++++++++++++++++++++++++++++++++++++++++++++++++++++++++++++++++++++++++++++++++++++++++++++++++++++++++++++++++++++++++++++++++++++++++++++++++++++++++++++++++++++++++++++++++++++++++++++++++++++++++++++++++++++++############################.......                                                                                                                                                                              ",
"                                                                                                                  .......##############+++++++++++++++++++++++++++++++++++++++++++++++++++++++++++++++++++++++++++++++++++++++++++++++++++++++++++++++++++++++++++++++++++++++++++++++++++++++++++++++++++++++++++++++++++++++++++++++++++++++++++++++++++++++++############################.......                                                                                                                                                                              ",
"                                                                                                                  .......##############+++++++++++++++++++++++++++++++++++++++++++++++++++++++++++++++++++++++++++++++++++++++++++++++++++++++++++++++++++++++++++++++++++++++++++++++++++++++++++++++++++++++++++++++++++++++++++++++++++++++++++++++++++++++++############################.......                                                                                                                                                                              ",
"                                                                                                                  .......##############+++++++++++++++++++++++++++++++++++++++++++++++++++++++++++++++++++++++++++++++++++++++++++++++++++++++++++++++++++++++++++++++++++++++++++++++++++++++++++++++++++++++++++++++++++++++++++++++++++++++++++++++++++++++++############################.......                                                                                                                                                                              ",
"                                                                                                                  .......##############+++++++++++++++++++++++++++++++++++++++++++++++++++++++++++++++++++++++++++++++++++++++++++++++++++++++++++++++++++++++++++++++++++++++++++++++++++++++++++++++++++++++++++++++++++++++++++++++++++++++++++++++++++++++++############################.......                                                                                                                                                                              ",
"                                                                                                           .......##############++++++++++++++++++++++++++++++++++++++++++++++++++++++++++++++++++++++++++++++++++++++++++++++++++++++++++++++++++++++++++++++++++++++++++++++++++++++++++++++++++++++++++++++++++++++++++++++++++++++++++++++++++++++++++++++++#####################.......                                                                                                                                                                                     ",
"                                                                                                           .......##############++++++++++++++++++++++++++++++++++++++++++++++++++++++++++++++++++++++++++++++++++++++++++++++++++++++++++++++++++++++++++++++++++++++++++++++++++++++++++++++++++++++++++++++++++++++++++++++++++++++++++++++++++++++++++++++++#####################.......                                                                                                                                                                                     ",
"                                                                                                           .......##############++++++++++++++++++++++++++++++++++++++++++++++++++++++++++++++++++++++++++++++++++++++++++++++++++++++++++++++++++++++++++++++++++++++++++++++++++++++++++++++++++++++++++++++++++++++++++++++++++++++++++++++++++++++++++++++++#####################.......                                                                                                                                                                                     ",
"                                                                                                           .......##############++++++++++++++++++++++++++++++++++++++++++++++++++++++++++++++++++++++++++++++++++++++++++++++++++++++++++++++++++++++++++++++++++++++++++++++++++++++++++++++++++++++++++++++++++++++++++++++++++++++++++++++++++++++++++++++++#####################.......                                                                                                                                                                                     ",
"                                                                                                           .......##############++++++++++++++++++++++++++++++++++++++++++++++++++++++++++++++++++++++++++++++++++++++++++++++++++++++++++++++++++++++++++++++++++++++++++++++++++++++++++++++++++++++++++++++++++++++++++++++++++++++++++++++++++++++++++++++++#####################.......                                                                                                                                                                                     ",
"                                                                                                           .......##############++++++++++++++++++++++++++++++++++++++++++++++++++++++++++++++++++++++++++++++++++++++++++++++++++++++++++++++++++++++++++++++++++++++++++++++++++++++++++++++++++++++++++++++++++++++++++++++++++++++++++++++++++++++++++++++++#####################.......                                                                                                                                                                                     ",
"                                                                                                           .......##############++++++++++++++++++++++++++++++++++++++++++++++++++++++++++++++++++++++++++++++++++++++++++++++++++++++++++++++++++++++++++++++++++++++++++++++++++++++++++++++++++++++++++++++++++++++++++++++++++++++++++++++++++++++++++++++++#####################.......                                                                                                                                                                                     ",
"                                                                                                    .......##############+++++++++++++++++++++++++++++++++++++++++++++++++++++++++++++++++++++++++++++++++++++++++++++++++++++++++++++++++++++++++++++++++++++++++++++++++++++++++++++++++++++++++++++++++++++++++++++++++++++++++++++++++++++++++++++++++++++++##############..............                                                                                                                                                                                     ",
"                                                                                                    .......##############+++++++++++++++++++++++++++++++++++++++++++++++++++++++++++++++++++++++++++++++++++++++++++++++++++++++++++++++++++++++++++++++++++++++++++++++++++++++++++++++++++++++++++++++++++++++++++++++++++++++++++++++++++++++++++++++++++++++##############..............                                                                                                                                                                                     ",
"                                                                                                    .......##############+++++++++++++++++++++++++++++++++++++++++++++++++++++++++++++++++++++++++++++++++++++++++++++++++++++++++++++++++++++++++++++++++++++++++++++++++++++++++++++++++++++++++++++++++++++++++++++++++++++++++++++++++++++++++++++++++++++++##############..............                                                                                                                                                                                     ",
"                                                                                                    .......##############+++++++++++++++++++++++++++++++++++++++++++++++++++++++++++++++++++++++++++++++++++++++++++++++++++++++++++++++++++++++++++++++++++++++++++++++++++++++++++++++++++++++++++++++++++++++++++++++++++++++++++++++++++++++++++++++++++++++##############..............                                                                                                                                                                                     ",
"                                                                                                    .......##############+++++++++++++++++++++++++++++++++++++++++++++++++++++++++++++++++++++++++++++++++++++++++++++++++++++++++++++++++++++++++++++++++++++++++++++++++++++++++++++++++++++++++++++++++++++++++++++++++++++++++++++++++++++++++++++++++++++++##############..............                                                                                                                                                                                     ",
"                                                                                                    .......##############+++++++++++++++++++++++++++++++++++++++++++++++++++++++++++++++++++++++++++++++++++++++++++++++++++++++++++++++++++++++++++++++++++++++++++++++++++++++++++++++++++++++++++++++++++++++++++++++++++++++++++++++++++++++++++++++++++++++##############..............                                                                                                                                                                                     ",
"                                                                                                    .......##############+++++++++++++++++++++++++++++++++++++++++++++++++++++++++++++++++++++++++++++++++++++++++++++++++++++++++++++++++++++++++++++++++++++++++++++++++++++++++++++++++++++++++++++++++++++++++++++++++++++++++++++++++++++++++++++++++++++++##############..............                                                                                                                                                                                     ",
"                                                                                             .......##############+++++++++++++++++++++++++++++++++++++++++++++++++++++++++++++++++++++++++++++++++++++++++++++++++++++++++++++++++++++++++++++++++++++++++++++++++++++++++++++++++++++++++++++++++++++++++++++++++++++++++++++++++++++++++++++++++++++++#####################.......                                                                                                                                                                                            ",
"                                                                                             .......##############+++++++++++++++++++++++++++++++++++++++++++++++++++++++++++++++++++++++++++++++++++++++++++++++++++++++++++++++++++++++++++++++++++++++++++++++++++++++++++++++++++++++++++++++++++++++++++++++++++++++++++++++++++++++++++++++++++++++#####################.......                                                                                                                                                                                            ",
"                                                                                             .......##############+++++++++++++++++++++++++++++++++++++++++++++++++++++++++++++++++++++++++++++++++++++++++++++++++++++++++++++++++++++++++++++++++++++++++++++++++++++++++++++++++++++++++++++++++++++++++++++++++++++++++++++++++++++++++++++++++++++++#####################.......                                                                                                                                                                                            ",
"                                                                                             .......##############+++++++++++++++++++++++++++++++++++++++++++++++++++++++++++++++++++++++++++++++++++++++++++++++++++++++++++++++++++++++++++++++++++++++++++++++++++++++++++++++++++++++++++++++++++++++++++++++++++++++++++++++++++++++++++++++++++++++#####################.......                                                                                                                                                                                            ",
"                                                                                             .......##############+++++++++++++++++++++++++++++++++++++++++++++++++++++++++++++++++++++++++++++++++++++++++++++++++++++++++++++++++++++++++++++++++++++++++++++++++++++++++++++++++++++++++++++++++++++++++++++++++++++++++++++++++++++++++++++++++++++++#####################.......                                                                                                                                                                                            ",
"                                                                                             .......##############+++++++++++++++++++++++++++++++++++++++++++++++++++++++++++++++++++++++++++++++++++++++++++++++++++++++++++++++++++++++++++++++++++++++++++++++++++++++++++++++++++++++++++++++++++++++++++++++++++++++++++++++++++++++++++++++++++++++#####################.......                                                                                                                                                                                            ",
"                                                                                             .......##############+++++++++++++++++++++++++++++++++++++++++++++++++++++++++++++++++++++++++++++++++++++++++++++++++++++++++++++++++++++++++++++++++++++++++++++++++++++++++++++++++++++++++++++++++++++++++++++++++++++++++++++++++++++++++++++++++++++++#####################.......                                                                                                                                                                                            ",
"                                                                                      .......##############++++++++++++++++++++++++++++++++++++++++++++++++++++++++++++++++++++++++++++++++++++++++++++++++++++++++++++++++++++++++++++++++++++++++++++++++++++++++++++++++++++++++++++++++++++++++++++++++++++++++++++++++++++++++++++++++++++++++++++++##############..............                                                                                                                                                                                            ",
"                                                                                      .......##############++++++++++++++++++++++++++++++++++++++++++++++++++++++++++++++++++++++++++++++++++++++++++++++++++++++++++++++++++++++++++++++++++++++++++++++++++++++++++++++++++++++++++++++++++++++++++++++++++++++++++++++++++++++++++++++++++++++++++++++##############..............                                                                                                                                                                                            ",
"                                                                                      .......##############++++++++++++++++++++++++++++++++++++++++++++++++++++++++++++++++++++++++++++++++++++++++++++++++++++++++++++++++++++++++++++++++++++++++++++++++++++++++++++++++++++++++++++++++++++++++++++++++++++++++++++++++++++++++++++++++++++++++++++++##############..............                                                                                                                                                                                            ",
"                                                                                      .......##############++++++++++++++++++++++++++++++++++++++++++++++++++++++++++++++++++++++++++++++++++++++++++++++++++++++++++++++++++++++++++++++++++++++++++++++++++++++++++++++++++++++++++++++++++++++++++++++++++++++++++++++++++++++++++++++++++++++++++++++##############..............                                                                                                                                                                                            ",
"                                                                                      .......##############++++++++++++++++++++++++++++++++++++++++++++++++++++++++++++++++++++++++++++++++++++++++++++++++++++++++++++++++++++++++++++++++++++++++++++++++++++++++++++++++++++++++++++++++++++++++++++++++++++++++++++++++++++++++++++++++++++++++++++++##############..............                                                                                                                                                                                            ",
"                                                                                      .......##############++++++++++++++++++++++++++++++++++++++++++++++++++++++++++++++++++++++++++++++++++++++++++++++++++++++++++++++++++++++++++++++++++++++++++++++++++++++++++++++++++++++++++++++++++++++++++++++++++++++++++++++++++++++++++++++++++++++++++++++##############..............                                                                                                                                                                                            ",
"                                                                                      .......##############++++++++++++++++++++++++++++++++++++++++++++++++++++++++++++++++++++++++++++++++++++++++++++++++++++++++++++++++++++++++++++++++++++++++++++++++++++++++++++++++++++++++++++++++++++++++++++++++++++++++++++++++++++++++++++++++++++++++++++++##############..............                                                                                                                                                                                            ",
"                                                                               .......##############++++++++++++++++++++++++++++++++++++++++++++++++++++++++++++++++++++++++++++++++++++++++++++++++++++++++++++++++++++++++++++++++++++++++++++++++++++++++++++++++++++++++++++++++++++++++++++++++++++++++++++++++++++++++++++++++++++++++++++++#####################.......                                                                                                                                                                                                   ",
"                                                                               .......##############++++++++++++++++++++++++++++++++++++++++++++++++++++++++++++++++++++++++++++++++++++++++++++++++++++++++++++++++++++++++++++++++++++++++++++++++++++++++++++++++++++++++++++++++++++++++++++++++++++++++++++++++++++++++++++++++++++++++++++++#####################.......                                                                                                                                                                                                   ",
"                                                                               .......##############++++++++++++++++++++++++++++++++++++++++++++++++++++++++++++++++++++++++++++++++++++++++++++++++++++++++++++++++++++++++++++++++++++++++++++++++++++++++++++++++++++++++++++++++++++++++++++++++++++++++++++++++++++++++++++++++++++++++++++++#####################.......                                                                                                                                                                                                   ",
"                                                                               .......##############++++++++++++++++++++++++++++++++++++++++++++++++++++++++++++++++++++++++++++++++++++++++++++++++++++++++++++++++++++++++++++++++++++++++++++++++++++++++++++++++++++++++++++++++++++++++++++++++++++++++++++++++++++++++++++++++++++++++++++++#####################.......                                                                                                                                                                                                   ",
"                                                                               .......##############++++++++++++++++++++++++++++++++++++++++++++++++++++++++++++++++++++++++++++++++++++++++++++++++++++++++++++++++++++++++++++++++++++++++++++++++++++++++++++++++++++++++++++++++++++++++++++++++++++++++++++++++++++++++++++++++++++++++++++++#####################.......                                                                                                                                                                                                   ",
"                                                                               .......##############++++++++++++++++++++++++++++++++++++++++++++++++++++++++++++++++++++++++++++++++++++++++++++++++++++++++++++++++++++++++++++++++++++++++++++++++++++++++++++++++++++++++++++++++++++++++++++++++++++++++++++++++++++++++++++++++++++++++++++++#####################.......                                                                                                                                                                                                   ",
"                                                                               .......##############++++++++++++++++++++++++++++++++++++++++++++++++++++++++++++++++++++++++++++++++++++++++++++++++++++++++++++++++++++++++++++++++++++++++++++++++++++++++++++++++++++++++++++++++++++++++++++++++++++++++++++++++++++++++++++++++++++++++++++++#####################.......                                                                                                                                                                                                   ",
"                                                                        .......#######++++++++++++++++++++++++++++++++++++++++++++++++++++++++++++++++++++++++++++++++++++++++++++++++++++++++++++++++++++++++++++++++++++++++++++++++++++++++++++++++++++++++++++++++++++++++++++++++++++++++++++++++++++++++++++++++++++++++++++++++++++++++++++#####################.......                                                                                                                                                                                                   ",
"                                                                        .......#######++++++++++++++++++++++++++++++++++++++++++++++++++++++++++++++++++++++++++++++++++++++++++++++++++++++++++++++++++++++++++++++++++++++++++++++++++++++++++++++++++++++++++++++++++++++++++++++++++++++++++++++++++++++++++++++++++++++++++++++++++++++++++++#####################.......                                                                                                                                                                                                   ",
"                                                                        .......#######++++++++++++++++++++++++++++++++++++++++++++++++++++++++++++++++++++++++++++++++++++++++++++++++++++++++++++++++++++++++++++++++++++++++++++++++++++++++++++++++++++++++++++++++++++++++++++++++++++++++++++++++++++++++++++++++++++++++++++++++++++++++++++#####################.......                                                                                                                                                                                                   ",
"                                                                        .......#######++++++++++++++++++++++++++++++++++++++++++++++++++++++++++++++++++++++++++++++++++++++++++++++++++++++++++++++++++++++++++++++++++++++++++++++++++++++++++++++++++++++++++++++++++++++++++++++++++++++++++++++++++++++++++++++++++++++++++++++++++++++++++++#####################.......                                                                                                                                                                                                   ",
"                                                                        .......#######++++++++++++++++++++++++++++++++++++++++++++++++++++++++++++++++++++++++++++++++++++++++++++++++++++++++++++++++++++++++++++++++++++++++++++++++++++++++++++++++++++++++++++++++++++++++++++++++++++++++++++++++++++++++++++++++++++++++++++++++++++++++++++#####################.......                                                                                                                                                                                                   ",
"                                                                        .......#######++++++++++++++++++++++++++++++++++++++++++++++++++++++++++++++++++++++++++++++++++++++++++++++++++++++++++++++++++++++++++++++++++++++++++++++++++++++++++++++++++++++++++++++++++++++++++++++++++++++++++++++++++++++++++++++++++++++++++++++++++++++++++++#####################.......                                                                                                                                                                                                   ",
"                                                                        .......#######++++++++++++++++++++++++++++++++++++++++++++++++++++++++++++++++++++++++++++++++++++++++++++++++++++++++++++++++++++++++++++++++++++++++++++++++++++++++++++++++++++++++++++++++++++++++++++++++++++++++++++++++++++++++++++++++++++++++++++++++++++++++++++#####################.......                                                                                                                                                                                                   ",
"                                                                 .......#######+++++++++++++++++++++++++++++++++++++++++++++++++++++++++++++++++++++++++++++++++++++++++++++++++++++++++++++++++++++++++++++++++++++++++++++++++++++++++++++++++++++++++++++++++++++++++++++++++++++++++++++++++++++++++++++++++++++++++++++++++++++++++++++++++++##############..............                                                                                                                                                                                                   ",
"                                                                 .......#######+++++++++++++++++++++++++++++++++++++++++++++++++++++++++++++++++++++++++++++++++++++++++++++++++++++++++++++++++++++++++++++++++++++++++++++++++++++++++++++++++++++++++++++++++++++++++++++++++++++++++++++++++++++++++++++++++++++++++++++++++++++++++++++++++++##############..............                                                                                                                                                                                                   ",
"                                                                 .......#######+++++++++++++++++++++++++++++++++++++++++++++++++++++++++++++++++++++++++++++++++++++++++++++++++++++++++++++++++++++++++++++++++++++++++++++++++++++++++++++++++++++++++++++++++++++++++++++++++++++++++++++++++++++++++++++++++++++++++++++++++++++++++++++++++++##############..............                                                                                                                                                                                                   ",
"                                                                 .......#######+++++++++++++++++++++++++++++++++++++++++++++++++++++++++++++++++++++++++++++++++++++++++++++++++++++++++++++++++++++++++++++++++++++++++++++++++++++++++++++++++++++++++++++++++++++++++++++++++++++++++++++++++++++++++++++++++++++++++++++++++++++++++++++++++++##############..............                                                                                                                                                                                                   ",
"                                                                 .......#######+++++++++++++++++++++++++++++++++++++++++++++++++++++++++++++++++++++++++++++++++++++++++++++++++++++++++++++++++++++++++++++++++++++++++++++++++++++++++++++++++++++++++++++++++++++++++++++++++++++++++++++++++++++++++++++++++++++++++++++++++++++++++++++++++++##############..............                                                                                                                                                                                                   ",
"                                                                 .......#######+++++++++++++++++++++++++++++++++++++++++++++++++++++++++++++++++++++++++++++++++++++++++++++++++++++++++++++++++++++++++++++++++++++++++++++++++++++++++++++++++++++++++++++++++++++++++++++++++++++++++++++++++++++++++++++++++++++++++++++++++++++++++++++++++++##############..............                                                                                                                                                                                                   ",
"                                                                 .......#######+++++++++++++++++++++++++++++++++++++++++++++++++++++++++++++++++++++++++++++++++++++++++++++++++++++++++++++++++++++++++++++++++++++++++++++++++++++++++++++++++++++++++++++++++++++++++++++++++++++++++++++++++++++++++++++++++++++++++++++++++++++++++++++++++++##############..............                                                                                                                                                                                                   ",
"                                                          .......#######++++++++++++++++++++++++++++++++++++++++++++++++++++++++++++++++++++++++++++++++++++++++++++++++++++++++++++++++++++++++++++++++++++++++++++++++++++++++++++++++++++++++++++++++++++++++++++++++++++++++++++++++++++++++++++++++++++++++++++++++++++++++++++++++++++++++++##############.......                                                                                                                                                                                                          ",
"                                                          .......#######++++++++++++++++++++++++++++++++++++++++++++++++++++++++++++++++++++++++++++++++++++++++++++++++++++++++++++++++++++++++++++++++++++++++++++++++++++++++++++++++++++++++++++++++++++++++++++++++++++++++++++++++++++++++++++++++++++++++++++++++++++++++++++++++++++++++++##############.......                                                                                                                                                                                                          ",
"                                                          .......#######++++++++++++++++++++++++++++++++++++++++++++++++++++++++++++++++++++++++++++++++++++++++++++++++++++++++++++++++++++++++++++++++++++++++++++++++++++++++++++++++++++++++++++++++++++++++++++++++++++++++++++++++++++++++++++++++++++++++++++++++++++++++++++++++++++++++++##############.......                                                                                                                                                                                                          ",
"                                                          .......#######++++++++++++++++++++++++++++++++++++++++++++++++++++++++++++++++++++++++++++++++++++++++++++++++++++++++++++++++++++++++++++++++++++++++++++++++++++++++++++++++++++++++++++++++++++++++++++++++++++++++++++++++++++++++++++++++++++++++++++++++++++++++++++++++++++++++++##############.......                                                                                                                                                                                                          ",
"                                                          .......#######++++++++++++++++++++++++++++++++++++++++++++++++++++++++++++++++++++++++++++++++++++++++++++++++++++++++++++++++++++++++++++++++++++++++++++++++++++++++++++++++++++++++++++++++++++++++++++++++++++++++++++++++++++++++++++++++++++++++++++++++++++++++++++++++++++++++++##############.......                                                                                                                                                                                                          ",
"                                                          .......#######++++++++++++++++++++++++++++++++++++++++++++++++++++++++++++++++++++++++++++++++++++++++++++++++++++++++++++++++++++++++++++++++++++++++++++++++++++++++++++++++++++++++++++++++++++++++++++++++++++++++++++++++++++++++++++++++++++++++++++++++++++++++++++++++++++++++++##############.......                                                                                                                                                                                                          ",
"                                                          .......#######++++++++++++++++++++++++++++++++++++++++++++++++++++++++++++++++++++++++++++++++++++++++++++++++++++++++++++++++++++++++++++++++++++++++++++++++++++++++++++++++++++++++++++++++++++++++++++++++++++++++++++++++++++++++++++++++++++++++++++++++++++++++++++++++++++++++++##############.......                                                                                                                                                                                                          ",
"                                                   .......#######++++++++++++++++++++++++++++++++++++++++++++++++++++++++++++++++++++++++++++++++++++++++++++++++++++++++++++++++++++++++++++++++++++++++++++++++++++++++++++++++++++++++++++++++++++++++++++++++++++++++++++++++++++++++++++++++++++++++++++++++++++++++++++++++++++++++++##############..............                                                                                                                                                                                                          ",
"                                                   .......#######++++++++++++++++++++++++++++++++++++++++++++++++++++++++++++++++++++++++++++++++++++++++++++++++++++++++++++++++++++++++++++++++++++++++++++++++++++++++++++++++++++++++++++++++++++++++++++++++++++++++++++++++++++++++++++++++++++++++++++++++++++++++++++++++++++++++++##############..............                                                                                                                                                                                                          ",
"                                                   .......#######++++++++++++++++++++++++++++++++++++++++++++++++++++++++++++++++++++++++++++++++++++++++++++++++++++++++++++++++++++++++++++++++++++++++++++++++++++++++++++++++++++++++++++++++++++++++++++++++++++++++++++++++++++++++++++++++++++++++++++++++++++++++++++++++++++++++++##############..............                                                                                                                                                                                                          ",
"                                                   .......#######++++++++++++++++++++++++++++++++++++++++++++++++++++++++++++++++++++++++++++++++++++++++++++++++++++++++++++++++++++++++++++++++++++++++++++++++++++++++++++++++++++++++++++++++++++++++++++++++++++++++++++++++++++++++++++++++++++++++++++++++++++++++++++++++++++++++++##############..............                                                                                                                                                                                                          ",
"                                                   .......#######++++++++++++++++++++++++++++++++++++++++++++++++++++++++++++++++++++++++++++++++++++++++++++++++++++++++++++++++++++++++++++++++++++++++++++++++++++++++++++++++++++++++++++++++++++++++++++++++++++++++++++++++++++++++++++++++++++++++++++++++++++++++++++++++++++++++++##############..............                                                                                                                                                                                                          ",
"                                                   .......#######++++++++++++++++++++++++++++++++++++++++++++++++++++++++++++++++++++++++++++++++++++++++++++++++++++++++++++++++++++++++++++++++++++++++++++++++++++++++++++++++++++++++++++++++++++++++++++++++++++++++++++++++++++++++++++++++++++++++++++++++++++++++++++++++++++++++++##############..............                                                                                                                                                                                                          ",
"                                                   .......#######++++++++++++++++++++++++++++++++++++++++++++++++++++++++++++++++++++++++++++++++++++++++++++++++++++++++++++++++++++++++++++++++++++++++++++++++++++++++++++++++++++++++++++++++++++++++++++++++++++++++++++++++++++++++++++++++++++++++++++++++++++++++++++++++++++++++++##############..............                                                                                                                                                                                                          ",
"                                            .......#######+++++++++++++++++++++++++++++++++++++++++++++++++++++++++++++++++++++++++++++++++++++++++++++++++++++++++++++++++++++++++++++++++++++++++++++++++++++++++++++++++++++++++++++++++++++++++++++++++++++++++++++++++++++++++++++++++++++++++++++++++++++++++++++++++++++++++++++++++##############.......                                                                                                                                                                                                                 ",
"                                            .......#######+++++++++++++++++++++++++++++++++++++++++++++++++++++++++++++++++++++++++++++++++++++++++++++++++++++++++++++++++++++++++++++++++++++++++++++++++++++++++++++++++++++++++++++++++++++++++++++++++++++++++++++++++++++++++++++++++++++++++++++++++++++++++++++++++++++++++++++++++##############.......                                                                                                                                                                                                                 ",
"                                            .......#######+++++++++++++++++++++++++++++++++++++++++++++++++++++++++++++++++++++++++++++++++++++++++++++++++++++++++++++++++++++++++++++++++++++++++++++++++++++++++++++++++++++++++++++++++++++++++++++++++++++++++++++++++++++++++++++++++++++++++++++++++++++++++++++++++++++++++++++++++##############.......                                                                                                                                                                                                                 ",
"                                            .......#######+++++++++++++++++++++++++++++++++++++++++++++++++++++++++++++++++++++++++++++++++++++++++++++++++++++++++++++++++++++++++++++++++++++++++++++++++++++++++++++++++++++++++++++++++++++++++++++++++++++++++++++++++++++++++++++++++++++++++++++++++++++++++++++++++++++++++++++++++##############.......                                                                                                                                                                                                                 ",
"                                            .......#######+++++++++++++++++++++++++++++++++++++++++++++++++++++++++++++++++++++++++++++++++++++++++++++++++++++++++++++++++++++++++++++++++++++++++++++++++++++++++++++++++++++++++++++++++++++++++++++++++++++++++++++++++++++++++++++++++++++++++++++++++++++++++++++++++++++++++++++++++##############.......                                                                                                                                                                                                                 ",
"                                            .......#######+++++++++++++++++++++++++++++++++++++++++++++++++++++++++++++++++++++++++++++++++++++++++++++++++++++++++++++++++++++++++++++++++++++++++++++++++++++++++++++++++++++++++++++++++++++++++++++++++++++++++++++++++++++++++++++++++++++++++++++++++++++++++++++++++++++++++++++++++##############.......                                                                                                                                                                                                                 ",
"                                            .......#######+++++++++++++++++++++++++++++++++++++++++++++++++++++++++++++++++++++++++++++++++++++++++++++++++++++++++++++++++++++++++++++++++++++++++++++++++++++++++++++++++++++++++++++++++++++++++++++++++++++++++++++++++++++++++++++++++++++++++++++++++++++++++++++++++++++++++++++++++##############.......                                                                                                                                                                                                                 ",
"                                     .......#######++++++++++++++++++++++++++++++++++++++++++++++++++++++++++++++++++++++++++++++++++++++++++++++++++++++++++++++++++++++++++++++++++++++++++++++++++++++++++++++++++++++++++++++++++++++++++++++++++++++++++++++++++++++++++++++++++++++++++++++++++++++++++++++++++++++++++++++++++++++++##############.......                                                                                                                                                                                                                 ",
"                                     .......#######++++++++++++++++++++++++++++++++++++++++++++++++++++++++++++++++++++++++++++++++++++++++++++++++++++++++++++++++++++++++++++++++++++++++++++++++++++++++++++++++++++++++++++++++++++++++++++++++++++++++++++++++++++++++++++++++++++++++++++++++++++++++++++++++++++++++++++++++++++++++##############.......                                                                                                                                                                                                                 ",
"                                     .......#######++++++++++++++++++++++++++++++++++++++++++++++++++++++++++++++++++++++++++++++++++++++++++++++++++++++++++++++++++++++++++++++++++++++++++++++++++++++++++++++++++++++++++++++++++++++++++++++++++++++++++++++++++++++++++++++++++++++++++++++++++++++++++++++++++++++++++++++++++++++++##############.......                                                                                                                                                                                                                 ",
"                                     .......#######++++++++++++++++++++++++++++++++++++++++++++++++++++++++++++++++++++++++++++++++++++++++++++++++++++++++++++++++++++++++++++++++++++++++++++++++++++++++++++++++++++++++++++++++++++++++++++++++++++++++++++++++++++++++++++++++++++++++++++++++++++++++++++++++++++++++++++++++++++++++##############.......                                                                                                                                                                                                                 ",
"                                     .......#######++++++++++++++++++++++++++++++++++++++++++++++++++++++++++++++++++++++++++++++++++++++++++++++++++++++++++++++++++++++++++++++++++++++++++++++++++++++++++++++++++++++++++++++++++++++++++++++++++++++++++++++++++++++++++++++++++++++++++++++++++++++++++++++++++++++++++++++++++++++++##############.......                                                                                                                                                                                                                 ",
"                                     .......#######++++++++++++++++++++++++++++++++++++++++++++++++++++++++++++++++++++++++++++++++++++++++++++++++++++++++++++++++++++++++++++++++++++++++++++++++++++++++++++++++++++++++++++++++++++++++++++++++++++++++++++++++++++++++++++++++++++++++++++++++++++++++++++++++++++++++++++++++++++++++##############.......                                                                                                                                                                                                                 ",
"                                     .......#######++++++++++++++++++++++++++++++++++++++++++++++++++++++++++++++++++++++++++++++++++++++++++++++++++++++++++++++++++++++++++++++++++++++++++++++++++++++++++++++++++++++++++++++++++++++++++++++++++++++++++++++++++++++++++++++++++++++++++++++++++++++++++++++++++++++++++++++++++++++++##############.......                                                                                                                                                                                                                 ",
"                              .......#######++++++++++++++++++++++++++++++++++++++++++++++++++++++++++++++++++++++++++++++++++++++++++++++++++++++++++++++++++++++++++++++++++++++++++++++++++++++++++++++++++++++++++++++++++++++++++++++++++++++++++++++++++++++++++++++++++++++++++++++++++++++++++++++++++++++++++++++++++++++++##############..............                                                                                                                                                                                                                 ",
"                              .......#######++++++++++++++++++++++++++++++++++++++++++++++++++++++++++++++++++++++++++++++++++++++++++++++++++++++++++++++++++++++++++++++++++++++++++++++++++++++++++++++++++++++++++++++++++++++++++++++++++++++++++++++++++++++++++++++++++++++++++++++++++++++++++++++++++++++++++++++++++++++++##############..............                                                                                                                                                                                                                 ",
"                              .......#######++++++++++++++++++++++++++++++++++++++++++++++++++++++++++++++++++++++++++++++++++++++++++++++++++++++++++++++++++++++++++++++++++++++++++++++++++++++++++++++++++++++++++++++++++++++++++++++++++++++++++++++++++++++++++++++++++++++++++++++++++++++++++++++++++++++++++++++++++++++++##############..............                                                                                                                                                                                                                 ",
"                              .......#######++++++++++++++++++++++++++++++++++++++++++++++++++++++++++++++++++++++++++++++++++++++++++++++++++++++++++++++++++++++++++++++++++++++++++++++++++++++++++++++++++++++++++++++++++++++++++++++++++++++++++++++++++++++++++++++++++++++++++++++++++++++++++++++++++++++++++++++++++++++++##############..............                                                                                                                                                                                                                 ",
"                              .......#######++++++++++++++++++++++++++++++++++++++++++++++++++++++++++++++++++++++++++++++++++++++++++++++++++++++++++++++++++++++++++++++++++++++++++++++++++++++++++++++++++++++++++++++++++++++++++++++++++++++++++++++++++++++++++++++++++++++++++++++++++++++++++++++++++++++++++++++++++++++++##############..............                                                                                                                                                                                                                 ",
"                              .......#######++++++++++++++++++++++++++++++++++++++++++++++++++++++++++++++++++++++++++++++++++++++++++++++++++++++++++++++++++++++++++++++++++++++++++++++++++++++++++++++++++++++++++++++++++++++++++++++++++++++++++++++++++++++++++++++++++++++++++++++++++++++++++++++++++++++++++++++++++++++++##############..............                                                                                                                                                                                                                 ",
"                              .......#######++++++++++++++++++++++++++++++++++++++++++++++++++++++++++++++++++++++++++++++++++++++++++++++++++++++++++++++++++++++++++++++++++++++++++++++++++++++++++++++++++++++++++++++++++++++++++++++++++++++++++++++++++++++++++++++++++++++++++++++++++++++++++++++++++++++++++++++++++++++++##############..............                                                                                                                                                                                                                 ",
"                       .......#######+++++++++++++++++++++++++++++++++++++++++++++++++++++++++++++++++++++++++++++++++++++++++++++++++++++++++++++++++++++++++++++++++++++++++++++++++++++++++++++++++++++++++++++++++++++++++++++++++++++++++++++++++++++++++++++++++++++++++++++++++++++++++++++++++++++++++++++++++++++++++++++++##############.......                                                                                                                                                                                                                        ",
"                       .......#######+++++++++++++++++++++++++++++++++++++++++++++++++++++++++++++++++++++++++++++++++++++++++++++++++++++++++++++++++++++++++++++++++++++++++++++++++++++++++++++++++++++++++++++++++++++++++++++++++++++++++++++++++++++++++++++++++++++++++++++++++++++++++++++++++++++++++++++++++++++++++++++++##############.......                                                                                                                                                                                                                        ",
"                       .......#######+++++++++++++++++++++++++++++++++++++++++++++++++++++++++++++++++++++++++++++++++++++++++++++++++++++++++++++++++++++++++++++++++++++++++++++++++++++++++++++++++++++++++++++++++++++++++++++++++++++++++++++++++++++++++++++++++++++++++++++++++++++++++++++++++++++++++++++++++++++++++++++++##############.......                                                                                                                                                                                                                        ",
"                       .......#######+++++++++++++++++++++++++++++++++++++++++++++++++++++++++++++++++++++++++++++++++++++++++++++++++++++++++++++++++++++++++++++++++++++++++++++++++++++++++++++++++++++++++++++++++++++++++++++++++++++++++++++++++++++++++++++++++++++++++++++++++++++++++++++++++++++++++++++++++++++++++++++++##############.......                                                                                                                                                                                                                        ",
"                       .......#######+++++++++++++++++++++++++++++++++++++++++++++++++++++++++++++++++++++++++++++++++++++++++++++++++++++++++++++++++++++++++++++++++++++++++++++++++++++++++++++++++++++++++++++++++++++++++++++++++++++++++++++++++++++++++++++++++++++++++++++++++++++++++++++++++++++++++++++++++++++++++++++++##############.......                                                                                                                                                                                                                        ",
"                       .......#######+++++++++++++++++++++++++++++++++++++++++++++++++++++++++++++++++++++++++++++++++++++++++++++++++++++++++++++++++++++++++++++++++++++++++++++++++++++++++++++++++++++++++++++++++++++++++++++++++++++++++++++++++++++++++++++++++++++++++++++++++++++++++++++++++++++++++++++++++++++++++++++++##############.......                                                                                                                                                                                                                        ",
"                       .......#######+++++++++++++++++++++++++++++++++++++++++++++++++++++++++++++++++++++++++++++++++++++++++++++++++++++++++++++++++++++++++++++++++++++++++++++++++++++++++++++++++++++++++++++++++++++++++++++++++++++++++++++++++++++++++++++++++++++++++++++++++++++++++++++++++++++++++++++++++++++++++++++++##############.......                                                                                                                                                                                                                        ",
"                .......#######+++++++++++++++++++++++++++++++++++++++++++++++++++++++++++++++++++++++++++++++++++++++++++++++++++++++++++++++++++++++++++++++++++++++++++++++++++++++++++++++++++++++++++++++++++++++++++++++++++++++++++++++++++++++++++++++++++++++++++++++++++++++++++++++++++++++++++++++++++++++++++++++#####################.......                                                                                                                                                                                                                        ",
"                .......#######+++++++++++++++++++++++++++++++++++++++++++++++++++++++++++++++++++++++++++++++++++++++++++++++++++++++++++++++++++++++++++++++++++++++++++++++++++++++++++++++++++++++++++++++++++++++++++++++++++++++++++++++++++++++++++++++++++++++++++++++++++++++++++++++++++++++++++++++++++++++++++++++#####################.......                                                                                                                                                                                                                        ",
"                .......#######+++++++++++++++++++++++++++++++++++++++++++++++++++++++++++++++++++++++++++++++++++++++++++++++++++++++++++++++++++++++++++++++++++++++++++++++++++++++++++++++++++++++++++++++++++++++++++++++++++++++++++++++++++++++++++++++++++++++++++++++++++++++++++++++++++++++++++++++++++++++++++++++#####################.......                                                                                                                                                                                                                        ",
"                .......#######+++++++++++++++++++++++++++++++++++++++++++++++++++++++++++++++++++++++++++++++++++++++++++++++++++++++++++++++++++++++++++++++++++++++++++++++++++++++++++++++++++++++++++++++++++++++++++++++++++++++++++++++++++++++++++++++++++++++++++++++++++++++++++++++++++++++++++++++++++++++++++++++#####################.......                                                                                                                                                                                                                        ",
"                .......#######+++++++++++++++++++++++++++++++++++++++++++++++++++++++++++++++++++++++++++++++++++++++++++++++++++++++++++++++++++++++++++++++++++++++++++++++++++++++++++++++++++++++++++++++++++++++++++++++++++++++++++++++++++++++++++++++++++++++++++++++++++++++++++++++++++++++++++++++++++++++++++++++#####################.......                                                                                                                                                                                                                        ",
"                .......#######+++++++++++++++++++++++++++++++++++++++++++++++++++++++++++++++++++++++++++++++++++++++++++++++++++++++++++++++++++++++++++++++++++++++++++++++++++++++++++++++++++++++++++++++++++++++++++++++++++++++++++++++++++++++++++++++++++++++++++++++++++++++++++++++++++++++++++++++++++++++++++++++#####################.......                                                                                                                                                                                                                        ",
"                .......#######+++++++++++++++++++++++++++++++++++++++++++++++++++++++++++++++++++++++++++++++++++++++++++++++++++++++++++++++++++++++++++++++++++++++++++++++++++++++++++++++++++++++++++++++++++++++++++++++++++++++++++++++++++++++++++++++++++++++++++++++++++++++++++++++++++++++++++++++++++++++++++++++#####################.......                                                                                                                                                                                                                        ",
"         .......#######++++++++++++++++++++++++++++++++++++++++++++++++++++++++++++++++++++++++++++++++++++++++++++++++++++++++++++++++++++++++++++++++++++++++++++++++++++++++++++++++++++++++++++++++++++++++++++++++++++++++++++++++++++++++++++++++++++++++++++++++++++++++++++++++++++++++++++++++++++++++++++++++++++++##############..............                                                                                                                                                                                                                        ",
"         .......#######++++++++++++++++++++++++++++++++++++++++++++++++++++++++++++++++++++++++++++++++++++++++++++++++++++++++++++++++++++++++++++++++++++++++++++++++++++++++++++++++++++++++++++++++++++++++++++++++++++++++++++++++++++++++++++++++++++++++++++++++++++++++++++++++++++++++++++++++++++++++++++++++++++++##############..............                                                                                                                                                                                                                        ",
"         .......#######++++++++++++++++++++++++++++++++++++++++++++++++++++++++++++++++++++++++++++++++++++++++++++++++++++++++++++++++++++++++++++++++++++++++++++++++++++++++++++++++++++++++++++++++++++++++++++++++++++++++++++++++++++++++++++++++++++++++++++++++++++++++++++++++++++++++++++++++++++++++++++++++++++++##############..............                                                                                                                                                                                                                        ",
"         .......#######++++++++++++++++++++++++++++++++++++++++++++++++++++++++++++++++++++++++++++++++++++++++++++++++++++++++++++++++++++++++++++++++++++++++++++++++++++++++++++++++++++++++++++++++++++++++++++++++++++++++++++++++++++++++++++++++++++++++++++++++++++++++++++++++++++++++++++++++++++++++++++++++++++++##############..............                                                                                                                                                                                                                        ",
"         .......#######++++++++++++++++++++++++++++++++++++++++++++++++++++++++++++++++++++++++++++++++++++++++++++++++++++++++++++++++++++++++++++++++++++++++++++++++++++++++++++++++++++++++++++++++++++++++++++++++++++++++++++++++++++++++++++++++++++++++++++++++++++++++++++++++++++++++++++++++++++++++++++++++++++++##############..............                                                                                                                                                                                                                        ",
"         .......#######++++++++++++++++++++++++++++++++++++++++++++++++++++++++++++++++++++++++++++++++++++++++++++++++++++++++++++++++++++++++++++++++++++++++++++++++++++++++++++++++++++++++++++++++++++++++++++++++++++++++++++++++++++++++++++++++++++++++++++++++++++++++++++++++++++++++++++++++++++++++++++++++++++++##############..............                                                                                                                                                                                                                        ",
"         .......#######++++++++++++++++++++++++++++++++++++++++++++++++++++++++++++++++++++++++++++++++++++++++++++++++++++++++++++++++++++++++++++++++++++++++++++++++++++++++++++++++++++++++++++++++++++++++++++++++++++++++++++++++++++++++++++++++++++++++++++++++++++++++++++++++++++++++++++++++++++++++++++++++++++++##############..............                                                                                                                                                                                                                        ",
"  .......#######+++++++++++++++++++++++++++++++++++++++++++++++++++++++++++++++++++++++++++++++++++++++++++++++++++++++++++++++++++++++++++++++++++++++++++++++++++++++++++++++++++++++++++++++++++++++++++++++++++++++++++++++++++++++++++++++++++++++++++++++++++++++++++++++++++++++++++++++++++++++++++++++++++++++++++++##############.......                                                                                                                                                                                                                               ",
"  .......#######+++++++++++++++++++++++++++++++++++++++++++++++++++++++++++++++++++++++++++++++++++++++++++++++++++++++++++++++++++++++++++++++++++++++++++++++++++++++++++++++++++++++++++++++++++++++++++++++++++++++++++++++++++++++++++++++++++++++++++++++++++++++++++++++++++++++++++++++++++++++++++++++++++++++++++++##############.......                                                                                                                                                                                                                               ",
"  .......#######+++++++++++++++++++++++++++++++++++++++++++++++++++++++++++++++++++++++++++++++++++++++++++++++++++++++++++++++++++++++++++++++++++++++++++++++++++++++++++++++++++++++++++++++++++++++++++++++++++++++++++++++++++++++++++++++++++++++++++++++++++++++++++++++++++++++++++++++++++++++++++++++++++++++++++++##############.......                                                                                                                                                                                                                               ",
"  .......#######+++++++++++++++++++++++++++++++++++++++++++++++++++++++++++++++++++++++++++++++++++++++++++++++++++++++++++++++++++++++++++++++++++++++++++++++++++++++++++++++++++++++++++++++++++++++++++++++++++++++++++++++++++++++++++++++++++++++++++++++++++++++++++++++++++++++++++++++++++++++++++++++++++++++++++++##############.......                                                                                                                                                                                                                               ",
"  .......#######+++++++++++++++++++++++++++++++++++++++++++++++++++++++++++++++++++++++++++++++++++++++++++++++++++++++++++++++++++++++++++++++++++++++++++++++++++++++++++++++++++++++++++++++++++++++++++++++++++++++++++++++++++++++++++++++++++++++++++++++++++++++++++++++++++++++++++++++++++++++++++++++++++++++++++++##############.......                                                                                                                                                                                                                               ",
"  .......#######+++++++++++++++++++++++++++++++++++++++++++++++++++++++++++++++++++++++++++++++++++++++++++++++++++++++++++++++++++++++++++++++++++++++++++++++++++++++++++++++++++++++++++++++++++++++++++++++++++++++++++++++++++++++++++++++++++++++++++++++++++++++++++++++++++++++++++++++++++++++++++++++++++++++++++++##############.......                                                                                                                                                                                                                               ",
"  .......#######+++++++++++++++++++++++++++++++++++++++++++++++++++++++++++++++++++++++++++++++++++++++++++++++++++++++++++++++++++++++++++++++++++++++++++++++++++++++++++++++++++++++++++++++++++++++++++++++++++++++++++++++++++++++++++++++++++++++++++++++++++++++++++++++++++++++++++++++++++++++++++++++++++++++++++++##############.......                                                                                                                                                                                                                               "};
